; generated by Slic3r 1.2.9 on 2016-03-28 at 14:22:44

; external perimeters extrusion width = 0.50mm
; perimeters extrusion width = 0.85mm
; infill extrusion width = 0.87mm
; solid infill extrusion width = 0.85mm
; top infill extrusion width = 0.85mm

M107
M190 S65 ; set bed temperature
M104 S190 ; set temperature
G28 Z0
M83
T1
M109 S190 ; wait for temperature to be reached
G21 ; set units to millimeters
G90 ; use absolute coordinates
M83 ; use relative distances for extrusion
G1 E-2.40000 F3600.00000
G1 Z0.360 F15000.000
G1 X93.561 Y20.803 F15000.000
G1 E2.40000 F3600.00000
G1 X93.816 Y20.386 E0.04709 F1200.000
G1 X94.091 Y20.007 E0.04503
G1 X94.563 Y19.482 E0.06803
G1 X95.096 Y19.022 E0.06781
G1 X95.686 Y18.629 E0.06819
G1 X96.319 Y18.315 E0.06806
G1 X96.985 Y18.083 E0.06788
G1 X97.676 Y17.936 E0.06803
G1 X98.380 Y17.876 E0.06804
G1 X116.620 Y17.876 E1.75597
G1 X117.087 Y17.906 E0.04504
G1 X117.783 Y18.023 E0.06803
G1 X118.458 Y18.227 E0.06788
G1 X119.104 Y18.514 E0.06806
G1 X119.314 Y18.629 E0.02303
G1 X119.904 Y19.022 E0.06819
G1 X120.437 Y19.482 E0.06781
G1 X120.757 Y19.823 E0.04503
G1 X121.184 Y20.386 E0.06803
G1 X121.312 Y20.588 E0.02303
G1 X121.639 Y21.213 E0.06790
G1 X121.812 Y21.649 E0.04515
G1 X121.913 Y21.963 E0.03177
G1 X142.454 Y90.878 E6.92322
G1 X142.544 Y91.244 E0.03626
G1 X143.306 Y95.241 E0.39178
G1 X143.365 Y95.705 E0.04500
G1 X143.620 Y99.766 E0.39178
G1 X143.620 Y100.234 E0.04501
G1 X143.365 Y104.295 E0.39178
G1 X143.306 Y104.759 E0.04499
G1 X142.543 Y108.757 E0.39187
G1 X142.454 Y109.122 E0.03617
G1 X121.913 Y178.037 E6.92322
G1 X121.812 Y178.351 E0.03178
G1 X121.639 Y178.787 E0.04514
G1 X121.312 Y179.412 E0.06790
G1 X121.184 Y179.614 E0.02303
G1 X120.757 Y180.177 E0.06803
G1 X120.262 Y180.682 E0.06804
G1 X119.710 Y181.119 E0.06781
G1 X119.104 Y181.486 E0.06817
G1 X118.458 Y181.773 E0.06810
G1 X117.783 Y181.977 E0.06786
G1 X117.324 Y182.064 E0.04499
G1 X116.620 Y182.124 E0.06808
G1 X98.380 Y182.124 E1.75597
G1 X97.913 Y182.094 E0.04508
G1 X97.217 Y181.977 E0.06798
G1 X96.985 Y181.917 E0.02303
G1 X96.319 Y181.685 E0.06786
G1 X95.896 Y181.486 E0.04510
G1 X95.290 Y181.119 E0.06817
G1 X95.096 Y180.979 E0.02303
G1 X94.563 Y180.518 E0.06782
G1 X94.243 Y180.177 E0.04504
G1 X93.816 Y179.614 E0.06803
G1 X93.561 Y179.197 E0.04709
G1 X56.825 Y111.684 E7.39966
G1 X56.372 Y109.905 E0.17676
G1 X56.372 Y90.095 E1.90720
G1 X56.825 Y88.316 E0.17676
G1 X93.525 Y20.869 E7.39244
G1 E-2.40000 F3600.00000
G1 X118.005 Y69.806 F15000.000
G1 E2.40000 F3600.00000
G1 X121.127 Y71.042 E0.32323 F1350.000
G1 X124.649 Y72.978 E0.38694
G1 X127.900 Y75.340 E0.38694
G1 X130.830 Y78.092 E0.38693
G1 X133.387 Y81.183 E0.38621
G1 X135.545 Y84.582 E0.38766
G1 X137.257 Y88.219 E0.38694
G1 X138.499 Y92.041 E0.38694
G1 X139.252 Y95.989 E0.38693
G1 X139.504 Y100.000 E0.38694
G1 X139.252 Y104.011 E0.38693
G1 X138.499 Y107.959 E0.38693
G1 X137.257 Y111.781 E0.38693
G1 X135.545 Y115.418 E0.38694
G1 X133.392 Y118.811 E0.38693
G1 X130.830 Y121.908 E0.38694
G1 X127.900 Y124.660 E0.38694
G1 X124.649 Y127.022 E0.38694
G1 X121.127 Y128.958 E0.38694
G1 X118.005 Y130.194 E0.32323
G1 X118.005 Y176.484 E4.45657
G1 X117.957 Y176.874 E0.03781
G1 X117.818 Y177.225 E0.03628
G1 X117.596 Y177.530 E0.03630
G1 X117.306 Y177.770 E0.03630
G1 X116.965 Y177.930 E0.03629
G1 X116.594 Y178.001 E0.03630
G1 X98.406 Y178.001 E1.75112
G1 X98.218 Y177.977 E0.01818
G1 X97.860 Y177.861 E0.03631
G1 X97.694 Y177.770 E0.01817
G1 X97.404 Y177.530 E0.03631
G1 X97.283 Y177.384 E0.01818
G1 X97.102 Y177.054 E0.03630
G1 X97.043 Y176.874 E0.01817
G1 X96.995 Y176.484 E0.03781
G1 X96.995 Y130.194 E4.45657
G1 X93.873 Y128.958 E0.32323
G1 X90.351 Y127.022 E0.38694
G1 X87.100 Y124.660 E0.38694
G1 X84.170 Y121.908 E0.38694
G1 X81.608 Y118.811 E0.38694
G1 X79.455 Y115.418 E0.38693
G1 X77.743 Y111.781 E0.38694
G1 X77.004 Y109.505 E0.23044
G1 X60.495 Y109.505 E1.58937
G1 X60.495 Y106.695 E0.27053
G1 X68.495 Y106.695 E0.77019
G1 X68.495 Y101.505 E0.49966
G1 X60.495 Y101.505 E0.77019
G1 X60.495 Y98.695 E0.27053
G1 X68.495 Y98.695 E0.77019
G1 X68.495 Y93.505 E0.49966
G1 X60.495 Y93.505 E0.77019
G1 X60.495 Y90.495 E0.28979
G1 X77.004 Y90.495 E1.58937
G1 X77.743 Y88.219 E0.23044
G1 X79.455 Y84.582 E0.38694
G1 X81.608 Y81.189 E0.38693
G1 X84.170 Y78.092 E0.38694
G1 X87.100 Y75.340 E0.38694
G1 X90.351 Y72.978 E0.38694
G1 X93.873 Y71.042 E0.38694
G1 X96.995 Y69.806 E0.32323
G1 X96.995 Y23.516 E4.45657
G1 X97.043 Y23.126 E0.03781
G1 X97.102 Y22.946 E0.01817
G1 X97.283 Y22.616 E0.03630
G1 X97.404 Y22.470 E0.01818
G1 X97.694 Y22.230 E0.03631
G1 X98.035 Y22.070 E0.03629
G1 X98.406 Y21.999 E0.03630
G1 X116.594 Y21.999 E1.75112
G1 X116.965 Y22.070 E0.03630
G1 X117.306 Y22.230 E0.03629
G1 X117.596 Y22.470 E0.03631
G1 X117.717 Y22.616 E0.01818
G1 X117.898 Y22.946 E0.03630
G1 X117.992 Y23.311 E0.03629
G1 X118.005 Y23.516 E0.01970
G1 X118.005 Y69.731 E4.44935
G1 X117.881 Y70.290 F15000.000
G1 X117.282 Y70.297 F15000.000
G1 X120.818 Y71.697 E0.36614 F1350.000
G1 X124.261 Y73.590 E0.37818
G1 X127.439 Y75.898 E0.37818
G1 X130.302 Y78.587 E0.37818
G1 X132.801 Y81.608 E0.37746
G1 X134.911 Y84.931 E0.37891
G1 X136.583 Y88.485 E0.37817
G1 X137.797 Y92.221 E0.37818
G1 X138.533 Y96.080 E0.37818
G1 X138.780 Y100.000 E0.37818
G1 X138.533 Y103.920 E0.37818
G1 X137.797 Y107.779 E0.37818
G1 X136.583 Y111.515 E0.37818
G1 X134.911 Y115.069 E0.37819
G1 X132.806 Y118.386 E0.37818
G1 X130.302 Y121.413 E0.37818
G1 X127.439 Y124.102 E0.37818
G1 X124.261 Y126.410 E0.37818
G1 X120.818 Y128.303 E0.37818
G1 X117.282 Y129.703 E0.36614
G1 X117.282 Y176.462 E4.50167
G1 X117.255 Y176.694 E0.02253
G1 X117.183 Y176.876 E0.01879
G1 X117.069 Y177.034 E0.01883
G1 X116.918 Y177.159 E0.01885
G1 X116.741 Y177.242 E0.01879
G1 X116.549 Y177.278 E0.01884
G1 X98.354 Y177.266 E1.75169
G1 X98.082 Y177.159 E0.02813
G1 X97.869 Y176.958 E0.02816
G1 X97.745 Y176.694 E0.02812
G1 X97.718 Y176.462 E0.02253
G1 X97.718 Y129.703 E4.50167
G1 X94.182 Y128.303 E0.36614
G1 X90.739 Y126.410 E0.37818
G1 X87.561 Y124.102 E0.37818
G1 X84.698 Y121.413 E0.37818
G1 X82.194 Y118.386 E0.37819
G1 X80.089 Y115.069 E0.37818
G1 X78.417 Y111.515 E0.37818
G1 X77.529 Y108.782 E0.27662
G1 X61.218 Y108.782 E1.57034
G1 X61.218 Y107.418 E0.13137
G1 X69.218 Y107.418 E0.77019
G1 X69.218 Y100.782 E0.63883
G1 X61.218 Y100.782 E0.77019
G1 X61.218 Y99.418 E0.13137
G1 X69.218 Y99.418 E0.77019
G1 X69.218 Y92.782 E0.63883
G1 X61.218 Y92.782 E0.77019
G1 X61.218 Y91.218 E0.15062
G1 X77.529 Y91.218 E1.57034
G1 X78.417 Y88.485 E0.27662
G1 X80.089 Y84.931 E0.37818
G1 X82.194 Y81.614 E0.37818
G1 X84.698 Y78.587 E0.37819
G1 X87.561 Y75.898 E0.37818
G1 X90.739 Y73.590 E0.37818
G1 X94.182 Y71.697 E0.37819
G1 X97.718 Y70.297 E0.36614
G1 X97.718 Y23.538 E4.50167
G1 X97.745 Y23.306 E0.02253
G1 X97.869 Y23.042 E0.02812
G1 X98.082 Y22.841 E0.02816
G1 X98.259 Y22.758 E0.01880
G1 X98.451 Y22.722 E0.01883
G1 X116.549 Y22.722 E1.74236
G1 X116.741 Y22.758 E0.01883
G1 X116.918 Y22.841 E0.01879
G1 X117.069 Y22.966 E0.01885
G1 X117.225 Y23.213 E0.02814
G1 X117.274 Y23.402 E0.01880
G1 X117.282 Y23.538 E0.01314
G1 X117.282 Y70.222 E4.49445
G1 E-2.40000 F3600.00000
G1 X113.657 Y28.991 F15000.000
G1 E2.40000 F3600.00000
G1 X113.343 Y28.991 E0.03018 F960.000
G1 X113.032 Y28.952 E0.03018
G1 X112.729 Y28.874 E0.03017
G1 X112.437 Y28.759 E0.03017
G1 X112.163 Y28.607 E0.03019
G1 X111.909 Y28.423 E0.03018
G1 X111.681 Y28.209 E0.03017
G1 X111.481 Y27.967 E0.03018
G1 X111.313 Y27.702 E0.03018
G1 X111.179 Y27.419 E0.03017
G1 X111.082 Y27.120 E0.03029
G1 X111.023 Y26.800 E0.03129
G1 X111.004 Y26.500 E0.02896
G1 X111.024 Y26.187 E0.03018
G1 X111.082 Y25.879 E0.03018
G1 X111.179 Y25.581 E0.03018
G1 X111.313 Y25.298 E0.03017
G1 X111.481 Y25.033 E0.03018
G1 X111.681 Y24.791 E0.03018
G1 X111.909 Y24.577 E0.03017
G1 X112.163 Y24.393 E0.03018
G1 X112.437 Y24.242 E0.03019
G1 X112.729 Y24.126 E0.03017
G1 X113.032 Y24.048 E0.03017
G1 X113.343 Y24.009 E0.03018
G1 X113.657 Y24.009 E0.03018
G1 X113.968 Y24.048 E0.03018
G1 X114.271 Y24.126 E0.03017
G1 X114.563 Y24.242 E0.03017
G1 X114.837 Y24.393 E0.03019
G1 X115.091 Y24.577 E0.03018
G1 X115.319 Y24.791 E0.03017
G1 X115.519 Y25.033 E0.03018
G1 X115.687 Y25.298 E0.03018
G1 X115.821 Y25.581 E0.03017
G1 X115.918 Y25.880 E0.03029
G1 X115.977 Y26.200 E0.03129
G1 X115.996 Y26.500 E0.02896
G1 X115.976 Y26.813 E0.03018
G1 X115.918 Y27.121 E0.03018
G1 X115.821 Y27.419 E0.03018
G1 X115.687 Y27.702 E0.03017
G1 X115.519 Y27.967 E0.03018
G1 X115.319 Y28.209 E0.03018
G1 X115.091 Y28.423 E0.03017
G1 X114.837 Y28.607 E0.03018
G1 X114.563 Y28.759 E0.03019
G1 X114.271 Y28.874 E0.03017
G1 X113.968 Y28.952 E0.03017
G1 X113.731 Y28.982 E0.02296
G1 X113.512 Y29.269 F15000.000
G1 X113.702 Y29.714 F15000.000
G1 X113.298 Y29.714 E0.03894 F960.000
G1 X112.896 Y29.663 E0.03894
G1 X112.505 Y29.563 E0.03891
G1 X112.129 Y29.414 E0.03892
G1 X111.774 Y29.219 E0.03896
G1 X111.447 Y28.981 E0.03893
G1 X111.153 Y28.704 E0.03891
G1 X110.895 Y28.393 E0.03894
G1 X110.678 Y28.051 E0.03893
G1 X110.506 Y27.686 E0.03892
G1 X110.380 Y27.298 E0.03923
G1 X110.304 Y26.889 E0.04004
G1 X110.280 Y26.500 E0.03753
G1 X110.305 Y26.096 E0.03893
G1 X110.381 Y25.699 E0.03893
G1 X110.506 Y25.314 E0.03894
G1 X110.678 Y24.949 E0.03892
G1 X110.895 Y24.607 E0.03893
G1 X111.153 Y24.296 E0.03894
G1 X111.447 Y24.019 E0.03892
G1 X111.774 Y23.781 E0.03893
G1 X112.129 Y23.586 E0.03896
G1 X112.505 Y23.437 E0.03892
G1 X112.896 Y23.337 E0.03891
G1 X113.298 Y23.286 E0.03894
G1 X113.702 Y23.286 E0.03894
G1 X114.104 Y23.337 E0.03894
G1 X114.495 Y23.437 E0.03892
G1 X114.871 Y23.586 E0.03892
G1 X115.226 Y23.781 E0.03896
G1 X115.553 Y24.019 E0.03893
G1 X115.847 Y24.296 E0.03891
G1 X116.105 Y24.607 E0.03894
G1 X116.322 Y24.949 E0.03893
G1 X116.494 Y25.314 E0.03892
G1 X116.620 Y25.702 E0.03923
G1 X116.696 Y26.111 E0.04004
G1 X116.720 Y26.500 E0.03753
G1 X116.695 Y26.904 E0.03893
G1 X116.619 Y27.301 E0.03893
G1 X116.494 Y27.686 E0.03894
G1 X116.322 Y28.051 E0.03892
G1 X116.105 Y28.393 E0.03893
G1 X115.847 Y28.704 E0.03894
G1 X115.553 Y28.981 E0.03892
G1 X115.226 Y29.219 E0.03893
G1 X114.871 Y29.414 E0.03896
G1 X114.495 Y29.563 E0.03892
G1 X114.104 Y29.663 E0.03891
G1 X113.777 Y29.704 E0.03172
G1 E-2.40000 F3600.00000
G1 X103.918 Y27.121 F15000.000
G1 E2.40000 F3600.00000
G1 X103.821 Y27.419 E0.03018 F960.000
G1 X103.687 Y27.702 E0.03017
G1 X103.519 Y27.967 E0.03018
G1 X103.319 Y28.209 E0.03018
G1 X103.091 Y28.423 E0.03017
G1 X102.837 Y28.607 E0.03018
G1 X102.563 Y28.759 E0.03019
G1 X102.271 Y28.874 E0.03017
G1 X101.968 Y28.952 E0.03017
G1 X101.657 Y28.991 E0.03018
G1 X101.343 Y28.991 E0.03018
G1 X101.032 Y28.952 E0.03018
G1 X100.729 Y28.874 E0.03017
G1 X100.437 Y28.759 E0.03017
G1 X100.163 Y28.607 E0.03019
G1 X99.909 Y28.423 E0.03018
G1 X99.681 Y28.209 E0.03017
G1 X99.481 Y27.967 E0.03018
G1 X99.313 Y27.702 E0.03018
G1 X99.179 Y27.419 E0.03017
G1 X99.082 Y27.120 E0.03029
G1 X99.023 Y26.800 E0.03129
G1 X99.004 Y26.500 E0.02896
G1 X99.024 Y26.187 E0.03018
G1 X99.082 Y25.879 E0.03018
G1 X99.179 Y25.581 E0.03018
G1 X99.313 Y25.298 E0.03017
G1 X99.481 Y25.033 E0.03018
G1 X99.681 Y24.791 E0.03018
G1 X99.909 Y24.577 E0.03017
G1 X100.163 Y24.393 E0.03018
G1 X100.437 Y24.242 E0.03019
G1 X100.729 Y24.126 E0.03017
G1 X101.032 Y24.048 E0.03017
G1 X101.343 Y24.009 E0.03018
G1 X101.657 Y24.009 E0.03018
G1 X101.968 Y24.048 E0.03018
G1 X102.271 Y24.126 E0.03017
G1 X102.563 Y24.241 E0.03017
G1 X102.837 Y24.393 E0.03019
G1 X103.091 Y24.577 E0.03018
G1 X103.319 Y24.791 E0.03017
G1 X103.519 Y25.033 E0.03018
G1 X103.687 Y25.298 E0.03018
G1 X103.821 Y25.581 E0.03017
G1 X103.918 Y25.880 E0.03029
G1 X103.977 Y26.200 E0.03129
G1 X103.996 Y26.500 E0.02896
G1 X103.976 Y26.813 E0.03018
G1 X103.932 Y27.047 E0.02296
G1 X104.137 Y27.345 F15000.000
G1 X104.619 Y27.301 F15000.000
G1 X104.494 Y27.686 E0.03894 F960.000
G1 X104.322 Y28.051 E0.03892
G1 X104.105 Y28.393 E0.03893
G1 X103.847 Y28.704 E0.03894
G1 X103.553 Y28.981 E0.03892
G1 X103.226 Y29.219 E0.03893
G1 X102.871 Y29.414 E0.03896
G1 X102.495 Y29.563 E0.03892
G1 X102.104 Y29.663 E0.03891
G1 X101.702 Y29.714 E0.03894
G1 X101.298 Y29.714 E0.03894
G1 X100.896 Y29.663 E0.03894
G1 X100.505 Y29.563 E0.03892
G1 X100.129 Y29.414 E0.03892
G1 X99.774 Y29.219 E0.03896
G1 X99.447 Y28.981 E0.03893
G1 X99.153 Y28.704 E0.03891
G1 X98.895 Y28.393 E0.03894
G1 X98.678 Y28.051 E0.03893
G1 X98.506 Y27.686 E0.03892
G1 X98.380 Y27.298 E0.03923
G1 X98.304 Y26.889 E0.04004
G1 X98.280 Y26.500 E0.03753
G1 X98.305 Y26.096 E0.03894
G1 X98.381 Y25.699 E0.03893
G1 X98.506 Y25.314 E0.03894
G1 X98.678 Y24.949 E0.03892
G1 X98.895 Y24.607 E0.03893
G1 X99.153 Y24.296 E0.03894
G1 X99.447 Y24.019 E0.03892
G1 X99.774 Y23.781 E0.03893
G1 X100.129 Y23.586 E0.03896
G1 X100.505 Y23.437 E0.03892
G1 X100.896 Y23.337 E0.03891
G1 X101.298 Y23.286 E0.03894
G1 X101.702 Y23.286 E0.03894
G1 X102.104 Y23.337 E0.03894
G1 X102.495 Y23.437 E0.03892
G1 X102.871 Y23.586 E0.03892
G1 X103.226 Y23.781 E0.03896
G1 X103.553 Y24.019 E0.03893
G1 X103.847 Y24.296 E0.03891
G1 X104.105 Y24.607 E0.03894
G1 X104.322 Y24.949 E0.03893
G1 X104.494 Y25.314 E0.03892
G1 X104.620 Y25.702 E0.03923
G1 X104.696 Y26.111 E0.04004
G1 X104.720 Y26.500 E0.03753
G1 X104.695 Y26.904 E0.03893
G1 X104.633 Y27.227 E0.03171
G1 E-2.40000 F3600.00000
G1 X106.841 Y89.525 F15000.000
G1 E2.40000 F3600.00000
G1 X108.159 Y89.525 E0.12690 F1350.000
G1 X109.467 Y89.690 E0.12690
G1 X110.743 Y90.018 E0.12690
G1 X111.969 Y90.503 E0.12690
G1 X113.124 Y91.138 E0.12690
G1 X114.190 Y91.913 E0.12690
G1 X115.151 Y92.815 E0.12690
G1 X115.991 Y93.831 E0.12690
G1 X116.698 Y94.944 E0.12690
G1 X117.259 Y96.136 E0.12690
G1 X117.666 Y97.390 E0.12690
G1 X117.913 Y98.685 E0.12690
G1 X117.996 Y100.000 E0.12690
G1 X117.913 Y101.315 E0.12690
G1 X117.666 Y102.610 E0.12690
G1 X117.259 Y103.864 E0.12690
G1 X116.698 Y105.056 E0.12690
G1 X115.991 Y106.169 E0.12690
G1 X115.900 Y106.280 E0.01388
G1 X115.151 Y107.185 E0.11302
G1 X114.190 Y108.087 E0.12690
G1 X113.124 Y108.862 E0.12690
G1 X111.969 Y109.497 E0.12690
G1 X110.743 Y109.982 E0.12690
G1 X109.467 Y110.310 E0.12690
G1 X108.159 Y110.475 E0.12690
G1 X106.841 Y110.475 E0.12690
G1 X105.533 Y110.310 E0.12690
G1 X104.257 Y109.982 E0.12690
G1 X103.031 Y109.497 E0.12690
G1 X101.876 Y108.862 E0.12690
G1 X100.810 Y108.087 E0.12690
G1 X99.849 Y107.185 E0.12690
G1 X99.009 Y106.169 E0.12690
G1 X98.302 Y105.056 E0.12690
G1 X97.741 Y103.864 E0.12690
G1 X97.334 Y102.610 E0.12690
G1 X97.087 Y101.315 E0.12690
G1 X97.004 Y100.000 E0.12690
G1 X97.087 Y98.685 E0.12690
G1 X97.334 Y97.390 E0.12690
G1 X97.741 Y96.136 E0.12690
G1 X98.302 Y94.944 E0.12690
G1 X99.009 Y93.831 E0.12690
G1 X99.849 Y92.815 E0.12690
G1 X100.810 Y91.913 E0.12690
G1 X101.876 Y91.138 E0.12690
G1 X103.031 Y90.503 E0.12690
G1 X104.257 Y90.018 E0.12690
G1 X105.533 Y89.690 E0.12690
G1 X106.767 Y89.534 E0.11968
G1 X107.073 Y89.082 F15000.000
G1 X106.795 Y88.802 F15000.000
G1 X108.205 Y88.802 E0.13566 F1350.000
G1 X109.602 Y88.979 E0.13565
G1 X110.967 Y89.329 E0.13565
G1 X112.277 Y89.848 E0.13565
G1 X113.512 Y90.527 E0.13565
G1 X114.652 Y91.355 E0.13566
G1 X115.679 Y92.319 E0.13565
G1 X116.577 Y93.405 E0.13565
G1 X117.332 Y94.595 E0.13565
G1 X117.932 Y95.870 E0.13566
G1 X118.368 Y97.210 E0.13565
G1 X118.632 Y98.594 E0.13566
G1 X118.720 Y100.000 E0.13565
G1 X118.632 Y101.406 E0.13565
G1 X118.368 Y102.790 E0.13566
G1 X117.932 Y104.130 E0.13565
G1 X117.332 Y105.405 E0.13566
G1 X116.577 Y106.595 E0.13565
G1 X116.456 Y106.741 E0.01826
G1 X115.679 Y107.681 E0.11740
G1 X114.652 Y108.645 E0.13565
G1 X113.512 Y109.473 E0.13565
G1 X112.277 Y110.152 E0.13566
G1 X110.967 Y110.671 E0.13565
G1 X109.602 Y111.021 E0.13565
G1 X108.205 Y111.198 E0.13565
G1 X106.795 Y111.198 E0.13566
G1 X105.398 Y111.021 E0.13565
G1 X104.033 Y110.671 E0.13565
G1 X102.723 Y110.152 E0.13565
G1 X101.488 Y109.473 E0.13566
G1 X100.348 Y108.645 E0.13565
G1 X99.321 Y107.681 E0.13565
G1 X98.423 Y106.595 E0.13565
G1 X97.668 Y105.405 E0.13565
G1 X97.068 Y104.130 E0.13566
G1 X96.632 Y102.790 E0.13565
G1 X96.368 Y101.406 E0.13566
G1 X96.280 Y100.000 E0.13565
G1 X96.368 Y98.594 E0.13565
