; generated by Slic3r 1.2.9 on 2016-03-27 at 22:04:46

; external perimeters extrusion width = 0.50mm
; perimeters extrusion width = 0.85mm
; infill extrusion width = 0.87mm
; solid infill extrusion width = 0.85mm
; top infill extrusion width = 0.85mm

M107
M104 S200 ; set temperature
G28 Z0
M83
M109 S200 ; wait for temperature to be reached
G21 ; set units to millimeters
G90 ; use absolute coordinates
M83 ; use relative distances for extrusion
G1 Z0.360 F15000.000
G1 E-2.00000 F3600.00000
G1 Z0.361 F15000.000
G1 X60.209 Y78.066 F15000.000
G1 Z0.360 F15000.000
G1 E2.00000 F3600.00000
G1 X96.709 Y49.566 E4.45835 F1200.000
G1 X99.000 Y48.777 E0.23327
G1 X111.000 Y48.777 E1.15529
G1 X112.668 Y49.172 E0.16503
G1 X114.029 Y50.336 E0.17238
G1 X134.322 Y78.733 E3.36024
G1 X136.623 Y82.349 E0.41266
G1 X136.848 Y82.758 E0.04498
G1 X138.586 Y86.451 E0.39293
G1 X138.758 Y86.886 E0.04499
G1 X140.020 Y90.767 E0.39293
G1 X140.136 Y91.220 E0.04502
G1 X140.901 Y95.229 E0.39293
G1 X140.959 Y95.693 E0.04500
G1 X141.215 Y99.766 E0.39293
G1 X141.215 Y100.234 E0.04501
G1 X140.959 Y104.308 E0.39298
G1 X140.901 Y104.771 E0.04495
G1 X140.136 Y108.781 E0.39300
G1 X140.020 Y109.233 E0.04495
G1 X138.758 Y113.115 E0.39303
G1 X138.586 Y113.549 E0.04490
G1 X136.848 Y117.242 E0.39295
G1 X136.623 Y117.652 E0.04500
G1 X134.322 Y121.267 E0.41263
G1 X114.029 Y149.664 E3.36024
G1 X112.738 Y150.792 E0.16503
G1 X111.000 Y151.223 E0.17238
G1 X99.000 Y151.223 E1.15529
G1 X96.709 Y150.434 E0.23327
G1 X60.209 Y121.934 E4.45835
G1 X59.137 Y120.597 E0.16503
G1 X58.777 Y119.000 E0.15756
G1 X58.777 Y81.000 E3.65843
G1 X59.172 Y79.332 E0.16503
G1 X60.161 Y78.124 E0.15034
G1 E-2.00000 F3600.00000
G1 Z0.361 F15000.000
G1 X114.600 Y130.648 F15000.000
G1 Z0.360 F15000.000
G1 E2.00000 F3600.00000
G1 X114.600 Y139.100 E0.81370 F1350.000
G1 X110.600 Y139.100 E0.38510
G1 X110.600 Y147.100 E0.77019
G1 X107.400 Y147.100 E0.30808
G1 X107.400 Y139.100 E0.77019
G1 X102.600 Y139.100 E0.46212
G1 X102.600 Y147.100 E0.77019
G1 X99.400 Y147.100 E0.30808
G1 X99.400 Y139.100 E0.77019
G1 X95.400 Y139.100 E0.38510
G1 X95.400 Y130.648 E0.81370
G1 X91.333 Y129.044 E0.42094
G1 X87.800 Y127.102 E0.38806
G1 X84.539 Y124.733 E0.38809
G1 X81.601 Y121.973 E0.38809
G1 X79.031 Y118.867 E0.38808
G1 X78.862 Y118.600 E0.03049
G1 X72.666 Y118.600 E0.59651
G1 X67.500 Y113.434 E0.70332
G1 X62.900 Y118.034 E0.62630
G1 X62.900 Y81.966 E3.47248
G1 X67.500 Y86.566 E0.62630
G1 X72.666 Y81.400 E0.70332
G1 X78.862 Y81.400 E0.59651
G1 X79.031 Y81.133 E0.03049
G1 X81.601 Y78.027 E0.38808
G1 X84.539 Y75.267 E0.38809
G1 X87.800 Y72.898 E0.38809
G1 X91.333 Y70.956 E0.38806
G1 X95.400 Y69.352 E0.42094
G1 X95.400 Y60.900 E0.81369
G1 X99.400 Y60.900 E0.38510
G1 X99.400 Y52.900 E0.77019
G1 X102.600 Y52.900 E0.30808
G1 X102.600 Y60.900 E0.77019
G1 X107.400 Y60.900 E0.46212
G1 X107.400 Y52.900 E0.77019
G1 X110.600 Y52.900 E0.30808
G1 X110.600 Y60.900 E0.77019
G1 X114.600 Y60.900 E0.38510
G1 X114.600 Y69.352 E0.81369
G1 X118.667 Y70.956 E0.42094
G1 X122.200 Y72.898 E0.38806
G1 X125.461 Y75.267 E0.38809
G1 X128.399 Y78.027 E0.38809
G1 X130.969 Y81.133 E0.38809
G1 X133.129 Y84.536 E0.38808
G1 X134.845 Y88.184 E0.38809
G1 X136.091 Y92.017 E0.38809
G1 X136.846 Y95.977 E0.38809
G1 X137.099 Y100.000 E0.38809
G1 X136.846 Y104.023 E0.38809
G1 X136.093 Y107.969 E0.38678
G1 X134.845 Y111.817 E0.38938
G1 X133.129 Y115.464 E0.38808
G1 X130.969 Y118.867 E0.38808
G1 X128.408 Y121.963 E0.38679
G1 X125.461 Y124.733 E0.38939
G1 X122.200 Y127.102 E0.38808
G1 X118.667 Y129.044 E0.38806
G1 X114.670 Y130.621 E0.41372
G1 X114.104 Y130.711 F15000.000
G1 X113.877 Y130.156 F15000.000
G1 X113.877 Y138.377 E0.79147 F1350.000
G1 X109.877 Y138.377 E0.38510
G1 X109.877 Y146.377 E0.77019
G1 X108.123 Y146.377 E0.16891
G1 X108.123 Y138.377 E0.77019
G1 X101.877 Y138.377 E0.60128
G1 X101.877 Y146.377 E0.77019
G1 X100.123 Y146.377 E0.16891
G1 X100.123 Y138.377 E0.77019
G1 X96.123 Y138.377 E0.38510
G1 X96.123 Y130.156 E0.79147
G1 X91.641 Y128.389 E0.46387
G1 X88.188 Y126.491 E0.37926
G1 X85.001 Y124.175 E0.37933
G1 X82.129 Y121.478 E0.37933
G1 X79.617 Y118.442 E0.37931
G1 X79.259 Y117.877 E0.06437
G1 X72.965 Y117.877 E0.60596
G1 X67.500 Y112.412 E0.74408
G1 X63.623 Y116.289 E0.52790
G1 X63.623 Y83.711 E3.13651
G1 X67.500 Y87.588 E0.52790
G1 X72.965 Y82.123 E0.74408
G1 X79.259 Y82.123 E0.60596
G1 X79.617 Y81.558 E0.06437
G1 X82.129 Y78.522 E0.37931
G1 X85.001 Y75.825 E0.37933
G1 X88.188 Y73.509 E0.37933
G1 X91.641 Y71.611 E0.37926
G1 X96.123 Y69.844 E0.46387
G1 X96.123 Y61.623 E0.79147
G1 X100.123 Y61.623 E0.38510
G1 X100.123 Y53.623 E0.77019
G1 X101.877 Y53.623 E0.16891
G1 X101.877 Y61.623 E0.77019
G1 X108.123 Y61.623 E0.60128
G1 X108.123 Y53.623 E0.77019
G1 X109.877 Y53.623 E0.16891
G1 X109.877 Y61.623 E0.77019
G1 X113.877 Y61.623 E0.38510
G1 X113.877 Y69.844 E0.79147
G1 X118.359 Y71.611 E0.46387
G1 X121.812 Y73.509 E0.37926
G1 X124.999 Y75.825 E0.37933
G1 X127.871 Y78.522 E0.37933
G1 X130.383 Y81.558 E0.37934
G1 X132.494 Y84.885 E0.37933
G1 X134.172 Y88.450 E0.37933
G1 X135.389 Y92.197 E0.37933
G1 X136.128 Y96.068 E0.37933
G1 X136.375 Y100.000 E0.37933
G1 X136.128 Y103.932 E0.37933
G1 X135.392 Y107.790 E0.37804
G1 X134.172 Y111.550 E0.38063
G1 X132.494 Y115.115 E0.37931
G1 X130.383 Y118.442 E0.37933
G1 X127.880 Y121.467 E0.37805
G1 X124.999 Y124.175 E0.38063
G1 X121.812 Y126.491 E0.37931
G1 X118.359 Y128.389 E0.37926
G1 X113.947 Y130.129 E0.45665
G1 X105.896 Y102.759 F15000.000
G1 X105.544 Y102.849 E0.03507 F960.000
G1 X105.182 Y102.895 E0.03507
G1 X104.818 Y102.895 E0.03507
G1 X104.456 Y102.849 E0.03507
G1 X104.104 Y102.759 E0.03507
G1 X103.765 Y102.625 E0.03507
G1 X103.444 Y102.449 E0.03520
G1 X103.149 Y102.234 E0.03515
G1 X102.866 Y101.962 E0.03776
G1 X102.653 Y101.705 E0.03215
G1 X102.458 Y101.397 E0.03507
G1 X102.303 Y101.068 E0.03507
G1 X102.190 Y100.719 E0.03527
G1 X102.120 Y100.333 E0.03777
G1 X102.099 Y100.000 E0.03215
G1 X102.122 Y99.636 E0.03507
G1 X102.190 Y99.279 E0.03507
G1 X102.304 Y98.930 E0.03527
G1 X102.474 Y98.577 E0.03777
G1 X102.653 Y98.295 E0.03215
G1 X102.885 Y98.014 E0.03507
G1 X103.151 Y97.765 E0.03507
G1 X103.421 Y97.569 E0.03215
G1 X103.763 Y97.376 E0.03777
G1 X104.104 Y97.241 E0.03527
G1 X104.456 Y97.151 E0.03507
G1 X104.818 Y97.105 E0.03507
G1 X105.182 Y97.105 E0.03507
G1 X105.544 Y97.151 E0.03507
G1 X105.896 Y97.241 E0.03507
G1 X106.235 Y97.375 E0.03507
G1 X106.556 Y97.551 E0.03520
G1 X106.851 Y97.766 E0.03515
G1 X107.134 Y98.038 E0.03776
G1 X107.347 Y98.295 E0.03215
G1 X107.542 Y98.603 E0.03507
G1 X107.697 Y98.932 E0.03507
G1 X107.810 Y99.281 E0.03527
G1 X107.880 Y99.667 E0.03777
G1 X107.901 Y100.000 E0.03215
G1 X107.878 Y100.364 E0.03507
G1 X107.810 Y100.721 E0.03507
G1 X107.697 Y101.068 E0.03507
G1 X107.542 Y101.397 E0.03507
G1 X107.347 Y101.705 E0.03507
G1 X107.115 Y101.986 E0.03507
G1 X106.849 Y102.235 E0.03507
G1 X106.579 Y102.431 E0.03215
G1 X106.237 Y102.624 E0.03777
G1 X105.966 Y102.731 E0.02805
G1 X105.813 Y103.113 F15000.000
G1 X106.120 Y103.448 F15000.000
G1 X105.679 Y103.561 E0.04383 F960.000
G1 X105.228 Y103.618 E0.04383
G1 X104.772 Y103.618 E0.04383
G1 X104.321 Y103.561 E0.04383
G1 X103.880 Y103.448 E0.04383
G1 X103.457 Y103.280 E0.04383
G1 X103.056 Y103.060 E0.04398
G1 X102.684 Y102.789 E0.04427
G1 X102.336 Y102.455 E0.04650
G1 X102.067 Y102.131 E0.04054
G1 X101.823 Y101.746 E0.04383
G1 X101.630 Y101.334 E0.04383
G1 X101.487 Y100.896 E0.04439
G1 X101.401 Y100.420 E0.04653
G1 X101.375 Y100.000 E0.04054
G1 X101.404 Y99.546 E0.04383
G1 X101.489 Y99.099 E0.04383
G1 X101.631 Y98.660 E0.04439
G1 X101.842 Y98.225 E0.04653
G1 X102.067 Y97.869 E0.04054
G1 X102.358 Y97.519 E0.04383
G1 X102.689 Y97.207 E0.04383
G1 X103.030 Y96.959 E0.04054
G1 X103.451 Y96.722 E0.04653
G1 X103.880 Y96.552 E0.04439
G1 X104.321 Y96.439 E0.04383
G1 X104.772 Y96.382 E0.04383
G1 X105.228 Y96.382 E0.04383
G1 X105.679 Y96.439 E0.04383
G1 X106.120 Y96.552 E0.04383
G1 X106.543 Y96.720 E0.04383
G1 X106.944 Y96.940 E0.04398
G1 X107.316 Y97.211 E0.04427
G1 X107.664 Y97.545 E0.04650
G1 X107.933 Y97.869 E0.04054
G1 X108.177 Y98.254 E0.04383
G1 X108.370 Y98.666 E0.04383
G1 X108.513 Y99.104 E0.04439
G1 X108.599 Y99.580 E0.04653
G1 X108.625 Y100.000 E0.04054
G1 X108.596 Y100.454 E0.04383
G1 X108.511 Y100.901 E0.04383
G1 X108.370 Y101.334 E0.04383
G1 X108.177 Y101.746 E0.04383
G1 X107.933 Y102.131 E0.04383
G1 X107.642 Y102.481 E0.04383
G1 X107.311 Y102.793 E0.04383
G1 X106.970 Y103.041 E0.04054
G1 X106.549 Y103.278 E0.04653
G1 X106.190 Y103.420 E0.03717
G1 X72.900 Y107.013 F15000.000
G1 X72.878 Y107.364 E0.03386 F1350.000
G1 X72.810 Y107.721 E0.03508
G1 X72.697 Y108.068 E0.03507
G1 X72.542 Y108.397 E0.03507
G1 X72.347 Y108.705 E0.03508
G1 X72.115 Y108.986 E0.03506
G1 X71.849 Y109.235 E0.03507
G1 X71.554 Y109.449 E0.03508
G1 X71.235 Y109.625 E0.03508
G1 X70.896 Y109.759 E0.03507
G1 X70.544 Y109.849 E0.03506
G1 X70.182 Y109.895 E0.03507
G1 X69.818 Y109.895 E0.03508
G1 X69.456 Y109.849 E0.03508
G1 X69.104 Y109.759 E0.03506
G1 X68.765 Y109.625 E0.03507
G1 X68.446 Y109.449 E0.03508
G1 X68.151 Y109.235 E0.03508
G1 X67.885 Y108.986 E0.03507
G1 X67.653 Y108.705 E0.03506
G1 X67.458 Y108.397 E0.03508
G1 X67.303 Y108.068 E0.03507
G1 X67.190 Y107.721 E0.03507
G1 X67.122 Y107.364 E0.03508
G1 X67.100 Y107.013 E0.03386
G1 X67.100 Y92.987 E1.35026
G1 X67.122 Y92.636 E0.03386
G1 X67.190 Y92.279 E0.03508
G1 X67.303 Y91.932 E0.03507
G1 X67.458 Y91.603 E0.03507
G1 X67.653 Y91.295 E0.03508
G1 X67.885 Y91.014 E0.03506
G1 X68.151 Y90.765 E0.03507
G1 X68.446 Y90.551 E0.03508
G1 X68.765 Y90.375 E0.03508
G1 X69.104 Y90.241 E0.03507
G1 X69.456 Y90.151 E0.03506
G1 X69.818 Y90.105 E0.03508
G1 X70.182 Y90.105 E0.03508
G1 X70.544 Y90.151 E0.03507
G1 X70.896 Y90.241 E0.03506
G1 X71.235 Y90.375 E0.03507
G1 X71.554 Y90.551 E0.03508
G1 X71.849 Y90.765 E0.03508
G1 X72.115 Y91.014 E0.03507
G1 X72.347 Y91.295 E0.03506
G1 X72.542 Y91.603 E0.03508
G1 X72.697 Y91.932 E0.03507
G1 X72.810 Y92.279 E0.03507
G1 X72.878 Y92.636 E0.03508
G1 X72.900 Y92.987 E0.03386
G1 X72.900 Y106.938 E1.34304
G1 X73.197 Y107.201 F15000.000
G1 X73.623 Y107.035 F15000.000
G1 X73.596 Y107.454 E0.04042 F1350.000
G1 X73.511 Y107.902 E0.04384
G1 X73.370 Y108.334 E0.04382
G1 X73.177 Y108.746 E0.04382
G1 X72.933 Y109.131 E0.04384
G1 X72.643 Y109.481 E0.04381
G1 X72.311 Y109.793 E0.04383
G1 X71.942 Y110.061 E0.04384
G1 X71.543 Y110.280 E0.04383
G1 X71.120 Y110.448 E0.04382
G1 X70.679 Y110.561 E0.04382
G1 X70.228 Y110.618 E0.04383
G1 X69.772 Y110.618 E0.04383
G1 X69.321 Y110.561 E0.04383
G1 X68.880 Y110.448 E0.04382
G1 X68.457 Y110.280 E0.04381
G1 X68.058 Y110.061 E0.04383
G1 X67.689 Y109.793 E0.04384
G1 X67.357 Y109.481 E0.04382
G1 X67.067 Y109.131 E0.04381
G1 X66.823 Y108.746 E0.04384
G1 X66.630 Y108.334 E0.04382
G1 X66.489 Y107.902 E0.04382
G1 X66.404 Y107.454 E0.04384
G1 X66.377 Y107.035 E0.04042
G1 X66.377 Y92.965 E1.35463
G1 X66.404 Y92.546 E0.04042
G1 X66.489 Y92.098 E0.04384
G1 X66.630 Y91.666 E0.04382
G1 X66.823 Y91.254 E0.04382
G1 X67.067 Y90.869 E0.04384
G1 X67.357 Y90.519 E0.04381
G1 X67.689 Y90.207 E0.04382
G1 X68.058 Y89.939 E0.04384
G1 X68.457 Y89.720 E0.04383
G1 X68.880 Y89.552 E0.04381
G1 X69.321 Y89.439 E0.04382
G1 X69.772 Y89.382 E0.04383
G1 X70.228 Y89.382 E0.04383
G1 X70.679 Y89.439 E0.04383
G1 X71.120 Y89.552 E0.04382
G1 X71.543 Y89.720 E0.04382
G1 X71.942 Y89.939 E0.04383
G1 X72.311 Y90.207 E0.04384
G1 X72.643 Y90.519 E0.04383
G1 X72.933 Y90.869 E0.04381
G1 X73.177 Y91.254 E0.04384
G1 X73.370 Y91.666 E0.04382
G1 X73.511 Y92.098 E0.04382
G1 X73.596 Y92.546 E0.04384
G1 X73.623 Y92.965 E0.04042
G1 X73.623 Y106.960 E1.34741
G1 E-2.00000 F3600.00000
G1 Z0.361 F15000.000
G1 X101.000 Y138.016 F15000.000
G1 Z0.360 F15000.000
G1 E2.00000 F3600.00000
G1 X101.000 Y146.016 E1.62272 F300.000
G1 E-2.00000 F3600.00000
G1 Z0.361 F15000.000
G1 X109.000 Y146.016 F15000.000
G1 Z0.360 F15000.000
G1 E2.00000 F3600.00000
G1 X109.000 Y138.016 E1.62272 F300.000
G1 X105.839 Y137.936 F15000.000
G1 X74.064 Y106.161 E4.34361 F1200.000
G1 X74.064 Y105.135 E0.09919
G1 X106.865 Y137.936 E4.48389
G1 X107.759 Y137.804 E0.08736
G1 X74.064 Y104.109 E4.60610
G1 X74.064 Y103.083 E0.09919
G1 X108.556 Y137.575 E4.71506
G1 X109.582 Y137.575 E0.09919
G1 X74.064 Y102.056 E4.85534
G1 X74.064 Y101.030 E0.09919
G1 X110.970 Y137.936 E5.04502
G1 X111.996 Y137.936 E0.09919
G1 X74.064 Y100.004 E5.18530
G1 X74.064 Y98.978 E0.09919
G1 X113.022 Y137.936 E5.32558
G1 X113.436 Y137.324 E0.07144
G1 X74.064 Y97.952 E5.38218
G1 X74.064 Y96.925 E0.09919
G1 X113.436 Y136.298 E5.38218
G1 X113.436 Y135.272 E0.09919
G1 X74.064 Y95.899 E5.38218
G1 X74.064 Y94.873 E0.09919
G1 X113.436 Y134.245 E5.38218
G1 X113.436 Y133.219 E0.09919
G1 X74.064 Y93.847 E5.38218
G1 X74.064 Y92.820 E0.09919
G1 X113.436 Y132.193 E5.38218
G1 X113.436 Y131.167 E0.09919
G1 X73.871 Y91.601 E5.40852
G1 X80.171 Y81.482 F15000.000
G1 X123.490 Y124.801 E5.92168 F1200.000
G1 X122.896 Y125.233 E0.07102
G1 X79.741 Y82.078 E5.89926
G1 X79.200 Y82.564 E0.07024
G1 X122.302 Y125.665 E5.89189
G1 X121.707 Y126.097 E0.07102
G1 X78.174 Y82.564 E5.95093
G1 X77.148 Y82.564 E0.09919
G1 X121.052 Y126.468 E6.00164
G1 X120.390 Y126.832 E0.07304
G1 X76.122 Y82.564 E6.05141
G1 X75.095 Y82.564 E0.09919
G1 X119.728 Y127.196 E6.10117
G1 X119.065 Y127.560 E0.07304
G1 X74.069 Y82.564 E6.15093
G1 X73.050 Y82.571 E0.09847
G1 X118.403 Y127.924 E6.19967
G1 X117.683 Y128.230 E0.07563
G1 X72.537 Y83.084 E6.17139
G1 X72.024 Y83.597 E0.07014
G1 X116.947 Y128.520 E6.14093
G1 X116.211 Y128.811 E0.07647
G1 X71.511 Y84.111 E6.11046
G1 X70.998 Y84.624 E0.07014
G1 X115.475 Y129.101 E6.08000
G1 X114.739 Y129.391 E0.07647
G1 X70.485 Y85.137 E6.04953
G1 X69.972 Y85.650 E0.07014
G1 X114.003 Y129.681 E6.01907
G1 X113.436 Y130.141 F15000.000
G1 X69.459 Y86.163 E6.01168 F1200.000
G1 X68.946 Y86.676 E0.07014
G1 X71.392 Y89.123 E0.33445
G1 X70.184 Y88.941 E0.11805
G1 X68.432 Y87.189 E0.23950
G1 X67.919 Y87.702 E0.07014
G1 X69.253 Y89.036 E0.18228
G1 X68.477 Y89.287 E0.07877
G1 X67.406 Y88.215 E0.14643
G1 X67.812 Y89.648 E0.14390
G1 X64.064 Y85.899 E0.51242
G1 X64.064 Y86.925 E0.09919
G1 X67.245 Y90.106 E0.43485
G1 X66.760 Y90.647 E0.07025
G1 X64.064 Y87.952 E0.36854
G1 X64.064 Y88.978 E0.09919
G1 X66.375 Y91.289 E0.31599
G1 X66.089 Y92.030 E0.07671
G1 X64.064 Y90.004 E0.27691
G1 X64.064 Y91.030 E0.09919
G1 X65.948 Y92.914 E0.25756
G1 X65.936 Y93.929 E0.09808
G1 X64.064 Y92.056 E0.25597
G1 X64.064 Y93.083 E0.09919
G1 X65.936 Y94.955 E0.25597
G1 X65.936 Y95.981 E0.09919
G1 X64.064 Y94.109 E0.25597
G1 X64.064 Y95.135 E0.09919
G1 X65.936 Y97.008 E0.25597
G1 X65.936 Y98.034 E0.09919
G1 X64.064 Y96.161 E0.25597
G1 X64.064 Y97.187 E0.09919
G1 X65.936 Y99.060 E0.25597
G1 X65.936 Y100.086 E0.09919
G1 X64.064 Y98.214 E0.25597
G1 X64.064 Y99.240 E0.09919
G1 X65.936 Y101.112 E0.25597
G1 X65.936 Y102.139 E0.09919
G1 X64.064 Y100.266 E0.25597
G1 X64.064 Y101.292 E0.09919
G1 X65.936 Y103.165 E0.25597
G1 X65.936 Y104.191 E0.09919
G1 X64.064 Y102.319 E0.25597
G1 X64.064 Y103.345 E0.09919
G1 X65.936 Y105.217 E0.25597
G1 X65.936 Y106.243 E0.09919
G1 X64.064 Y104.371 E0.25597
G1 X64.064 Y105.397 E0.09919
G1 X65.940 Y107.274 E0.25654
G1 X66.172 Y108.532 E0.12367
G1 X64.064 Y106.423 E0.28826
G1 X64.064 Y107.450 E0.09919
G1 X74.050 Y117.436 E1.36516
G1 X75.077 Y117.436 E0.09919
G1 X68.474 Y110.833 E0.90262
G1 X69.725 Y111.059 E0.12294
G1 X76.103 Y117.436 E0.87179
G1 X77.129 Y117.436 E0.09919
G1 X70.675 Y110.983 E0.88220
G1 X71.458 Y110.739 E0.07922
G1 X78.155 Y117.436 E0.91551
G1 X79.181 Y117.436 E0.09919
G1 X72.135 Y110.390 E0.96318
G1 X72.709 Y109.937 E0.07062
G1 X89.221 Y126.449 E2.25715
G1 X91.500 Y127.702 F15000.000
G1 X73.199 Y109.402 E2.50162 F1200.000
G1 X73.596 Y108.772 E0.07193
G1 X93.335 Y128.511 E2.69825
G1 X95.029 Y129.179 F15000.000
G1 X73.888 Y108.038 E2.88989 F1200.000
G1 X74.047 Y107.170 E0.08527
G1 X104.813 Y137.936 E4.20565
G1 X103.786 Y137.936 E0.09919
G1 X96.564 Y130.714 E0.98732
G1 X96.564 Y131.740 E0.09919
G1 X102.760 Y137.936 E0.84704
G1 X101.373 Y137.575 E0.13860
G1 X96.564 Y132.766 E0.65736
