; generated by Slic3r 1.2.4 on 2015-01-09 at 12:17:52

; external perimeters extrusion width = 0.50mm
; perimeters extrusion width = 0.85mm
; infill extrusion width = 0.87mm
; solid infill extrusion width = 0.85mm
; top infill extrusion width = 0.85mm

M107
M104 S200 ; set temperature
G28 Z0
M83
M109 S200 ; wait for temperature to be reached
G21 ; set units to millimeters
G90 ; use absolute coordinates
M83 ; use relative distances for extrusion
G1 E-2.40000 F3600.00000
G1 Z0.360 F15000.000
G1 X69.362 Y69.615 F15000.000
G1 E2.40000 F3600.00000
G1 X70.130 Y68.859 E0.10377 F720.000
G1 X70.917 Y68.123 E0.10377
G1 X71.722 Y67.407 E0.10373
G1 X72.545 Y66.710 E0.10380
G1 X73.386 Y66.035 E0.10382
G1 X74.242 Y65.381 E0.10375
G1 X75.115 Y64.748 E0.10378
G1 X76.004 Y64.137 E0.10381
G1 X77.306 Y63.299 E0.14909
G1 X78.249 Y62.733 E0.10592
G1 X79.227 Y62.179 E0.10820
G1 X80.443 Y61.537 E0.13238
G1 X82.134 Y61.131 E0.16741
G1 X117.865 Y61.130 E3.44004
G1 X119.536 Y61.526 E0.16528
G1 X120.536 Y62.050 E0.10866
G1 X121.516 Y62.597 E0.10814
G1 X122.445 Y63.147 E0.10384
G1 X123.771 Y63.988 E0.15120
G1 X124.663 Y64.593 E0.10376
G1 X125.540 Y65.220 E0.10381
G1 X126.400 Y65.869 E0.10374
G1 X127.245 Y66.539 E0.10380
G1 X128.073 Y67.230 E0.10384
G1 X128.882 Y67.942 E0.10374
G1 X129.674 Y68.673 E0.10382
G1 X130.447 Y69.424 E0.10377
G1 X131.618 Y70.637 E0.16228
G1 X132.327 Y71.419 E0.10163
G1 X133.031 Y72.236 E0.10379
G1 X133.715 Y73.070 E0.10381
G1 X134.377 Y73.920 E0.10376
G1 X135.017 Y74.787 E0.10380
G1 X135.636 Y75.669 E0.10375
G1 X136.233 Y76.568 E0.10382
G1 X136.807 Y77.480 E0.10374
G1 X137.358 Y78.406 E0.10379
G1 X137.886 Y79.346 E0.10376
G1 X138.390 Y80.299 E0.10375
G1 X138.870 Y81.264 E0.10384
G1 X139.326 Y82.241 E0.10377
G1 X139.757 Y83.229 E0.10376
G1 X140.163 Y84.227 E0.10373
G1 X140.530 Y85.192 E0.09943
G1 X140.887 Y86.209 E0.10378
G1 X141.219 Y87.235 E0.10381
G1 X141.524 Y88.269 E0.10376
G1 X141.804 Y89.309 E0.10371
G1 X142.058 Y90.357 E0.10381
G1 X142.286 Y91.410 E0.10377
G1 X142.488 Y92.469 E0.10378
G1 X142.662 Y93.533 E0.10374
G1 X142.811 Y94.601 E0.10385
G1 X142.932 Y95.673 E0.10386
G1 X143.027 Y96.746 E0.10370
G1 X143.095 Y97.822 E0.10378
G1 X143.136 Y98.900 E0.10386
G1 X143.150 Y99.955 E0.10163
G1 X143.119 Y101.640 E0.16223
G1 X143.064 Y102.717 E0.10377
G1 X142.983 Y103.791 E0.10376
G1 X142.875 Y104.864 E0.10378
G1 X142.740 Y105.933 E0.10377
G1 X142.578 Y106.999 E0.10380
G1 X142.390 Y108.061 E0.10377
G1 X142.185 Y109.072 E0.09934
G1 X141.946 Y110.123 E0.10377
G1 X141.680 Y111.168 E0.10381
G1 X141.388 Y112.206 E0.10381
G1 X141.070 Y113.235 E0.10377
G1 X140.727 Y114.257 E0.10370
G1 X140.357 Y115.270 E0.10386
G1 X139.963 Y116.273 E0.10377
G1 X139.545 Y117.266 E0.10372
G1 X139.101 Y118.249 E0.10381
G1 X138.633 Y119.220 E0.10383
G1 X138.141 Y120.179 E0.10370
G1 X137.625 Y121.126 E0.10383
G1 X137.096 Y122.040 E0.10166
G1 X136.207 Y123.472 E0.16228
G1 X135.610 Y124.369 E0.10376
G1 X134.990 Y125.251 E0.10380
G1 X134.348 Y126.117 E0.10374
G1 X133.685 Y126.967 E0.10384
G1 X133.001 Y127.800 E0.10372
G1 X132.296 Y128.616 E0.10381
G1 X131.571 Y129.414 E0.10382
G1 X130.827 Y130.193 E0.10372
G1 X130.064 Y130.953 E0.10373
G1 X129.281 Y131.695 E0.10381
G1 X128.479 Y132.417 E0.10384
G1 X127.661 Y133.118 E0.10378
G1 X126.438 Y134.102 E0.15114
G1 X125.578 Y134.752 E0.10379
G1 X124.702 Y135.380 E0.10377
G1 X123.809 Y135.987 E0.10389
G1 X122.864 Y136.595 E0.10819
G1 X121.516 Y137.403 E0.15128
G1 X120.536 Y137.950 E0.10813
G1 X119.536 Y138.474 E0.10866
G1 X117.865 Y138.870 E0.16528
G1 X82.134 Y138.869 E3.44004
G1 X80.443 Y138.463 E0.16744
G1 X79.227 Y137.821 E0.13235
G1 X78.289 Y137.291 E0.10376
G1 X77.365 Y136.737 E0.10373
G1 X76.415 Y136.134 E0.10827
G1 X75.519 Y135.534 E0.10379
G1 X74.677 Y134.938 E0.09937
G1 X73.812 Y134.295 E0.10371
G1 X72.964 Y133.631 E0.10377
G1 X72.132 Y132.944 E0.10381
G1 X71.318 Y132.238 E0.10375
G1 X70.521 Y131.511 E0.10384
G1 X69.743 Y130.765 E0.10377
G1 X68.985 Y130.000 E0.10376
G1 X68.245 Y129.216 E0.10377
G1 X67.128 Y127.954 E0.16222
G1 X66.453 Y127.140 E0.10177
G1 X65.787 Y126.295 E0.10369
G1 X65.140 Y125.431 E0.10383
G1 X64.515 Y124.552 E0.10383
G1 X63.914 Y123.659 E0.10373
G1 X63.334 Y122.750 E0.10380
G1 X62.777 Y121.827 E0.10379
G1 X62.243 Y120.890 E0.10377
G1 X61.733 Y119.940 E0.10380
G1 X61.247 Y118.978 E0.10376
G1 X60.785 Y118.004 E0.10377
G1 X60.348 Y117.019 E0.10380
G1 X59.952 Y116.067 E0.09930
G1 X59.563 Y115.061 E0.10379
G1 X59.200 Y114.046 E0.10376
G1 X58.861 Y113.023 E0.10381
G1 X58.549 Y111.991 E0.10378
G1 X58.262 Y110.952 E0.10376
G1 X58.002 Y109.906 E0.10380
G1 X57.767 Y108.854 E0.10377
G1 X57.560 Y107.796 E0.10380
G1 X57.378 Y106.733 E0.10376
G1 X57.223 Y105.666 E0.10381
G1 X57.095 Y104.596 E0.10380
G1 X56.993 Y103.522 E0.10380
G1 X56.919 Y102.447 E0.10374
G1 X56.871 Y101.370 E0.10384
G1 X56.850 Y100.292 E0.10380
G1 X56.857 Y99.215 E0.10366
G1 X56.890 Y98.138 E0.10377
G1 X56.950 Y97.061 E0.10385
G1 X57.036 Y95.986 E0.10378
G1 X57.150 Y94.914 E0.10381
G1 X57.291 Y93.846 E0.10376
G1 X57.458 Y92.781 E0.10379
G1 X57.651 Y91.720 E0.10376
G1 X57.871 Y90.665 E0.10379
G1 X58.118 Y89.616 E0.10377
G1 X58.390 Y88.572 E0.10381
G1 X58.689 Y87.537 E0.10375
G1 X59.200 Y85.954 E0.16017
G1 X59.563 Y84.939 E0.10376
G1 X59.952 Y83.934 E0.10379
G1 X60.366 Y82.938 E0.10379
G1 X60.804 Y81.954 E0.10377
G1 X61.267 Y80.980 E0.10376
G1 X61.733 Y80.059 E0.09936
G1 X62.243 Y79.110 E0.10376
G1 X62.777 Y78.173 E0.10376
G1 X63.334 Y77.250 E0.10379
G1 X63.914 Y76.341 E0.10383
G1 X64.516 Y75.447 E0.10377
G1 X65.140 Y74.569 E0.10373
G1 X65.787 Y73.705 E0.10386
G1 X66.454 Y72.859 E0.10373
G1 X67.142 Y72.030 E0.10380
G1 X67.851 Y71.218 E0.10378
G1 X68.581 Y70.423 E0.10382
G1 X69.309 Y69.668 E0.10101
G1 E-2.40000 F3600.00000
G1 X81.734 Y81.495 F15000.000
G1 E2.40000 F3600.00000
G1 X118.265 Y81.495 E3.51706 F810.000
G1 X118.265 Y65.511 E1.53881
G1 X119.443 Y66.161 E0.12945
G1 X120.697 Y66.913 E0.14080
G1 X121.517 Y67.440 E0.09387
G1 X122.722 Y68.269 E0.14080
G1 X123.895 Y69.143 E0.14079
G1 X125.034 Y70.060 E0.14079
G1 X126.138 Y71.019 E0.14080
G1 X126.854 Y71.681 E0.09387
G1 X127.896 Y72.707 E0.14079
G1 X128.582 Y73.426 E0.09573
G1 X129.545 Y74.501 E0.13893
G1 X130.480 Y75.626 E0.14079
G1 X131.372 Y76.785 E0.14079
G1 X132.219 Y77.977 E0.14079
G1 X132.760 Y78.788 E0.09387
G1 X133.531 Y80.031 E0.14079
G1 X134.256 Y81.301 E0.14080
G1 X134.932 Y82.597 E0.14078
G1 X135.560 Y83.918 E0.14080
G1 X135.950 Y84.812 E0.09387
G1 X136.326 Y85.733 E0.09573
G1 X136.828 Y87.085 E0.13892
G1 X137.286 Y88.474 E0.14079
G1 X137.568 Y89.428 E0.09575
G1 X137.933 Y90.824 E0.13892
G1 X138.250 Y92.252 E0.14081
G1 X138.432 Y93.210 E0.09386
G1 X138.659 Y94.654 E0.14079
G1 X138.832 Y96.106 E0.14079
G1 X138.951 Y97.564 E0.14080
G1 X139.014 Y99.006 E0.13892
G1 X139.027 Y100.000 E0.09574
G1 X139.014 Y100.994 E0.09574
G1 X138.951 Y102.436 E0.13892
G1 X138.876 Y103.428 E0.09573
G1 X138.723 Y104.862 E0.13892
G1 X138.589 Y105.828 E0.09387
G1 X138.344 Y107.270 E0.14079
G1 X138.150 Y108.225 E0.09387
G1 X137.815 Y109.649 E0.14080
G1 X137.433 Y111.040 E0.13893
G1 X137.139 Y111.991 E0.09574
G1 X136.828 Y112.915 E0.09387
G1 X136.319 Y114.285 E0.14079
G1 X135.758 Y115.636 E0.14080
G1 X135.147 Y116.965 E0.14080
G1 X134.487 Y118.270 E0.14080
G1 X134.020 Y119.125 E0.09387
G1 X133.521 Y119.986 E0.09574
G1 X132.760 Y121.212 E0.13892
G1 X131.942 Y122.424 E0.14079
G1 X131.372 Y123.215 E0.09387
G1 X130.480 Y124.374 E0.14079
G1 X129.862 Y125.128 E0.09387
G1 X128.899 Y126.229 E0.14080
G1 X127.910 Y127.279 E0.13892
G1 X127.206 Y127.982 E0.09573
G1 X126.138 Y128.981 E0.14079
G1 X125.049 Y129.928 E0.13893
G1 X124.278 Y130.556 E0.09573
G1 X123.117 Y131.444 E0.14080
G1 X122.324 Y132.012 E0.09387
G1 X121.109 Y132.826 E0.14081
G1 X120.282 Y133.343 E0.09387
G1 X119.443 Y133.839 E0.09385
G1 X118.265 Y134.488 E0.12945
G1 X118.265 Y118.505 E1.53880
G1 X81.734 Y118.505 E3.51706
G1 X81.734 Y134.490 E1.53898
G1 X80.768 Y133.960 E0.10607
G1 X79.509 Y133.216 E0.14079
G1 X78.686 Y132.694 E0.09386
G1 X77.476 Y131.872 E0.14080
G1 X76.687 Y131.300 E0.09385
G1 X75.530 Y130.404 E0.14080
G1 X74.409 Y129.466 E0.14080
G1 X73.323 Y128.487 E0.14079
G1 X72.274 Y127.467 E0.14079
G1 X71.264 Y126.409 E0.14081
G1 X70.308 Y125.329 E0.13892
G1 X69.672 Y124.564 E0.09573
G1 X68.773 Y123.410 E0.14080
G1 X67.918 Y122.224 E0.14079
G1 X67.118 Y121.023 E0.13893
G1 X66.593 Y120.178 E0.09573
G1 X65.861 Y118.913 E0.14080
G1 X65.399 Y118.054 E0.09387
G1 X64.747 Y116.745 E0.14080
G1 X64.144 Y115.412 E0.14079
G1 X63.592 Y114.058 E0.14080
G1 X63.091 Y112.684 E0.14080
G1 X62.786 Y111.758 E0.09385
G1 X62.371 Y110.356 E0.14080
G1 X62.124 Y109.413 E0.09387
G1 X61.798 Y107.987 E0.14079
G1 X61.526 Y106.550 E0.14080
G1 X61.307 Y105.104 E0.14079
G1 X61.143 Y103.651 E0.14080
G1 X61.034 Y102.193 E0.14080
G1 X60.979 Y100.731 E0.14079
G1 X60.973 Y99.756 E0.09387
G1 X61.034 Y97.807 E0.18771
G1 X61.194 Y95.845 E0.18958
G1 X61.374 Y94.413 E0.13893
G1 X61.526 Y93.450 E0.09386
G1 X61.901 Y91.536 E0.18772
G1 X62.371 Y89.644 E0.18772
G1 X62.935 Y87.778 E0.18771
G1 X63.592 Y85.942 E0.18771
G1 X64.348 Y84.123 E0.18960
G1 X64.959 Y82.816 E0.13893
G1 X65.399 Y81.946 E0.09386
G1 X66.344 Y80.241 E0.18772
G1 X67.373 Y78.584 E0.18773
G1 X68.483 Y76.981 E0.18771
G1 X69.672 Y75.436 E0.18772
G1 X70.937 Y73.952 E0.18771
G1 X72.274 Y72.533 E0.18773
G1 X73.323 Y71.513 E0.14079
G1 X74.042 Y70.856 E0.09386
G1 X75.138 Y69.916 E0.13893
G1 X75.912 Y69.293 E0.09573
G1 X77.079 Y68.412 E0.14080
G1 X77.876 Y67.849 E0.09387
G1 X78.702 Y67.296 E0.09574
G1 X79.926 Y66.531 E0.13893
G1 X80.768 Y66.040 E0.09387
G1 X81.734 Y65.510 E0.10608
G1 X81.734 Y81.420 E1.53176
G1 X81.734 Y81.995 F15000.000
G1 X81.011 Y82.218 F15000.000
G1 X118.988 Y82.218 E3.65622 F810.000
G1 X118.988 Y66.732 E1.49086
G1 X119.906 Y67.274 E0.10267
G1 X121.119 Y68.043 E0.13820
G1 X121.910 Y68.581 E0.09213
G1 X123.072 Y69.424 E0.13819
G1 X124.202 Y70.310 E0.13819
G1 X125.297 Y71.237 E0.13818
G1 X126.346 Y72.195 E0.13676
G1 X127.043 Y72.872 E0.09355
G1 X128.040 Y73.904 E0.13821
G1 X128.683 Y74.613 E0.09213
G1 X129.309 Y75.337 E0.09212
G1 X130.212 Y76.453 E0.13819
G1 X131.073 Y77.601 E0.13819
G1 X131.623 Y78.384 E0.09212
G1 X132.410 Y79.584 E0.13819
G1 X133.153 Y80.813 E0.13821
G1 X133.848 Y82.069 E0.13819
G1 X134.285 Y82.920 E0.09210
G1 X134.901 Y84.216 E0.13820
G1 X135.462 Y85.521 E0.13675
G1 X135.818 Y86.426 E0.09357
G1 X136.302 Y87.777 E0.13818
G1 X136.734 Y89.146 E0.13820
G1 X136.994 Y90.067 E0.09211
G1 X137.231 Y90.994 E0.09212
G1 X137.542 Y92.395 E0.13821
G1 X137.720 Y93.335 E0.09211
G1 X137.943 Y94.753 E0.13818
G1 X138.113 Y96.178 E0.13818
G1 X138.230 Y97.609 E0.13820
G1 X138.292 Y99.028 E0.13674
G1 X138.304 Y100.000 E0.09357
G1 X138.292 Y100.972 E0.09357
G1 X138.230 Y102.391 E0.13674
G1 X138.113 Y103.822 E0.13820
G1 X137.943 Y105.247 E0.13819
G1 X137.723 Y106.650 E0.13674
G1 X137.542 Y107.605 E0.09357
G1 X137.231 Y109.006 E0.13820
G1 X136.994 Y109.933 E0.09213
G1 X136.734 Y110.854 E0.09211
G1 X136.302 Y112.223 E0.13820
G1 X135.985 Y113.126 E0.09212
G1 X135.468 Y114.465 E0.13818
G1 X134.907 Y115.770 E0.13677
G1 X134.496 Y116.651 E0.09355
G1 X133.848 Y117.931 E0.13820
G1 X133.152 Y119.187 E0.13818
G1 X132.410 Y120.416 E0.13819
G1 X131.623 Y121.616 E0.13819
G1 X131.073 Y122.399 E0.09212
G1 X130.212 Y123.547 E0.13819
G1 X129.309 Y124.663 E0.13819
G1 X128.683 Y125.387 E0.09210
G1 X128.040 Y126.096 E0.09214
G1 X127.043 Y127.128 E0.13822
G1 X126.346 Y127.805 E0.09354
G1 X125.297 Y128.763 E0.13675
G1 X124.202 Y129.690 E0.13818
G1 X123.072 Y130.576 E0.13819
G1 X121.910 Y131.419 E0.13820
G1 X121.119 Y131.957 E0.09212
G1 X119.906 Y132.726 E0.13822
G1 X118.988 Y133.268 E0.10266
G1 X118.988 Y117.782 E1.49086
G1 X81.011 Y117.782 E3.65622
G1 X81.011 Y133.271 E1.49120
G1 X79.889 Y132.601 E0.12588
G1 X78.681 Y131.824 E0.13820
G1 X77.516 Y131.012 E0.13675
G1 X76.736 Y130.432 E0.09357
G1 X75.613 Y129.539 E0.13817
G1 X74.523 Y128.604 E0.13820
G1 X73.470 Y127.630 E0.13817
G1 X72.788 Y126.958 E0.09213
G1 X71.796 Y125.920 E0.13821
G1 X70.855 Y124.856 E0.13674
G1 X70.234 Y124.109 E0.09356
G1 X69.351 Y122.977 E0.13820
G1 X68.512 Y121.813 E0.13817
G1 X67.977 Y121.019 E0.09213
G1 X67.462 Y120.213 E0.09213
G1 X66.728 Y118.980 E0.13818
G1 X66.040 Y117.720 E0.13819
G1 X65.608 Y116.866 E0.09212
G1 X65.000 Y115.565 E0.13819
G1 X64.441 Y114.243 E0.13820
G1 X63.938 Y112.915 E0.13675
G1 X63.622 Y111.996 E0.09356
G1 X63.333 Y111.084 E0.09212
G1 X62.944 Y109.702 E0.13820
G1 X62.606 Y108.307 E0.13818
G1 X62.408 Y107.356 E0.09357
G1 X62.161 Y105.957 E0.13675
G1 X61.964 Y104.535 E0.13820
G1 X61.822 Y103.122 E0.13674
G1 X61.755 Y102.152 E0.09357
G1 X61.702 Y100.718 E0.13819
G1 X61.696 Y99.761 E0.09214
G1 X61.755 Y97.848 E0.18423
G1 X61.911 Y95.941 E0.18424
G1 X62.161 Y94.043 E0.18425
G1 X62.506 Y92.161 E0.18424
G1 X62.944 Y90.298 E0.18424
G1 X63.475 Y88.459 E0.18425
G1 X63.774 Y87.551 E0.09212
G1 X64.261 Y86.216 E0.13675
G1 X65.000 Y84.435 E0.18568
G1 X65.400 Y83.565 E0.09212
G1 X66.033 Y82.294 E0.13676
G1 X66.967 Y80.606 E0.18567
G1 X67.977 Y78.981 E0.18425
G1 X69.067 Y77.408 E0.18424
G1 X70.234 Y75.891 E0.18425
G1 X71.475 Y74.434 E0.18423
G1 X72.788 Y73.042 E0.18426
G1 X74.168 Y71.716 E0.18423
G1 X74.894 Y71.070 E0.09357
G1 X75.984 Y70.159 E0.13676
G1 X77.504 Y68.997 E0.18423
G1 X79.081 Y67.912 E0.18426
G1 X79.889 Y67.399 E0.09212
G1 X81.011 Y66.729 E0.12589
G1 X81.011 Y82.143 E1.48399
G1 E-2.40000 F3600.00000
G1 X71.775 Y74.857 F15000.000
G1 E2.40000 F3600.00000
G1 X114.196 Y117.278 E5.80613 F720.000
G1 X113.168 Y117.278 E0.09944
G1 X71.296 Y75.406 E5.73106
G1 X70.830 Y75.968 E0.07063
G1 X112.141 Y117.278 E5.65414
G1 X111.113 Y117.278 E0.09944
G1 X70.367 Y76.532 E5.57687
G1 X69.922 Y77.115 E0.07094
G1 X110.086 Y117.278 E5.49716
G1 X109.058 Y117.278 E0.09944
G1 X69.479 Y77.699 E5.41723
G1 X69.051 Y78.299 E0.07131
G1 X108.031 Y117.278 E5.33507
G1 X107.003 Y117.278 E0.09944
G1 X68.636 Y78.911 E5.25131
G1 X68.225 Y79.528 E0.07172
G1 X105.976 Y117.278 E5.16685
G1 X104.948 Y117.278 E0.09944
G1 X67.831 Y80.161 E5.08021
G1 X67.441 Y80.798 E0.07232
G1 X103.921 Y117.278 E4.99300
G1 X102.893 Y117.278 E0.09944
G1 X67.066 Y81.451 E4.90368
G1 X66.704 Y82.116 E0.07332
G1 X101.866 Y117.278 E4.81259
G1 X100.838 Y117.278 E0.09944
G1 X66.348 Y82.788 E4.72065
G1 X66.006 Y83.474 E0.07414
G1 X99.811 Y117.278 E4.62683
G1 X98.783 Y117.278 E0.09944
G1 X65.678 Y84.173 E4.53109
G1 X65.358 Y84.881 E0.07515
G1 X97.756 Y117.278 E4.43425
G1 X96.728 Y117.278 E0.09944
G1 X65.054 Y85.604 E4.33519
G1 X64.757 Y86.334 E0.07628
G1 X95.701 Y117.278 E4.23530
G1 X94.673 Y117.278 E0.09944
G1 X64.480 Y87.085 E4.13247
G1 X64.209 Y87.842 E0.07775
G1 X93.646 Y117.278 E4.02898
G1 X92.618 Y117.278 E0.09944
G1 X63.954 Y88.614 E3.92320
G1 X63.720 Y89.408 E0.08004
G1 X91.591 Y117.278 E3.81464
G1 X90.563 Y117.278 E0.09944
G1 X63.493 Y90.208 E3.70507
G1 X63.284 Y91.027 E0.08176
G1 X89.536 Y117.278 E3.59303
G1 X88.508 Y117.278 E0.09944
G1 X63.089 Y91.859 E3.47912
G1 X62.914 Y92.711 E0.08422
G1 X87.481 Y117.278 E3.36244
G1 X86.453 Y117.278 E0.09944
G1 X62.750 Y93.575 E3.24421
G1 X62.613 Y94.465 E0.08716
G1 X85.426 Y117.278 E3.12239
G1 X84.398 Y117.278 E0.09944
G1 X62.487 Y95.367 E2.99904
G1 X62.385 Y96.293 E0.09018
G1 X83.371 Y117.278 E2.87226
G1 X82.343 Y117.278 E0.09944
G1 X62.303 Y97.238 E2.74294
G1 X62.243 Y98.205 E0.09384
G1 X81.316 Y117.278 E2.61049
G1 X80.507 Y117.497 E0.08108
G1 X62.214 Y99.204 E2.50381
G1 X62.202 Y100.220 E0.09836
G1 X80.507 Y118.525 E2.50534
G1 X80.507 Y119.552 E0.09944
G1 X62.227 Y101.272 E2.50203
G1 X62.274 Y102.346 E0.10412
G1 X80.507 Y120.579 E2.49555
G1 X80.507 Y121.607 E0.09944
G1 X62.363 Y103.463 E2.48335
G1 X62.484 Y104.611 E0.11170
G1 X80.507 Y122.634 E2.46687
G1 X80.507 Y123.662 E0.09944
G1 X62.648 Y105.803 E2.44431
G1 X62.865 Y107.048 E0.12225
G1 X80.507 Y124.689 E2.41462
G1 X80.507 Y125.717 E0.09944
G1 X63.134 Y108.344 E2.37786
G1 X63.469 Y109.706 E0.13577
G1 X80.507 Y126.744 E2.33203
G1 X80.507 Y127.772 E0.09944
G1 X63.882 Y111.147 E2.27546
G1 X64.391 Y112.684 F15000.000
G1 X80.507 Y128.799 E2.20576 F720.000
