; generated by Slic3r 1.2.4 on 2015-01-09 at 12:17:22

; external perimeters extrusion width = 0.50mm
; perimeters extrusion width = 0.85mm
; infill extrusion width = 0.87mm
; solid infill extrusion width = 0.85mm
; top infill extrusion width = 0.85mm

M107
M104 S200 ; set temperature
G28 Z0
M83
M109 S200 ; wait for temperature to be reached
G21 ; set units to millimeters
G90 ; use absolute coordinates
M83 ; use relative distances for extrusion
G1 E-2.40000 F3600.00000
G1 Z0.360 F15000.000
G1 X60.234 Y79.873 F15000.000
G1 E2.40000 F3600.00000
G1 X62.515 Y79.093 E0.23209 F720.000
G1 X137.485 Y79.093 E7.21768
G1 X139.153 Y79.487 E0.16503
G1 X140.842 Y81.207 E0.23209
G1 X141.491 Y82.610 E0.14885
G1 X142.114 Y84.102 E0.15560
G1 X142.667 Y85.574 E0.15139
G1 X143.179 Y87.106 E0.15552
G1 X143.501 Y88.183 E0.10826
G1 X143.903 Y89.702 E0.15128
G1 X144.257 Y91.266 E0.15433
G1 X144.472 Y92.381 E0.10937
G1 X144.722 Y93.934 E0.15146
G1 X144.868 Y95.070 E0.11025
G1 X145.021 Y96.658 E0.15355
G1 X145.114 Y98.225 E0.15114
G1 X145.145 Y99.349 E0.10824
G1 X145.140 Y100.920 E0.15130
G1 X145.102 Y102.043 E0.10813
G1 X144.999 Y103.611 E0.15130
G1 X144.890 Y104.730 E0.10826
G1 X144.690 Y106.288 E0.15121
G1 X144.511 Y107.398 E0.10825
G1 X144.214 Y108.940 E0.15119
G1 X143.967 Y110.037 E0.10823
G1 X143.573 Y111.558 E0.15131
G1 X143.258 Y112.636 E0.10810
G1 X142.771 Y114.130 E0.15128
G1 X142.389 Y115.187 E0.10821
G1 X141.810 Y116.647 E0.15119
G1 X141.362 Y117.679 E0.10827
G1 X140.832 Y118.814 E0.12062
G1 X139.747 Y120.141 E0.16503
G1 X137.485 Y120.908 E0.23001
G1 X62.515 Y120.908 E7.21761
G1 X60.847 Y120.513 E0.16503
G1 X59.168 Y118.814 E0.23001
G1 X58.420 Y117.185 E0.17254
G1 X57.803 Y115.690 E0.15570
G1 X57.244 Y114.173 E0.15562
G1 X56.742 Y112.636 E0.15569
G1 X56.421 Y111.536 E0.11036
G1 X56.023 Y109.992 E0.15350
G1 X55.687 Y108.458 E0.15119
G1 X55.400 Y106.866 E0.15575
G1 X55.172 Y105.265 E0.15562
G1 X55.005 Y103.658 E0.15560
G1 X54.899 Y102.065 E0.15369
G1 X54.860 Y100.920 E0.11028
G1 X54.855 Y99.348 E0.15132
G1 X54.886 Y98.225 E0.10821
G1 X54.979 Y96.658 E0.15113
G1 X55.135 Y95.048 E0.15573
G1 X55.347 Y93.467 E0.15354
G1 X55.536 Y92.337 E0.11030
G1 X55.843 Y90.796 E0.15128
G1 X56.217 Y89.223 E0.15562
G1 X56.650 Y87.665 E0.15570
G1 X57.141 Y86.125 E0.15566
G1 X57.690 Y84.604 E0.15563
G1 X58.313 Y83.063 E0.16008
G1 X59.158 Y81.207 E0.19629
G1 X60.187 Y79.931 E0.15780
G1 E-2.40000 F3600.00000
G1 X123.495 Y83.215 F15000.000
G1 E2.40000 F3600.00000
G1 X137.233 Y83.215 E1.32262 F810.000
G1 X137.709 Y84.252 E0.10987
G1 X138.092 Y85.149 E0.09386
G1 X138.788 Y86.970 E0.18772
G1 X139.105 Y87.903 E0.09486
G1 X139.530 Y89.292 E0.13981
G1 X140.018 Y91.180 E0.18771
G1 X140.413 Y93.100 E0.18872
G1 X140.641 Y94.523 E0.13880
G1 X140.767 Y95.501 E0.09486
G1 X140.944 Y97.453 E0.18870
G1 X141.012 Y98.903 E0.13981
G1 X141.027 Y99.878 E0.09386
G1 X141.018 Y100.853 E0.09388
G1 X140.984 Y101.847 E0.09574
G1 X140.889 Y103.287 E0.13893
G1 X140.795 Y104.257 E0.09386
G1 X140.675 Y105.235 E0.09486
G1 X140.455 Y106.660 E0.13882
G1 X140.072 Y108.583 E0.18871
G1 X139.593 Y110.483 E0.18871
G1 X139.177 Y111.875 E0.13980
G1 X138.869 Y112.800 E0.09387
G1 X138.184 Y114.625 E0.18772
G1 X137.807 Y115.524 E0.09386
G1 X137.233 Y116.785 E0.13334
G1 X123.495 Y116.785 E1.32264
G1 X123.495 Y83.290 E3.22467
G1 X123.928 Y83.465 F15000.000
G1 X124.218 Y83.938 F15000.000
G1 X136.774 Y83.938 E1.20882 F810.000
G1 X137.238 Y84.983 E0.11011
G1 X137.602 Y85.868 E0.09211
G1 X138.264 Y87.664 E0.18427
G1 X138.561 Y88.573 E0.09212
G1 X138.963 Y89.951 E0.13817
G1 X139.419 Y91.810 E0.18427
G1 X139.781 Y93.689 E0.18423
G1 X140.051 Y95.599 E0.18569
G1 X140.188 Y97.013 E0.13675
G1 X140.251 Y97.967 E0.09212
G1 X140.305 Y99.880 E0.18422
G1 X140.262 Y101.809 E0.18571
G1 X140.205 Y102.764 E0.09213
G1 X140.078 Y104.164 E0.13531
G1 X139.820 Y106.075 E0.18569
G1 X139.469 Y107.956 E0.18424
G1 X139.259 Y108.890 E0.09211
G1 X138.904 Y110.265 E0.13676
G1 X138.340 Y112.110 E0.18569
G1 X137.690 Y113.909 E0.18424
G1 X137.331 Y114.797 E0.09214
G1 X136.774 Y116.062 E0.13311
G1 X124.218 Y116.062 E1.20886
G1 X124.218 Y84.013 E3.08551
G1 E-2.40000 F3600.00000
G1 X136.473 Y84.501 F15000.000
G1 E2.40000 F3600.00000
G1 X136.413 Y84.442 E0.00825 F720.000
G1 X135.370 Y84.442 E0.10249
G1 X137.222 Y86.294 E0.25737
G1 X137.823 Y87.938 F15000.000
G1 X134.327 Y84.442 E0.48582 F720.000
G1 X133.284 Y84.442 E0.10249
G1 X138.292 Y89.450 E0.69583
G1 X138.670 Y90.871 E0.14449
G1 X132.241 Y84.442 E0.89331
G1 X131.198 Y84.442 E0.10249
G1 X138.992 Y92.236 E1.08304
G1 X139.235 Y93.522 E0.12857
G1 X130.155 Y84.442 E1.26172
G1 X129.111 Y84.442 E0.10249
G1 X139.425 Y94.756 E1.43310
G1 X139.580 Y95.953 E0.11863
G1 X128.068 Y84.442 E1.59950
G1 X127.025 Y84.442 E0.10249
G1 X139.689 Y97.105 E1.75960
G1 X139.755 Y98.214 E0.10915
G1 X125.982 Y84.442 E1.91370
G1 X124.939 Y84.442 E0.10249
G1 X139.782 Y99.285 E2.06248
G1 X139.799 Y100.345 E0.10413
G1 X124.722 Y85.268 E2.09496
G1 X124.722 Y86.311 E0.10249
G1 X139.765 Y101.354 E2.09021
G1 X139.724 Y102.357 E0.09861
G1 X124.722 Y87.354 E2.08462
G1 X124.722 Y88.397 E0.10249
G1 X139.643 Y103.319 E2.07332
G1 X139.557 Y104.275 E0.09437
G1 X124.722 Y89.440 E2.06130
G1 X124.722 Y90.483 E0.10249
G1 X139.439 Y105.201 E2.04495
G1 X139.300 Y106.104 E0.08984
G1 X124.722 Y91.526 E2.02558
G1 X124.722 Y92.570 E0.10249
G1 X139.139 Y106.987 E2.00332
G1 X138.966 Y107.857 E0.08714
G1 X124.722 Y93.613 E1.97924
G1 X124.722 Y94.656 E0.10249
G1 X138.775 Y108.709 E1.95275
G1 X138.565 Y109.543 E0.08443
G1 X124.722 Y95.699 E1.92359
G1 X124.722 Y96.742 E0.10249
G1 X138.346 Y110.366 E1.89311
G1 X138.102 Y111.165 E0.08208
G1 X124.722 Y97.785 E1.85917
G1 X124.722 Y98.828 E0.10249
G1 X137.857 Y111.964 E1.82516
G1 X137.580 Y112.730 E0.08005
G1 X124.722 Y99.871 E1.78669
G1 X124.722 Y100.915 E0.10249
G1 X137.303 Y113.496 E1.74823
G1 X137.010 Y114.246 E0.07912
G1 X124.722 Y101.958 E1.70750
G1 X124.722 Y103.001 E0.10249
G1 X136.700 Y114.979 E1.66443
G1 X136.236 Y115.558 E0.07290
G1 X124.722 Y104.044 E1.59990
G1 X124.722 Y105.087 E0.10249
G1 X135.193 Y115.558 E1.45496
G1 X134.150 Y115.558 E0.10249
G1 X124.722 Y106.130 E1.31002
G1 X124.722 Y107.173 E0.10249
G1 X133.107 Y115.558 E1.16508
G1 X132.063 Y115.558 E0.10249
G1 X124.722 Y108.216 E1.02014
G1 X124.722 Y109.259 E0.10249
G1 X131.020 Y115.558 E0.87520
G1 X129.977 Y115.558 E0.10249
G1 X124.722 Y110.303 E0.73026
G1 X124.722 Y111.346 E0.10249
G1 X128.934 Y115.558 E0.58532
G1 X127.891 Y115.558 E0.10249
G1 X124.722 Y112.389 E0.44038
G1 X124.722 Y113.432 E0.10249
G1 X126.848 Y115.558 E0.29544
G1 X125.805 Y115.558 E0.10249
G1 X124.722 Y114.475 E0.15050
G1 X124.722 Y115.518 E0.10249
G1 X124.762 Y115.558 E0.00556
G1 E-2.40000 F3600.00000
G1 Z0.360 F15000.000
G1 X76.505 Y116.785 F15000.000
G1 E2.40000 F3600.00000
G1 X62.767 Y116.785 E1.32264 F810.000
G1 X62.193 Y115.524 E0.13334
G1 X61.816 Y114.625 E0.09386
G1 X61.131 Y112.800 E0.18772
G1 X60.820 Y111.865 E0.09485
G1 X60.407 Y110.483 E0.13882
G1 X59.928 Y108.583 E0.18871
G1 X59.545 Y106.660 E0.18871
G1 X59.324 Y105.225 E0.13981
G1 X59.205 Y104.257 E0.09386
G1 X59.111 Y103.287 E0.09386
G1 X59.016 Y101.847 E0.13893
G1 X58.982 Y100.853 E0.09574
G1 X58.973 Y99.878 E0.09387
G1 X58.988 Y98.903 E0.09386
G1 X59.056 Y97.453 E0.13981
G1 X59.233 Y95.501 E0.18870
G1 X59.359 Y94.523 E0.09486
G1 X59.587 Y93.100 E0.13881
G1 X59.982 Y91.180 E0.18873
G1 X60.470 Y89.292 E0.18771
G1 X60.895 Y87.903 E0.13981
G1 X61.212 Y86.970 E0.09486
G1 X61.908 Y85.149 E0.18772
G1 X62.291 Y84.252 E0.09386
G1 X62.767 Y83.215 E0.10987
G1 X76.505 Y83.215 E1.32262
G1 X76.505 Y116.710 E3.22467
G1 X76.072 Y116.535 F15000.000
G1 X75.782 Y116.062 F15000.000
G1 X63.226 Y116.062 E1.20886 F810.000
G1 X62.669 Y114.797 E0.13311
G1 X62.310 Y113.909 E0.09213
G1 X61.660 Y112.110 E0.18425
G1 X61.096 Y110.265 E0.18569
G1 X60.741 Y108.890 E0.13676
G1 X60.531 Y107.956 E0.09211
G1 X60.180 Y106.075 E0.18424
G1 X59.922 Y104.164 E0.18569
G1 X59.795 Y102.764 E0.13531
G1 X59.738 Y101.809 E0.09213
G1 X59.695 Y99.880 E0.18570
G1 X59.749 Y97.967 E0.18423
G1 X59.812 Y97.013 E0.09211
G1 X59.949 Y95.599 E0.13676
G1 X60.219 Y93.689 E0.18567
G1 X60.581 Y91.810 E0.18424
G1 X61.037 Y89.951 E0.18426
G1 X61.439 Y88.573 E0.13818
G1 X61.736 Y87.664 E0.09211
G1 X62.398 Y85.868 E0.18427
G1 X62.762 Y84.983 E0.09211
G1 X63.226 Y83.938 E0.11011
G1 X75.782 Y83.938 E1.20882
G1 X75.782 Y115.987 E3.08551
G1 E-2.40000 F3600.00000
G1 X63.588 Y115.558 F15000.000
G1 E2.40000 F3600.00000
G1 X63.529 Y115.499 E0.00820 F720.000
G1 X62.769 Y113.696 F15000.000
G1 X64.631 Y115.558 E0.25871 F720.000
G1 X65.674 Y115.558 E0.10248
G1 X62.179 Y112.063 E0.48562
G1 X61.711 Y110.552 E0.15539
G1 X66.717 Y115.558 E0.69554
G1 X67.760 Y115.558 E0.10248
G1 X61.321 Y109.119 E0.89470
G1 X61.007 Y107.762 E0.13682
G1 X68.803 Y115.558 E1.08322
G1 X69.846 Y115.558 E0.10248
G1 X60.768 Y106.480 E1.26136
G1 X60.577 Y105.246 E0.12275
G1 X70.889 Y115.558 E1.43290
G1 X71.932 Y115.558 E0.10248
G1 X60.417 Y104.043 E1.59997
G1 X60.313 Y102.896 E0.11319
G1 X72.975 Y115.558 E1.75939
G1 X74.019 Y115.558 E0.10248
G1 X60.242 Y101.781 E1.91428
G1 X60.218 Y100.714 E0.10482
G1 X75.062 Y115.558 E2.06249
G1 X75.278 Y114.732 E0.08394
G1 X60.206 Y99.659 E2.09427
G1 X60.234 Y98.645 E0.09972
G1 X75.278 Y113.689 E2.09031
G1 X75.278 Y112.645 E0.10248
G1 X60.276 Y97.643 E2.08458
G1 X60.351 Y96.675 E0.09537
G1 X75.278 Y111.602 E2.07410
G1 X75.278 Y110.559 E0.10248
G1 X60.443 Y95.724 E2.06129
G1 X60.570 Y94.808 E0.09091
G1 X75.278 Y109.516 E2.04371
G1 X75.278 Y108.473 E0.10248
G1 X60.699 Y93.894 E2.02578
G1 X60.862 Y93.014 E0.08791
G1 X75.278 Y107.430 E2.00308
G1 X75.278 Y106.387 E0.10248
G1 X61.031 Y92.139 E1.97964
G1 X61.227 Y91.292 E0.08542
G1 X75.278 Y105.344 E1.95240
G1 X75.278 Y104.301 E0.10248
G1 X61.432 Y90.455 E1.92386
G1 X61.655 Y89.634 E0.08355
G1 X75.278 Y103.258 E1.89298
G1 X75.278 Y102.215 E0.10248
G1 X61.890 Y88.827 E1.86022
G1 X62.144 Y88.037 E0.08145
G1 X75.278 Y101.171 E1.82493
G1 X75.278 Y100.128 E0.10248
G1 X62.419 Y87.269 E1.78681
G1 X62.699 Y86.506 E0.07982
G1 X75.278 Y99.085 E1.74779
G1 X75.278 Y98.042 E0.10248
G1 X62.990 Y85.753 E1.70748
G1 X63.298 Y85.018 E0.07831
G1 X75.278 Y96.999 E1.66469
G1 X75.278 Y95.956 E0.10248
G1 X63.764 Y84.442 E1.59983
G1 X64.807 Y84.442 E0.10248
G1 X75.278 Y94.913 E1.45490
G1 X75.278 Y93.870 E0.10248
G1 X65.851 Y84.442 E1.30996
G1 X66.894 Y84.442 E0.10248
G1 X75.278 Y92.827 E1.16503
G1 X75.278 Y91.784 E0.10248
G1 X67.937 Y84.442 E1.02010
G1 X68.980 Y84.442 E0.10248
G1 X75.278 Y90.740 E0.87516
G1 X75.278 Y89.697 E0.10248
G1 X70.023 Y84.442 E0.73023
G1 X71.066 Y84.442 E0.10248
G1 X75.278 Y88.654 E0.58529
G1 X75.278 Y87.611 E0.10248
G1 X72.109 Y84.442 E0.44036
G1 X73.152 Y84.442 E0.10248
G1 X75.278 Y86.568 E0.29543
G1 X75.278 Y85.525 E0.10248
G1 X74.195 Y84.442 E0.15049
G1 X75.238 Y84.442 E0.10248
G1 X75.278 Y84.482 E0.00556
M104 S185 ; set temperature
G1 E-2.40000 F3600.00000
G1 Z0.600 F15000.000
G1 X123.345 Y82.865 F15000.000
G1 E2.40000 F3600.00000
G1 X137.273 Y82.865 E0.55474 F2700.000
G1 X137.680 Y83.730 E0.03806
G1 X138.252 Y85.047 E0.05719
G1 X138.626 Y85.989 E0.04035
G1 X138.965 Y86.908 E0.03902
G1 X139.291 Y87.867 E0.04035
G1 X139.710 Y89.241 E0.05720
G1 X140.200 Y91.137 E0.07803
G1 X140.410 Y92.094 E0.03902
G1 X140.601 Y93.089 E0.04035
G1 X140.824 Y94.474 E0.05586
G1 X140.953 Y95.479 E0.04035
G1 X141.054 Y96.453 E0.03902
G1 X141.133 Y97.463 E0.04035
G1 X141.200 Y98.898 E0.05720
G1 X141.215 Y99.877 E0.03902
G1 X141.206 Y100.857 E0.03902
G1 X141.169 Y101.894 E0.04132
G1 X141.076 Y103.303 E0.05622
G1 X140.981 Y104.278 E0.03902
G1 X140.862 Y105.250 E0.03902
G1 X140.643 Y106.669 E0.05720
G1 X140.458 Y107.666 E0.04035
G1 X140.255 Y108.624 E0.03902
G1 X140.028 Y109.577 E0.03902
G1 X139.767 Y110.556 E0.04035
G1 X139.356 Y111.932 E0.05719
G1 X139.046 Y112.861 E0.03902
G1 X138.713 Y113.782 E0.03902
G1 X138.171 Y115.148 E0.05853
G1 X137.781 Y116.047 E0.03902
G1 X137.273 Y117.135 E0.04783
G1 X123.345 Y117.135 E0.55471
G1 X123.345 Y82.940 E1.36192
G1 X123.778 Y83.115 F15000.000
G1 X123.968 Y83.489 F15000.000
G1 X136.882 Y83.489 E0.91566 F2700.000
G1 X137.310 Y84.428 E0.07324
G1 X137.688 Y85.315 E0.06835
G1 X138.377 Y87.116 E0.13671
G1 X138.697 Y88.057 E0.07047
G1 X139.111 Y89.412 E0.10045
G1 X139.593 Y91.278 E0.13671
G1 X139.987 Y93.196 E0.13883
G1 X140.207 Y94.565 E0.09833
G1 X140.334 Y95.551 E0.07047
G1 X140.510 Y97.500 E0.13881
G1 X140.576 Y98.915 E0.10045
G1 X140.591 Y99.879 E0.06836
G1 X140.582 Y100.843 E0.06837
G1 X140.546 Y101.861 E0.07220
G1 X140.454 Y103.250 E0.09871
G1 X140.361 Y104.210 E0.06836
G1 X140.244 Y105.167 E0.06837
G1 X140.029 Y106.567 E0.10045
G1 X139.847 Y107.544 E0.07046
G1 X139.647 Y108.487 E0.06836
G1 X139.168 Y110.385 E0.13882
G1 X138.762 Y111.742 E0.10044
G1 X138.457 Y112.656 E0.06836
G1 X137.779 Y114.462 E0.13672
G1 X137.407 Y115.351 E0.06836
G1 X136.880 Y116.511 E0.09038
G1 X123.968 Y116.511 E0.91557
G1 X123.968 Y83.564 E2.33632
G1 X124.532 Y84.092 F15000.000
G1 X124.572 Y84.052 E0.00409 F2400.000
G1 X125.725 Y84.052 E0.08345
G1 X124.532 Y85.245 E0.12211
G1 X124.532 Y86.398 E0.08345
G1 X126.877 Y84.052 E0.24012
G1 X128.030 Y84.052 E0.08345
G1 X124.532 Y87.550 E0.35813
G1 X124.532 Y88.703 E0.08345
G1 X129.183 Y84.052 E0.47615
G1 X130.336 Y84.052 E0.08345
G1 X124.532 Y89.856 E0.59416
G1 X124.532 Y91.009 E0.08345
G1 X131.488 Y84.052 E0.71217
G1 X132.641 Y84.052 E0.08345
G1 X124.532 Y92.161 E0.83019
G1 X124.532 Y93.314 E0.08345
G1 X133.794 Y84.052 E0.94820
G1 X134.947 Y84.052 E0.08345
G1 X124.532 Y94.467 E1.06621
G1 X124.532 Y95.620 E0.08345
G1 X136.100 Y84.052 E1.18423
G1 X136.749 Y84.555 E0.05948
G1 X124.532 Y96.773 E1.25073
G1 X124.532 Y97.925 E0.08345
G1 X137.092 Y85.365 E1.28583
G1 X137.426 Y86.184 E0.06402
G1 X124.532 Y99.078 E1.32000
G1 X124.532 Y100.231 E0.08345
G1 X137.741 Y87.022 E1.35223
G1 X138.040 Y87.875 E0.06545
G1 X124.532 Y101.384 E1.38291
G1 X124.532 Y102.537 E0.08345
G1 X138.319 Y88.749 E1.41144
G1 X138.587 Y89.634 E0.06692
G1 X124.532 Y103.689 E1.43889
G1 X124.532 Y104.842 E0.08345
G1 X138.833 Y90.541 E1.46401
G1 X139.054 Y91.473 E0.06929
G1 X124.532 Y105.995 E1.48670
G1 X124.532 Y107.148 E0.08345
G1 X139.259 Y92.421 E1.50763
G1 X139.446 Y93.386 E0.07117
G1 X124.532 Y108.301 E1.52685
G1 X124.532 Y109.453 E0.08345
G1 X139.606 Y94.379 E1.54318
G1 X139.745 Y95.393 E0.07406
G1 X124.532 Y110.606 E1.55743
G1 X124.532 Y111.759 E0.08345
G1 X139.854 Y96.436 E1.56863
G1 X139.940 Y97.503 E0.07750
G1 X124.532 Y112.912 E1.57739
G1 X124.532 Y114.064 E0.08345
G1 X140.001 Y98.596 E1.58358
G1 X140.023 Y99.726 E0.08184
G1 X124.532 Y115.217 E1.58588
G1 X124.954 Y115.948 E0.06109
G1 X140.017 Y100.885 E1.54204
G1 X139.968 Y102.087 E0.08706
G1 X126.107 Y115.948 E1.41903
G1 X127.259 Y115.948 E0.08345
G1 X139.877 Y103.330 E1.29170
G1 X139.734 Y104.626 E0.09435
G1 X128.412 Y115.948 E1.15906
G1 X129.565 Y115.948 E0.08345
G1 X139.551 Y105.962 E1.02234
G1 X139.303 Y107.363 E0.10304
G1 X130.718 Y115.948 E0.87886
G1 X131.871 Y115.948 E0.08345
G1 X138.977 Y108.842 E0.72749
G1 X138.576 Y110.395 E0.11611
G1 X133.023 Y115.948 E0.56849
G1 X134.176 Y115.948 E0.08345
G1 X138.050 Y112.074 E0.39661
G1 X137.398 Y113.879 F15000.000
G1 X135.329 Y115.948 E0.21184 F2400.000
G1 X136.541 Y115.888 E0.08787
G1 X136.482 Y115.948 E0.00610
G1 E-2.40000 F3600.00000
G1 Z0.600 F15000.000
G1 X76.655 Y117.135 F15000.000
G1 E2.40000 F3600.00000
G1 X62.727 Y117.135 E0.55471 F2700.000
G1 X62.219 Y116.047 E0.04783
G1 X61.829 Y115.148 E0.03902
G1 X61.287 Y113.782 E0.05853
G1 X60.954 Y112.861 E0.03902
G1 X60.644 Y111.932 E0.03902
G1 X60.233 Y110.556 E0.05719
G1 X59.972 Y109.577 E0.04035
G1 X59.745 Y108.624 E0.03902
G1 X59.542 Y107.666 E0.03902
G1 X59.357 Y106.669 E0.04035
G1 X59.138 Y105.250 E0.05720
G1 X59.019 Y104.278 E0.03902
G1 X58.924 Y103.303 E0.03902
G1 X58.831 Y101.894 E0.05622
G1 X58.794 Y100.857 E0.04132
G1 X58.785 Y99.877 E0.03902
G1 X58.800 Y98.898 E0.03902
G1 X58.867 Y97.463 E0.05720
G1 X58.946 Y96.453 E0.04035
G1 X59.047 Y95.479 E0.03902
G1 X59.172 Y94.507 E0.03902
G1 X59.399 Y93.089 E0.05719
