; generated by Slic3r 1.2.4 on 2015-01-09 at 11:47:59

; external perimeters extrusion width = 0.50mm
; perimeters extrusion width = 0.85mm
; infill extrusion width = 0.87mm
; solid infill extrusion width = 0.85mm
; top infill extrusion width = 0.85mm

M107
M104 S200 ; set temperature
G28 Z0
M83
M109 S200 ; wait for temperature to be reached
G21 ; set units to millimeters
G90 ; use absolute coordinates
M83 ; use relative distances for extrusion
G1 E-2.40000 F3600.00000
G1 Z0.360 F15000.000
G1 X45.867 Y46.437 F15000.000
G1 E2.40000 F3600.00000
G1 X46.644 Y45.690 E0.10377 F1200.000
G1 X47.440 Y44.963 E0.10377
G1 X48.253 Y44.255 E0.10383
G1 X49.084 Y43.569 E0.10370
G1 X49.932 Y42.903 E0.10387
G1 X50.796 Y42.259 E0.10370
G1 X52.160 Y41.307 E0.16015
G1 X53.481 Y40.458 E0.15121
G1 X54.405 Y39.903 E0.10376
G1 X55.384 Y39.349 E0.10825
G1 X56.333 Y38.843 E0.10358
G1 X56.599 Y38.707 E0.02877
G1 X58.004 Y38.312 E0.14045
G1 X141.770 Y31.839 E8.08859
G1 X142.872 Y31.767 E0.10637
G1 X144.455 Y31.713 E0.15244
G1 X145.587 Y31.709 E0.10898
G1 X147.168 Y31.754 E0.15232
G1 X148.298 Y31.821 E0.10892
G1 X149.875 Y31.964 E0.15246
G1 X150.998 Y32.102 E0.10893
G1 X152.562 Y32.343 E0.15237
G1 X153.675 Y32.550 E0.10899
G1 X155.220 Y32.889 E0.15232
G1 X156.317 Y33.165 E0.10889
G1 X157.840 Y33.599 E0.15242
G1 X158.919 Y33.944 E0.10904
G1 X160.410 Y34.472 E0.15232
G1 X161.464 Y34.883 E0.10890
G1 X162.920 Y35.503 E0.15238
G1 X163.948 Y35.980 E0.10904
G1 X165.147 Y36.578 E0.12903
G1 X166.446 Y37.696 E0.16503
G1 X167.151 Y39.667 E0.20147
G1 X169.284 Y76.265 E3.52948
G1 X169.278 Y78.292 E0.19517
G1 X167.151 Y114.673 E3.50856
G1 X166.659 Y116.316 E0.16503
G1 X166.043 Y117.112 E0.09699
G1 X116.249 Y166.011 E6.71887
G1 X114.782 Y166.898 E0.16503
G1 X113.641 Y167.078 E0.11127
G1 X38.672 Y167.078 E7.21761
G1 X37.003 Y166.683 E0.16503
G1 X35.324 Y164.984 E0.22996
G1 X34.775 Y163.806 E0.12516
G1 X34.142 Y162.319 E0.15564
G1 X33.565 Y160.808 E0.15571
G1 X33.059 Y159.321 E0.15116
G1 X32.595 Y157.772 E0.15565
G1 X32.307 Y156.685 E0.10829
G1 X31.942 Y155.110 E0.15563
G1 X31.645 Y153.568 E0.15120
G1 X31.463 Y152.436 E0.11040
G1 X31.261 Y150.855 E0.15348
G1 X31.119 Y149.290 E0.15126
G1 X31.052 Y148.168 E0.10821
G1 X31.008 Y146.551 E0.15574
G1 X31.023 Y144.954 E0.15373
G1 X33.027 Y75.831 E6.65758
G1 X33.109 Y74.185 E0.15868
G1 X33.197 Y73.110 E0.10380
G1 X33.307 Y72.084 E0.09935
G1 X33.535 Y70.437 E0.16013
G1 X33.708 Y69.420 E0.09932
G1 X33.914 Y68.362 E0.10371
G1 X34.291 Y66.720 E0.16223
G1 X34.559 Y65.698 E0.10172
G1 X34.858 Y64.663 E0.10375
G1 X35.169 Y63.679 E0.09937
G1 X35.519 Y62.659 E0.10379
G1 X36.109 Y61.104 E0.16012
G1 X36.522 Y60.108 E0.10379
G1 X36.942 Y59.166 E0.09931
G1 X37.404 Y58.192 E0.10377
G1 X37.890 Y57.230 E0.10376
G1 X38.686 Y55.770 E0.16008
G1 X39.233 Y54.840 E0.10386
G1 X39.777 Y53.964 E0.09932
G1 X40.699 Y52.579 E0.16012
G1 X41.324 Y51.701 E0.10381
G1 X41.943 Y50.875 E0.09935
G1 X42.981 Y49.577 E0.16002
G1 X43.651 Y48.791 E0.09941
G1 X44.370 Y47.988 E0.10377
G1 X45.108 Y47.204 E0.10373
G1 X45.814 Y46.490 E0.09660
G1 E-2.40000 F3600.00000
G1 X99.651 Y129.385 F15000.000
G1 E2.40000 F3600.00000
G1 X113.389 Y129.385 E1.32262 F1350.000
G1 X113.866 Y130.422 E0.10989
G1 X114.248 Y131.319 E0.09386
G1 X114.944 Y133.140 E0.18772
G1 X115.262 Y134.073 E0.09485
G1 X115.686 Y135.462 E0.13981
G1 X116.174 Y137.350 E0.18770
G1 X116.569 Y139.270 E0.18874
G1 X116.729 Y140.231 E0.09385
G1 X116.923 Y141.671 E0.13980
G1 X117.100 Y143.623 E0.18870
G1 X117.168 Y145.073 E0.13982
G1 X117.183 Y146.048 E0.09386
G1 X117.141 Y147.997 E0.18772
G1 X117.083 Y148.971 E0.09387
G1 X116.951 Y150.427 E0.14080
G1 X116.769 Y151.845 E0.13765
G1 X116.609 Y152.840 E0.09701
G1 X116.228 Y154.753 E0.18772
G1 X115.752 Y156.643 E0.18771
G1 X115.343 Y158.013 E0.13765
G1 X115.025 Y158.970 E0.09703
G1 X114.340 Y160.795 E0.18771
G1 X113.963 Y161.694 E0.09386
G1 X113.389 Y162.955 E0.13335
G1 X99.651 Y162.955 E1.32264
G1 X99.651 Y129.460 E3.22467
G1 X100.084 Y129.635 F15000.000
G1 X100.374 Y130.108 F15000.000
G1 X112.930 Y130.108 E1.20882 F1350.000
G1 X113.394 Y131.153 E0.11010
G1 X113.759 Y132.038 E0.09214
G1 X114.420 Y133.834 E0.18426
G1 X114.992 Y135.666 E0.18478
G1 X115.359 Y137.048 E0.13764
G1 X115.575 Y137.980 E0.09212
G1 X115.937 Y139.859 E0.18423
G1 X116.205 Y141.754 E0.18425
G1 X116.379 Y143.665 E0.18480
G1 X116.429 Y144.615 E0.09158
G1 X116.461 Y146.050 E0.13818
G1 X116.419 Y147.964 E0.18424
G1 X116.362 Y148.919 E0.09212
G1 X116.234 Y150.333 E0.13676
G1 X115.976 Y152.245 E0.18569
G1 X115.625 Y154.126 E0.18424
G1 X115.415 Y155.060 E0.09214
G1 X115.063 Y156.422 E0.13547
G1 X114.496 Y158.280 E0.18697
G1 X113.846 Y160.080 E0.18424
G1 X113.488 Y160.967 E0.09210
G1 X112.930 Y162.232 E0.13313
G1 X100.374 Y162.232 E1.20886
G1 X100.374 Y130.183 E3.08551
G1 E-2.40000 F3600.00000
G1 X112.629 Y130.671 F15000.000
G1 E2.40000 F3600.00000
G1 X112.569 Y130.612 E0.00825 F1200.000
G1 X111.526 Y130.612 E0.10249
G1 X113.379 Y132.464 E0.25737
G1 X113.977 Y134.106 F15000.000
G1 X110.483 Y130.612 E0.48548 F1200.000
G1 X109.440 Y130.612 E0.10249
G1 X114.451 Y135.623 E0.69632
G1 X114.828 Y137.043 E0.14429
G1 X108.397 Y130.612 E0.89356
G1 X107.354 Y130.612 E0.10249
G1 X115.137 Y138.395 E1.08144
G1 X115.393 Y139.694 E0.13013
G1 X106.311 Y130.612 E1.26199
G1 X105.268 Y130.612 E0.10249
G1 X115.583 Y140.928 E1.43336
G1 X115.727 Y142.115 E0.11748
G1 X104.224 Y130.612 E1.59830
G1 X103.181 Y130.612 E0.10249
G1 X115.844 Y143.275 E1.75954
G1 X115.903 Y144.377 E0.10839
G1 X102.138 Y130.612 E1.91261
G1 X101.095 Y130.612 E0.10249
G1 X115.943 Y145.460 E2.06311
G1 X115.946 Y146.506 E0.10281
G1 X100.878 Y131.438 E2.09375
G1 X100.878 Y132.481 E0.10249
G1 X115.923 Y147.526 E2.09051
G1 X115.876 Y148.522 E0.09801
G1 X100.878 Y133.524 E2.08402
G1 X100.878 Y134.567 E0.10249
G1 X115.800 Y149.490 E2.07348
G1 X115.708 Y150.440 E0.09385
G1 X100.878 Y135.610 E2.06065
G1 X100.878 Y136.653 E0.10249
G1 X115.588 Y151.363 E2.04396
G1 X115.454 Y152.272 E0.09026
G1 X100.878 Y137.696 E2.02529
G1 X100.878 Y138.740 E0.10249
G1 X115.296 Y153.157 E2.00334
G1 X115.122 Y154.027 E0.08714
G1 X100.878 Y139.783 E1.97925
G1 X100.878 Y140.826 E0.10249
G1 X114.931 Y154.879 E1.95275
G1 X114.722 Y155.713 E0.08443
G1 X100.878 Y141.869 E1.92360
G1 X100.878 Y142.912 E0.10249
G1 X114.502 Y156.536 E1.89311
G1 X114.258 Y157.335 E0.08208
G1 X100.878 Y143.955 E1.85917
G1 X100.878 Y144.998 E0.10249
G1 X114.013 Y158.134 E1.82516
G1 X113.736 Y158.900 E0.08005
G1 X100.878 Y146.041 E1.78670
G1 X100.878 Y147.084 E0.10249
G1 X113.460 Y159.666 E1.74823
G1 X113.166 Y160.416 E0.07912
G1 X100.878 Y148.128 E1.70751
G1 X100.878 Y149.171 E0.10249
G1 X112.856 Y161.149 E1.66443
G1 X112.392 Y161.728 E0.07290
G1 X100.878 Y150.214 E1.59990
G1 X100.878 Y151.257 E0.10249
G1 X111.349 Y161.728 E1.45496
G1 X110.306 Y161.728 E0.10249
G1 X100.878 Y152.300 E1.31002
G1 X100.878 Y153.343 E0.10249
G1 X109.263 Y161.728 E1.16508
G1 X108.220 Y161.728 E0.10249
G1 X100.878 Y154.386 E1.02014
G1 X100.878 Y155.429 E0.10249
G1 X107.177 Y161.728 E0.87520
G1 X106.133 Y161.728 E0.10249
G1 X100.878 Y156.473 E0.73026
G1 X100.878 Y157.516 E0.10249
G1 X105.090 Y161.728 E0.58532
G1 X104.047 Y161.728 E0.10249
G1 X100.878 Y158.559 E0.44038
G1 X100.878 Y159.602 E0.10249
G1 X103.004 Y161.728 E0.29544
G1 X101.961 Y161.728 E0.10249
G1 X100.878 Y160.645 E0.15050
G1 X100.878 Y161.688 E0.10249
G1 X100.918 Y161.728 E0.00556
G1 E-2.40000 F3600.00000
G1 X52.661 Y162.955 F15000.000
G1 E2.40000 F3600.00000
G1 X38.923 Y162.955 E1.32264 F1350.000
G1 X38.349 Y161.694 E0.13334
G1 X37.973 Y160.795 E0.09386
G1 X37.287 Y158.970 E0.18771
G1 X36.969 Y158.013 E0.09702
G1 X36.560 Y156.643 E0.13765
G1 X36.084 Y154.753 E0.18771
G1 X35.703 Y152.840 E0.18772
G1 X35.546 Y151.858 E0.09574
G1 X35.362 Y150.427 E0.13893
G1 X35.229 Y148.971 E0.14079
G1 X35.171 Y147.997 E0.09387
G1 X35.129 Y146.048 E0.18772
G1 X35.185 Y144.080 E0.18958
G1 X35.289 Y142.640 E0.13893
G1 X35.389 Y141.671 E0.09387
G1 X35.583 Y140.231 E0.13980
G1 X35.744 Y139.270 E0.09387
G1 X36.138 Y137.350 E0.18873
G1 X36.626 Y135.462 E0.18771
G1 X37.051 Y134.073 E0.13981
G1 X37.368 Y133.140 E0.09485
G1 X38.065 Y131.319 E0.18772
G1 X38.447 Y130.422 E0.09387
G1 X38.923 Y129.385 E0.10988
G1 X52.661 Y129.385 E1.32262
G1 X52.661 Y162.880 E3.22467
G1 X52.661 Y163.455 F15000.000
G1 X51.938 Y162.232 F15000.000
G1 X39.382 Y162.232 E1.20886 F1350.000
G1 X38.825 Y160.966 E0.13314
G1 X38.466 Y160.079 E0.09211
G1 X37.816 Y158.280 E0.18423
G1 X37.253 Y156.435 E0.18568
G1 X36.897 Y155.060 E0.13677
G1 X36.687 Y154.126 E0.09213
G1 X36.336 Y152.245 E0.18425
G1 X36.078 Y150.334 E0.18567
G1 X35.950 Y148.919 E0.13676
G1 X35.893 Y147.964 E0.09214
G1 X35.852 Y146.050 E0.18424
G1 X35.906 Y144.123 E0.18566
G1 X36.008 Y142.706 E0.13676
G1 X36.107 Y141.754 E0.09213
G1 X36.375 Y139.859 E0.18423
G1 X36.737 Y137.980 E0.18425
G1 X37.193 Y136.121 E0.18425
G1 X37.595 Y134.743 E0.13820
G1 X37.892 Y133.834 E0.09211
G1 X38.554 Y132.038 E0.18425
G1 X38.918 Y131.153 E0.09214
G1 X39.382 Y130.108 E0.11010
G1 X51.938 Y130.108 E1.20882
G1 X51.938 Y162.157 E3.08551
G1 E-2.40000 F3600.00000
G1 X39.744 Y161.728 F15000.000
G1 E2.40000 F3600.00000
G1 X39.685 Y161.669 E0.00820 F1200.000
G1 X38.925 Y159.866 F15000.000
G1 X40.787 Y161.728 E0.25871 F1200.000
G1 X41.830 Y161.728 E0.10248
G1 X38.335 Y158.233 E0.48562
G1 X37.867 Y156.722 E0.15539
G1 X42.873 Y161.728 E0.69555
G1 X43.916 Y161.728 E0.10248
G1 X37.477 Y155.289 E0.89470
G1 X37.163 Y153.932 E0.13682
G1 X44.959 Y161.728 E1.08322
G1 X46.002 Y161.728 E0.10248
G1 X36.924 Y152.650 E1.26136
G1 X36.733 Y151.416 E0.12275
G1 X47.045 Y161.728 E1.43290
G1 X48.089 Y161.728 E0.10248
G1 X36.574 Y150.213 E1.59997
G1 X36.470 Y149.066 E0.11317
G1 X49.132 Y161.728 E1.75936
G1 X50.175 Y161.728 E0.10248
G1 X36.398 Y147.951 E1.91430
G1 X36.374 Y146.884 E0.10483
G1 X51.218 Y161.728 E2.06252
G1 X51.434 Y160.902 E0.08394
G1 X36.362 Y145.829 E2.09427
G1 X36.391 Y144.815 E0.09970
G1 X51.434 Y159.859 E2.09028
G1 X51.434 Y158.815 E0.10248
G1 X36.434 Y143.815 E2.08431
G1 X36.504 Y142.842 E0.09584
G1 X51.434 Y157.772 E2.07456
G1 X51.434 Y156.729 E0.10248
G1 X36.599 Y141.894 E2.06134
G1 X36.726 Y140.977 E0.09090
G1 X51.434 Y155.686 E2.04374
G1 X51.434 Y154.643 E0.10248
G1 X36.855 Y140.064 E2.02578
G1 X37.018 Y139.184 E0.08791
G1 X51.434 Y153.600 E2.00308
G1 X51.434 Y152.557 E0.10248
G1 X37.187 Y138.309 E1.97964
G1 X37.383 Y137.462 E0.08542
G1 X51.434 Y151.514 E1.95240
G1 X51.434 Y150.471 E0.10248
G1 X37.588 Y136.625 E1.92386
G1 X37.811 Y135.804 E0.08355
G1 X51.434 Y149.428 E1.89298
G1 X51.434 Y148.385 E0.10248
G1 X38.046 Y134.997 E1.86022
G1 X38.300 Y134.207 E0.08145
G1 X51.434 Y147.341 E1.82493
G1 X51.434 Y146.298 E0.10248
G1 X38.575 Y133.439 E1.78681
G1 X38.856 Y132.676 E0.07982
G1 X51.434 Y145.255 E1.74779
G1 X51.434 Y144.212 E0.10248
G1 X39.146 Y131.923 E1.70748
G1 X39.454 Y131.188 E0.07831
G1 X51.434 Y143.169 E1.66469
G1 X51.434 Y142.126 E0.10248
G1 X39.920 Y130.612 E1.59984
G1 X40.963 Y130.612 E0.10248
G1 X51.434 Y141.083 E1.45491
G1 X51.434 Y140.040 E0.10248
G1 X42.007 Y130.612 E1.30997
G1 X43.050 Y130.612 E0.10248
G1 X51.434 Y138.997 E1.16504
G1 X51.434 Y137.954 E0.10248
G1 X44.093 Y130.612 E1.02010
G1 X45.136 Y130.612 E0.10248
G1 X51.434 Y136.910 E0.87517
G1 X51.434 Y135.867 E0.10248
G1 X46.179 Y130.612 E0.73023
G1 X47.222 Y130.612 E0.10248
G1 X51.434 Y134.824 E0.58530
G1 X51.434 Y133.781 E0.10248
G1 X48.265 Y130.612 E0.44036
G1 X49.308 Y130.612 E0.10248
G1 X51.434 Y132.738 E0.29543
G1 X51.434 Y131.695 E0.10248
G1 X50.351 Y130.612 E0.15049
G1 X51.394 Y130.612 E0.10248
G1 X51.434 Y130.652 E0.00556
G1 E-2.40000 F3600.00000
G1 X57.890 Y95.675 F15000.000
G1 E2.40000 F3600.00000
G1 X57.890 Y111.660 E1.53898 F1350.000
G1 X56.925 Y111.130 E0.10607
G1 X56.082 Y110.639 E0.09387
G1 X54.842 Y109.864 E0.14079
G1 X54.032 Y109.321 E0.09387
G1 X53.236 Y108.758 E0.09387
G1 X52.069 Y107.877 E0.14080
G1 X51.294 Y107.254 E0.09573
G1 X50.199 Y106.314 E0.13893
G1 X49.465 Y105.643 E0.09573
G1 X48.431 Y104.637 E0.13893
G1 X47.093 Y103.218 E0.18772
G1 X45.829 Y101.734 E0.18772
G1 X44.640 Y100.189 E0.18772
G1 X43.529 Y98.586 E0.18772
G1 X42.500 Y96.930 E0.18772
G1 X41.547 Y95.207 E0.18958
G1 X40.903 Y93.915 E0.13893
G1 X40.496 Y93.029 E0.09386
G1 X39.742 Y91.210 E0.18959
G1 X39.247 Y89.854 E0.13893
G1 X38.942 Y88.928 E0.09386
G1 X38.401 Y87.055 E0.18773
G1 X37.955 Y85.157 E0.18772
G1 X37.603 Y83.239 E0.18772
G1 X37.348 Y81.306 E0.18772
G1 X37.190 Y79.363 E0.18771
G1 X37.129 Y77.414 E0.18772
G1 X37.148 Y75.951 E0.14080
G1 X37.192 Y74.958 E0.09574
G1 X37.300 Y73.519 E0.13892
G1 X37.464 Y72.066 E0.14080
G1 X37.682 Y70.620 E0.14079
G1 X37.955 Y69.183 E0.14080
G1 X38.281 Y67.757 E0.14080
G1 X38.528 Y66.814 E0.09387
G1 X38.942 Y65.412 E0.14080
G1 X39.254 Y64.467 E0.09573
G1 X39.749 Y63.112 E0.13892
G1 X40.301 Y61.758 E0.14080
G1 X40.903 Y60.425 E0.14079
G1 X41.556 Y59.116 E0.14080
G1 X42.017 Y58.257 E0.09387
G1 X42.750 Y56.992 E0.14080
G1 X43.529 Y55.754 E0.14080
G1 X44.086 Y54.930 E0.09573
G1 X44.930 Y53.760 E0.13893
G1 X45.829 Y52.606 E0.14080
G1 X46.452 Y51.856 E0.09387
G1 X47.421 Y50.761 E0.14078
G1 X48.431 Y49.703 E0.14080
G1 X49.479 Y48.683 E0.14080
G1 X50.565 Y47.704 E0.14079
G1 X51.687 Y46.766 E0.14080
G1 X52.843 Y45.871 E0.14080
G1 X53.632 Y45.298 E0.09386
G1 X54.842 Y44.476 E0.14081
G1 X55.666 Y43.954 E0.09386
G1 X56.925 Y43.210 E0.14080
G1 X57.890 Y42.680 E0.10607
G1 X57.890 Y58.665 E1.53898
G1 X94.422 Y58.665 E3.51706
G1 X94.422 Y42.681 E1.53881
G1 X95.599 Y43.331 E0.12945
G1 X96.439 Y43.827 E0.09386
G1 X97.265 Y44.344 E0.09387
G1 X98.480 Y45.158 E0.14080
G1 X99.289 Y45.737 E0.09573
G1 X100.435 Y46.614 E0.13893
G1 X101.205 Y47.242 E0.09573
G1 X102.295 Y48.189 E0.13893
G1 X103.362 Y49.188 E0.14080
G1 X104.066 Y49.891 E0.09573
G1 X105.056 Y50.941 E0.13892
G1 X106.018 Y52.042 E0.14080
G1 X106.637 Y52.796 E0.09387
G1 X107.528 Y53.955 E0.14079
G1 X108.098 Y54.746 E0.09387
G1 X108.916 Y55.958 E0.14079
G1 X109.688 Y57.201 E0.14080
G1 X110.176 Y58.045 E0.09386
G1 X110.652 Y58.918 E0.09573
G1 X111.304 Y60.205 E0.13892
G1 X111.915 Y61.534 E0.14080
G1 X112.475 Y62.885 E0.14080
G1 X112.985 Y64.255 E0.14078
G1 X113.296 Y65.179 E0.09386
G1 X113.589 Y66.130 E0.09574
G1 X113.972 Y67.521 E0.13893
G1 X114.201 Y68.469 E0.09386
G1 X114.501 Y69.900 E0.14079
G1 X114.746 Y71.342 E0.14080
G1 X114.880 Y72.308 E0.09387
G1 X115.035 Y73.762 E0.14079
G1 X115.108 Y74.734 E0.09387
G1 X115.157 Y75.727 E0.09573
G1 X115.184 Y77.170 E0.13893
G1 X115.156 Y78.632 E0.14080
G1 X115.106 Y79.625 E0.09572
G1 X114.989 Y81.064 E0.13893
G1 X114.816 Y82.516 E0.14080
G1 X114.588 Y83.960 E0.14079
G1 X114.407 Y84.918 E0.09386
G1 X114.090 Y86.346 E0.14080
G1 X113.719 Y87.761 E0.14080
G1 X113.437 Y88.714 E0.09574
G1 X112.985 Y90.085 E0.13892
G1 X112.475 Y91.455 E0.14079
G1 X111.915 Y92.806 E0.14079
G1 X111.304 Y94.135 E0.14079
G1 X110.869 Y95.007 E0.09386
G1 X110.412 Y95.869 E0.09387
G1 X109.688 Y97.139 E0.14081
G1 X108.916 Y98.382 E0.14078
G1 X108.365 Y99.209 E0.09574
G1 X107.528 Y100.385 E0.13892
G1 X106.636 Y101.544 E0.14080
G1 X105.702 Y102.669 E0.14079
G1 X104.726 Y103.758 E0.14080
G1 X103.710 Y104.810 E0.14079
G1 X103.011 Y105.489 E0.09387
G1 X102.295 Y106.151 E0.09386
G1 X101.191 Y107.110 E0.14080
G1 X100.051 Y108.027 E0.14079
G1 X98.878 Y108.901 E0.14080
G1 X97.674 Y109.730 E0.14080
G1 X96.854 Y110.257 E0.09386
G1 X95.599 Y111.009 E0.14080
G1 X94.422 Y111.658 E0.12945
G1 X94.422 Y95.675 E1.53880
G1 X57.965 Y95.675 E3.50984
G1 X58.140 Y96.108 F15000.000
G1 X57.168 Y94.952 F15000.000
G1 X57.168 Y110.441 E1.49121 F1350.000
G1 X56.045 Y109.771 E0.12588
G1 X55.237 Y109.258 E0.09213
G1 X53.660 Y108.173 E0.18426
G1 X52.140 Y107.011 E0.18423
G1 X51.039 Y106.090 E0.13820
G1 X50.325 Y105.454 E0.09210
G1 X48.944 Y104.128 E0.18426
G1 X47.632 Y102.736 E0.18425
G1 X46.390 Y101.279 E0.18425
G1 X45.215 Y99.750 E0.18566
G1 X44.399 Y98.588 E0.13675
G1 X43.874 Y97.788 E0.09213
G1 X42.884 Y96.149 E0.18425
G1 X41.978 Y94.464 E0.18424
G1 X41.157 Y92.735 E0.18425
G1 X40.417 Y90.954 E0.18567
G1 X39.931 Y89.619 E0.13676
G1 X39.631 Y88.711 E0.09211
