; generated by Slic3r 1.2.4 on 2015-01-09 at 18:19:30

; external perimeters extrusion width = 0.50mm
; perimeters extrusion width = 0.85mm
; infill extrusion width = 0.87mm
; solid infill extrusion width = 0.85mm
; top infill extrusion width = 0.85mm

M107
M104 S185 ; set temperature
G28 Z0
M83
M109 S185 ; wait for temperature to be reached
G21 ; set units to millimeters
G90 ; use absolute coordinates
M83 ; use relative distances for extrusion
G1 E-2.40000 F3600.00000
G1 Z0.001 F15000.000
G1 Z0.360 F15000.000
G1 Z0.361 F15000.000
G1 X58.599 Y61.320 F15000.000
G1 Z0.360 F15000.000
G1 E2.40000 F3600.00000
G1 X60.100 Y59.870 E0.20089 F720.000
G1 X61.758 Y59.043 E0.17837
G1 X63.241 Y58.377 E0.15653
G1 X64.749 Y57.767 E0.15659
G1 X66.322 Y57.199 E0.16105
G1 X67.871 Y56.705 E0.15653
G1 X69.393 Y56.281 E0.15208
G1 X70.491 Y56.012 E0.10886
G1 X72.036 Y55.683 E0.15209
G1 X73.150 Y55.483 E0.10891
G1 X74.713 Y55.252 E0.15212
G1 X75.834 Y55.122 E0.10872
G1 X77.409 Y54.989 E0.15214
G1 X79.034 Y54.912 E0.15657
G1 X80.675 Y54.896 E0.15806
G1 X135.904 Y55.292 E5.31722
G1 X137.569 Y55.698 E0.16503
G1 X139.214 Y57.365 E0.22546
G1 X139.946 Y58.934 E0.16662
G1 X140.571 Y60.425 E0.15570
G1 X141.140 Y61.938 E0.15565
G1 X141.666 Y63.516 E0.16017
G1 X142.106 Y65.024 E0.15120
G1 X142.502 Y66.591 E0.15562
G1 X142.839 Y68.173 E0.15565
G1 X143.038 Y69.279 E0.10826
G1 X143.273 Y70.879 E0.15564
G1 X143.445 Y72.441 E0.15131
G1 X143.532 Y73.562 E0.10824
G1 X143.607 Y75.176 E0.15562
G1 X143.623 Y76.208 E0.09934
G1 X143.614 Y77.286 E0.10376
G1 X143.547 Y78.940 E0.15936
G1 X139.677 Y139.905 E5.88122
G1 X139.177 Y141.545 E0.16503
G1 X137.996 Y142.787 E0.16503
G1 X136.118 Y143.389 E0.18990
G1 X82.285 Y145.648 E5.18721
G1 X81.203 Y145.684 E0.10431
G1 X80.118 Y145.694 E0.10438
G1 X78.493 Y145.658 E0.15652
G1 X76.915 Y145.564 E0.15222
G1 X75.567 Y145.437 E0.13037
G1 X74.176 Y145.263 E0.13491
G1 X72.570 Y145.005 E0.15658
G1 X71.020 Y144.696 E0.15220
G1 X69.701 Y144.385 E0.13042
G1 X68.347 Y144.022 E0.13500
G1 X66.792 Y143.546 E0.15653
G1 X65.256 Y143.012 E0.15663
G1 X63.493 Y142.317 E0.18243
G1 X61.799 Y141.564 E0.17841
G1 X60.100 Y140.718 E0.18280
G1 X58.807 Y139.593 E0.16503
G1 X58.115 Y137.624 E0.20089
G1 X56.149 Y101.199 E3.51189
G1 X56.155 Y99.188 E0.19362
G1 X58.115 Y62.964 E3.49253
G1 X58.578 Y61.392 E0.15780
G1 E-2.40000 F3600.00000
G1 Z0.361 F15000.000
G1 X76.772 Y84.799 F15000.000
G1 Z0.360 F15000.000
G1 E2.40000 F3600.00000
G1 X62.232 Y84.799 E1.39981 F810.000
G1 X62.232 Y63.407 E2.05949
G1 X63.536 Y62.763 E0.13997
G1 X64.428 Y62.356 E0.09447
G1 X65.581 Y61.870 E0.12039
G1 X66.702 Y61.437 E0.11578
G1 X67.627 Y61.109 E0.09447
G1 X69.029 Y60.661 E0.14170
G1 X70.923 Y60.147 E0.18892
G1 X72.142 Y59.869 E0.12038
G1 X73.322 Y59.637 E0.11578
G1 X74.290 Y59.476 E0.09448
G1 X75.526 Y59.306 E0.12010
G1 X76.724 Y59.178 E0.11605
G1 X77.703 Y59.101 E0.09449
G1 X79.173 Y59.032 E0.14169
G1 X80.154 Y59.017 E0.09447
G1 X81.404 Y59.034 E0.12038
G1 X82.606 Y59.086 E0.11579
G1 X83.585 Y59.156 E0.09446
G1 X85.049 Y59.308 E0.14170
G1 X86.287 Y59.480 E0.12039
G1 X87.473 Y59.681 E0.11578
G1 X89.392 Y60.089 E0.18891
G1 X90.601 Y60.398 E0.12011
G1 X91.759 Y60.732 E0.11606
G1 X93.158 Y61.189 E0.14170
G1 X94.081 Y61.522 E0.09447
G1 X95.449 Y62.065 E0.14169
G1 X96.349 Y62.456 E0.09447
G1 X97.240 Y62.868 E0.09447
G1 X98.322 Y63.408 E0.11639
G1 X98.322 Y84.799 E2.05943
G1 X83.782 Y84.799 E1.39981
G1 X83.782 Y87.789 E0.28786
G1 X90.782 Y87.789 E0.67392
G1 X91.501 Y87.795 E0.06928
G1 X91.949 Y87.835 E0.04323
G1 X92.390 Y87.915 E0.04324
G1 X92.823 Y88.035 E0.04323
G1 X93.244 Y88.192 E0.04323
G1 X93.648 Y88.387 E0.04324
G1 X94.034 Y88.617 E0.04322
G1 X94.397 Y88.881 E0.04324
G1 X94.735 Y89.177 E0.04323
G1 X95.046 Y89.501 E0.04324
G1 X95.326 Y89.853 E0.04323
G1 X95.561 Y90.209 E0.04110
G1 X95.786 Y90.623 E0.04535
G1 X95.962 Y91.036 E0.04324
G1 X96.101 Y91.463 E0.04323
G1 X96.201 Y91.901 E0.04323
G1 X96.261 Y92.346 E0.04323
G1 X96.281 Y92.794 E0.04323
G1 X96.261 Y93.243 E0.04323
G1 X96.201 Y93.688 E0.04323
G1 X96.101 Y94.125 E0.04324
G1 X95.962 Y94.553 E0.04323
G1 X95.786 Y94.965 E0.04323
G1 X95.573 Y95.361 E0.04323
G1 X95.326 Y95.736 E0.04323
G1 X95.046 Y96.087 E0.04323
G1 X94.735 Y96.411 E0.04324
G1 X94.397 Y96.707 E0.04323
G1 X94.034 Y96.971 E0.04323
G1 X93.648 Y97.201 E0.04323
G1 X93.244 Y97.396 E0.04324
G1 X92.823 Y97.554 E0.04323
G1 X92.390 Y97.673 E0.04323
G1 X91.949 Y97.753 E0.04323
G1 X91.501 Y97.794 E0.04323
G1 X83.782 Y97.799 E0.74320
G1 X83.782 Y99.789 E0.19159
G1 X100.282 Y99.789 E1.58853
G1 X100.282 Y100.799 E0.09724
G1 X83.782 Y100.799 E1.58853
G1 X83.782 Y102.789 E0.19159
G1 X91.501 Y102.795 E0.74320
G1 X91.949 Y102.835 E0.04323
G1 X92.390 Y102.915 E0.04323
G1 X92.823 Y103.035 E0.04323
G1 X93.244 Y103.192 E0.04323
G1 X93.648 Y103.387 E0.04324
G1 X94.034 Y103.617 E0.04323
G1 X94.397 Y103.881 E0.04323
G1 X94.735 Y104.177 E0.04323
G1 X95.046 Y104.501 E0.04324
G1 X95.326 Y104.853 E0.04323
G1 X95.573 Y105.227 E0.04323
G1 X95.786 Y105.623 E0.04323
G1 X95.962 Y106.036 E0.04324
G1 X96.101 Y106.463 E0.04323
G1 X96.201 Y106.901 E0.04323
G1 X96.261 Y107.346 E0.04323
G1 X96.281 Y107.794 E0.04323
G1 X96.261 Y108.243 E0.04323
G1 X96.201 Y108.688 E0.04323
G1 X96.101 Y109.125 E0.04324
G1 X95.962 Y109.553 E0.04323
G1 X95.786 Y109.965 E0.04323
G1 X95.573 Y110.361 E0.04323
G1 X95.326 Y110.736 E0.04324
G1 X95.046 Y111.087 E0.04324
G1 X94.735 Y111.411 E0.04323
G1 X94.397 Y111.707 E0.04323
G1 X94.034 Y111.971 E0.04324
G1 X93.648 Y112.201 E0.04322
G1 X93.244 Y112.396 E0.04324
G1 X92.823 Y112.554 E0.04323
G1 X92.390 Y112.673 E0.04323
G1 X91.949 Y112.753 E0.04324
G1 X91.501 Y112.794 E0.04323
G1 X90.782 Y112.799 E0.06928
G1 X83.782 Y112.799 E0.67392
G1 X83.782 Y115.789 E0.28786
G1 X98.322 Y115.789 E1.39981
G1 X98.322 Y137.180 E2.05943
G1 X97.240 Y137.720 E0.11639
G1 X96.349 Y138.132 E0.09447
G1 X95.449 Y138.523 E0.09447
G1 X94.081 Y139.066 E0.14169
G1 X93.158 Y139.399 E0.09447
G1 X91.759 Y139.856 E0.14170
G1 X90.601 Y140.190 E0.11606
G1 X89.392 Y140.499 E0.12011
G1 X87.473 Y140.907 E0.18891
G1 X86.506 Y141.074 E0.09446
G1 X85.049 Y141.281 E0.14171
G1 X83.585 Y141.432 E0.14170
G1 X82.606 Y141.502 E0.09446
G1 X81.404 Y141.555 E0.11579
G1 X80.154 Y141.571 E0.12038
G1 X79.173 Y141.556 E0.09447
G1 X77.703 Y141.487 E0.14169
G1 X76.724 Y141.411 E0.09449
G1 X75.526 Y141.282 E0.11605
G1 X74.290 Y141.113 E0.12010
G1 X73.322 Y140.951 E0.09448
G1 X71.879 Y140.663 E0.14169
G1 X70.923 Y140.441 E0.09448
G1 X69.029 Y139.927 E0.18891
G1 X67.627 Y139.479 E0.14170
G1 X66.702 Y139.151 E0.09447
G1 X65.581 Y138.718 E0.11578
G1 X64.428 Y138.232 E0.12039
G1 X63.536 Y137.825 E0.09447
G1 X62.232 Y137.181 E0.13997
G1 X62.232 Y115.789 E2.05949
G1 X76.772 Y115.789 E1.39981
G1 X76.772 Y112.799 E0.28786
G1 X69.772 Y112.799 E0.67392
G1 X69.052 Y112.794 E0.06927
G1 X68.605 Y112.753 E0.04323
G1 X68.163 Y112.673 E0.04324
G1 X67.730 Y112.554 E0.04323
G1 X67.310 Y112.396 E0.04323
G1 X66.905 Y112.201 E0.04324
G1 X66.520 Y111.971 E0.04323
G1 X66.157 Y111.707 E0.04323
G1 X65.818 Y111.411 E0.04323
G1 X65.508 Y111.087 E0.04324
G1 X65.228 Y110.736 E0.04323
G1 X64.981 Y110.361 E0.04324
G1 X64.768 Y109.965 E0.04323
G1 X64.591 Y109.553 E0.04323
G1 X64.453 Y109.125 E0.04323
G1 X64.353 Y108.688 E0.04323
G1 X64.292 Y108.243 E0.04323
G1 X64.272 Y107.794 E0.04323
G1 X64.292 Y107.345 E0.04323
G1 X64.353 Y106.901 E0.04323
G1 X64.453 Y106.463 E0.04323
G1 X64.591 Y106.036 E0.04323
G1 X64.768 Y105.623 E0.04324
G1 X64.981 Y105.227 E0.04323
G1 X65.228 Y104.853 E0.04323
G1 X65.508 Y104.501 E0.04323
G1 X65.818 Y104.177 E0.04324
G1 X66.157 Y103.881 E0.04323
G1 X66.520 Y103.617 E0.04323
G1 X66.905 Y103.387 E0.04323
G1 X67.310 Y103.192 E0.04324
G1 X67.730 Y103.035 E0.04323
G1 X68.163 Y102.915 E0.04323
G1 X68.605 Y102.835 E0.04324
G1 X69.052 Y102.795 E0.04323
G1 X76.772 Y102.789 E0.74320
G1 X76.772 Y100.799 E0.19159
G1 X60.272 Y100.799 E1.58853
G1 X60.272 Y99.789 E0.09724
G1 X76.772 Y99.789 E1.58853
G1 X76.772 Y97.799 E0.19159
G1 X69.052 Y97.794 E0.74320
G1 X68.605 Y97.753 E0.04323
G1 X68.163 Y97.673 E0.04324
G1 X67.730 Y97.554 E0.04323
G1 X67.310 Y97.396 E0.04323
G1 X66.905 Y97.201 E0.04324
G1 X66.520 Y96.971 E0.04323
G1 X66.157 Y96.707 E0.04323
G1 X65.818 Y96.411 E0.04323
G1 X65.508 Y96.087 E0.04324
G1 X65.228 Y95.736 E0.04323
G1 X64.981 Y95.361 E0.04323
G1 X64.768 Y94.965 E0.04323
G1 X64.591 Y94.553 E0.04324
G1 X64.453 Y94.125 E0.04323
G1 X64.353 Y93.688 E0.04323
G1 X64.292 Y93.243 E0.04323
G1 X64.272 Y92.794 E0.04323
G1 X64.292 Y92.345 E0.04323
G1 X64.353 Y91.901 E0.04323
G1 X64.453 Y91.463 E0.04324
G1 X64.591 Y91.036 E0.04323
G1 X64.768 Y90.623 E0.04324
G1 X64.981 Y90.227 E0.04323
G1 X65.228 Y89.853 E0.04324
G1 X65.508 Y89.501 E0.04323
G1 X65.818 Y89.177 E0.04324
G1 X66.157 Y88.881 E0.04323
G1 X66.520 Y88.617 E0.04324
G1 X66.905 Y88.387 E0.04322
G1 X67.310 Y88.192 E0.04324
G1 X67.730 Y88.035 E0.04323
G1 X68.163 Y87.915 E0.04323
G1 X68.605 Y87.835 E0.04324
G1 X69.052 Y87.795 E0.04323
G1 X76.772 Y87.789 E0.74319
G1 X76.772 Y84.874 E0.28064
G1 X76.772 Y84.299 F15000.000
G1 X77.495 Y84.076 F15000.000
G1 X62.955 Y84.076 E1.39981 F810.000
G1 X62.955 Y63.849 E1.94733
G1 X64.720 Y63.017 E0.18787
G1 X65.851 Y62.540 E0.11822
G1 X66.952 Y62.115 E0.11361
G1 X67.860 Y61.793 E0.09273
G1 X69.236 Y61.354 E0.13909
G1 X71.095 Y60.849 E0.18543
G1 X72.292 Y60.576 E0.11821
G1 X73.450 Y60.349 E0.11360
G1 X74.400 Y60.190 E0.09275
G1 X75.614 Y60.023 E0.11791
G1 X76.790 Y59.897 E0.11387
G1 X77.750 Y59.822 E0.09278
G1 X79.193 Y59.755 E0.13907
G1 X80.156 Y59.740 E0.09272
G1 X81.384 Y59.756 E0.11821
G1 X82.563 Y59.807 E0.11363
G1 X83.524 Y59.876 E0.09272
G1 X84.961 Y60.025 E0.13909
G1 X86.177 Y60.194 E0.11822
G1 X87.340 Y60.392 E0.11361
G1 X89.224 Y60.792 E0.18542
G1 X90.159 Y61.027 E0.09276
G1 X91.294 Y61.348 E0.11360
G1 X92.465 Y61.717 E0.11819
G1 X93.375 Y62.032 E0.09272
G1 X94.277 Y62.371 E0.09275
G1 X95.613 Y62.921 E0.13910
G1 X96.492 Y63.315 E0.09271
G1 X97.599 Y63.851 E0.11840
G1 X97.599 Y84.076 E1.94723
G1 X83.059 Y84.076 E1.39981
G1 X83.059 Y88.076 E0.38510
G1 X77.495 Y88.076 E0.53572
G1 X77.495 Y84.151 E0.37788
G1 E-2.40000 F3600.00000
G1 Z0.361 F15000.000
G1 X77.495 Y97.512 F15000.000
G1 Z0.360 F15000.000
G1 E2.40000 F3600.00000
G1 X83.059 Y97.512 E0.53572 F576.000
G1 X83.059 Y103.076 E0.53572
G1 X77.495 Y103.076 E0.53572
G1 X77.495 Y97.587 E0.52850
G1 E-2.40000 F3600.00000
G1 Z0.361 F15000.000
G1 X77.495 Y116.512 F15000.000
G1 Z0.360 F15000.000
G1 E2.40000 F3600.00000
G1 X77.495 Y112.512 E0.38510 F810.000
G1 X83.059 Y112.512 E0.53572
G1 X83.059 Y116.512 E0.38510
G1 X97.599 Y116.512 E1.39981
G1 X97.599 Y136.738 E1.94723
G1 X96.492 Y137.273 E0.11840
G1 X95.613 Y137.667 E0.09271
G1 X94.277 Y138.217 E0.13910
G1 X93.375 Y138.556 E0.09275
G1 X92.465 Y138.872 E0.09272
G1 X91.294 Y139.240 E0.11820
G1 X90.159 Y139.561 E0.11360
G1 X89.224 Y139.796 E0.09276
G1 X87.340 Y140.196 E0.18542
G1 X86.392 Y140.361 E0.09272
G1 X84.961 Y140.563 E0.13910
G1 X83.524 Y140.712 E0.13909
G1 X82.563 Y140.781 E0.09272
G1 X81.384 Y140.832 E0.11363
G1 X80.156 Y140.849 E0.11821
G1 X79.193 Y140.834 E0.09272
G1 X77.750 Y140.766 E0.13908
G1 X76.790 Y140.691 E0.09277
G1 X75.614 Y140.565 E0.11387
G1 X74.400 Y140.398 E0.11791
G1 X73.450 Y140.240 E0.09275
G1 X72.033 Y139.957 E0.13907
G1 X71.095 Y139.739 E0.09275
G1 X69.236 Y139.234 E0.18543
G1 X67.860 Y138.795 E0.13910
G1 X66.952 Y138.473 E0.09273
G1 X65.851 Y138.048 E0.11361
G1 X64.720 Y137.571 E0.11822
G1 X62.955 Y136.739 E0.18787
G1 X62.955 Y116.512 E1.94733
G1 X77.420 Y116.512 E1.39259
G1 E-2.40000 F3600.00000
G1 Z0.361 F15000.000
G1 X87.864 Y131.367 F15000.000
G1 Z0.360 F15000.000
G1 E2.40000 F3600.00000
G1 X88.372 Y131.092 E0.05559 F576.000
G1 X88.918 Y130.904 E0.05559
G1 X89.488 Y130.809 E0.05561
G1 X90.066 Y130.809 E0.05560
G1 X90.635 Y130.904 E0.05561
G1 X91.181 Y131.092 E0.05560
G1 X91.575 Y131.305 E0.04306
G1 X91.689 Y131.367 E0.01253
G1 X92.145 Y131.721 E0.05560
G1 X92.536 Y132.146 E0.05561
G1 X92.852 Y132.630 E0.05559
G1 X93.084 Y133.159 E0.05560
G1 X93.226 Y133.719 E0.05560
G1 X93.274 Y134.294 E0.05560
G1 X93.226 Y134.870 E0.05560
G1 X93.084 Y135.429 E0.05560
G1 X92.852 Y135.958 E0.05560
G1 X92.536 Y136.442 E0.05560
G1 X92.145 Y136.867 E0.05561
G1 X92.042 Y136.947 E0.01254
G1 X91.689 Y137.221 E0.04306
G1 X91.181 Y137.496 E0.05559
G1 X90.635 Y137.684 E0.05560
G1 X90.066 Y137.779 E0.05561
G1 X89.488 Y137.779 E0.05560
G1 X88.918 Y137.684 E0.05561
G1 X88.795 Y137.642 E0.01254
G1 X88.372 Y137.496 E0.04306
G1 X87.864 Y137.221 E0.05559
G1 X87.409 Y136.867 E0.05560
G1 X87.017 Y136.442 E0.05561
G1 X86.702 Y135.958 E0.05560
G1 X86.470 Y135.429 E0.05560
G1 X86.328 Y134.870 E0.05560
G1 X86.280 Y134.294 E0.05560
G1 X86.328 Y133.719 E0.05560
G1 X86.470 Y133.159 E0.05560
G1 X86.702 Y132.630 E0.05560
G1 X87.017 Y132.146 E0.05559
G1 X87.409 Y131.721 E0.05561
G1 X87.805 Y131.413 E0.04838
G1 X87.851 Y130.867 F15000.000
G1 X87.318 Y130.876 F15000.000
G1 X87.468 Y130.760 E0.01830 F576.000
G1 X88.081 Y130.428 E0.06712
G1 X88.740 Y130.201 E0.06712
G1 X89.428 Y130.087 E0.06714
G1 X90.125 Y130.087 E0.06713
G1 X90.813 Y130.201 E0.06714
G1 X91.473 Y130.428 E0.06712
G1 X91.919 Y130.669 E0.04883
G1 X92.086 Y130.760 E0.01830
G1 X92.636 Y131.188 E0.06713
G1 X93.109 Y131.701 E0.06714
G1 X93.490 Y132.285 E0.06711
G1 X93.770 Y132.923 E0.06713
G1 X93.941 Y133.599 E0.06714
G1 X93.999 Y134.294 E0.06713
G1 X93.941 Y134.989 E0.06713
G1 X93.770 Y135.665 E0.06714
G1 X93.490 Y136.304 E0.06713
G1 X93.109 Y136.887 E0.06712
G1 X92.636 Y137.400 E0.06714
G1 X92.086 Y137.829 E0.06713
G1 X91.473 Y138.160 E0.06712
G1 X90.813 Y138.387 E0.06712
G1 X90.125 Y138.502 E0.06714
G1 X89.428 Y138.502 E0.06713
G1 X88.740 Y138.387 E0.06714
G1 X88.561 Y138.325 E0.01830
G1 X88.081 Y138.160 E0.04883
G1 X87.468 Y137.829 E0.06712
G1 X86.917 Y137.400 E0.06713
G1 X86.445 Y136.887 E0.06714
G1 X86.064 Y136.304 E0.06712
G1 X85.784 Y135.665 E0.06713
G1 X85.612 Y134.989 E0.06714
G1 X85.555 Y134.294 E0.06713
G1 X85.612 Y133.599 E0.06713
G1 X85.784 Y132.923 E0.06714
G1 X86.064 Y132.285 E0.06713
G1 X86.445 Y131.701 E0.06711
G1 X86.917 Y131.188 E0.06714
G1 X87.259 Y130.922 E0.04161
G1 E-2.40000 F3600.00000
G1 Z0.361 F15000.000
G1 X83.352 Y128.958 F15000.000
G1 Z0.360 F15000.000
G1 E2.40000 F3600.00000
G1 X83.036 Y129.442 E0.05559 F576.000
G1 X82.645 Y129.867 E0.05561
G1 X82.189 Y130.221 E0.05560
G1 X81.681 Y130.496 E0.05559
G1 X81.135 Y130.684 E0.05560
G1 X80.566 Y130.779 E0.05561
G1 X79.988 Y130.779 E0.05560
G1 X79.418 Y130.684 E0.05561
G1 X78.872 Y130.496 E0.05560
G1 X78.364 Y130.221 E0.05559
G1 X77.909 Y129.867 E0.05560
G1 X77.517 Y129.442 E0.05561
G1 X77.202 Y128.958 E0.05559
G1 X76.970 Y128.429 E0.05560
G1 X76.828 Y127.870 E0.05560
G1 X76.780 Y127.294 E0.05560
G1 X76.828 Y126.719 E0.05560
G1 X76.970 Y126.159 E0.05560
G1 X77.202 Y125.630 E0.05560
G1 X77.517 Y125.146 E0.05559
G1 X77.909 Y124.721 E0.05561
G1 X78.364 Y124.367 E0.05560
G1 X78.872 Y124.092 E0.05559
G1 X79.418 Y123.904 E0.05560
G1 X79.988 Y123.809 E0.05561
G1 X80.566 Y123.809 E0.05560
G1 X81.135 Y123.904 E0.05561
G1 X81.681 Y124.092 E0.05560
G1 X82.189 Y124.367 E0.05559
G1 X82.645 Y124.721 E0.05560
G1 X83.036 Y125.146 E0.05561
G1 X83.352 Y125.630 E0.05559
G1 X83.584 Y126.159 E0.05560
G1 X83.726 Y126.719 E0.05560
G1 X83.774 Y127.294 E0.05560
G1 X83.726 Y127.870 E0.05560
G1 X83.584 Y128.429 E0.05560
G1 X83.382 Y128.890 E0.04838
G1 X83.602 Y129.391 F15000.000
G1 X84.066 Y129.130 F15000.000
G1 X83.990 Y129.304 E0.01829 F576.000
G1 X83.609 Y129.887 E0.06712
G1 X83.136 Y130.400 E0.06714
G1 X82.586 Y130.829 E0.06713
G1 X81.973 Y131.160 E0.06712
G1 X81.313 Y131.387 E0.06712
G1 X80.625 Y131.502 E0.06714
G1 X79.928 Y131.502 E0.06713
G1 X79.240 Y131.387 E0.06714
G1 X78.581 Y131.160 E0.06713
G1 X77.968 Y130.829 E0.06712
G1 X77.417 Y130.400 E0.06713
G1 X76.945 Y129.887 E0.06714
G1 X76.564 Y129.304 E0.06712
G1 X76.284 Y128.665 E0.06713
G1 X76.112 Y127.989 E0.06714
G1 X76.055 Y127.294 E0.06713
G1 X76.112 Y126.599 E0.06713
G1 X76.284 Y125.923 E0.06714
G1 X76.564 Y125.285 E0.06713
G1 X76.945 Y124.701 E0.06712
G1 X77.417 Y124.188 E0.06714
