; generated by Slic3r 1.2.4 on 2015-01-09 at 12:18:27

; external perimeters extrusion width = 0.50mm
; perimeters extrusion width = 0.85mm
; infill extrusion width = 0.87mm
; solid infill extrusion width = 0.85mm
; top infill extrusion width = 0.85mm

M107
M104 S200 ; set temperature
G28 Z0
M83
M109 S200 ; wait for temperature to be reached
G21 ; set units to millimeters
G90 ; use absolute coordinates
M83 ; use relative distances for extrusion
G1 E-2.40000 F3600.00000
G1 Z0.360 F15000.000
G1 X78.497 Y60.853 F15000.000
G1 E2.40000 F3600.00000
G1 X79.990 Y59.418 E0.19945 F720.000
G1 X80.519 Y59.148 E0.05716
G1 X81.454 Y58.693 E0.10009
G1 X82.441 Y58.242 E0.10451
G1 X83.986 Y57.595 E0.16127
G1 X85.001 Y57.207 E0.10454
G1 X85.981 Y56.860 E0.10008
G1 X87.576 Y56.351 E0.16121
G1 X89.145 Y55.915 E0.15683
G1 X90.685 Y55.547 E0.15239
G1 X92.282 Y55.228 E0.15676
G1 X93.729 Y54.993 E0.14114
G1 X95.012 Y54.825 E0.12460
G1 X96.633 Y54.668 E0.15683
G1 X98.258 Y54.572 E0.15671
G1 X99.842 Y54.538 E0.15246
G1 X100.973 Y54.548 E0.10896
G1 X102.600 Y54.615 E0.15672
G1 X104.224 Y54.743 E0.15680
G1 X105.796 Y54.926 E0.15241
G1 X107.186 Y55.136 E0.13532
G1 X108.519 Y55.380 E0.13047
G1 X110.109 Y55.729 E0.15675
G1 X111.685 Y56.138 E0.15671
G1 X113.246 Y56.605 E0.15686
G1 X114.788 Y57.130 E0.15689
G1 X116.459 Y57.775 E0.17239
G1 X118.259 Y58.559 E0.18899
G1 X119.990 Y59.408 E0.18567
G1 X121.290 Y60.525 E0.16503
G1 X121.995 Y62.496 E0.20153
G1 X124.128 Y99.095 E3.52948
G1 X124.121 Y101.122 E0.19517
G1 X121.995 Y137.504 E3.50856
G1 X121.503 Y139.146 E0.16503
G1 X119.990 Y140.592 E0.20153
G1 X119.279 Y140.953 E0.07678
G1 X117.764 Y141.667 E0.16127
G1 X116.115 Y142.364 E0.17236
G1 X114.276 Y143.051 E0.18898
G1 X112.683 Y143.571 E0.16126
G1 X111.117 Y144.017 E0.15676
G1 X109.536 Y144.404 E0.15675
G1 X107.985 Y144.723 E0.15241
G1 X106.379 Y144.992 E0.15677
G1 X105.257 Y145.144 E0.10903
G1 X103.637 Y145.310 E0.15681
G1 X102.012 Y145.416 E0.15673
G1 X100.384 Y145.461 E0.15685
G1 X98.756 Y145.445 E0.15674
G1 X97.174 Y145.371 E0.15240
G1 X95.773 Y145.256 E0.13537
G1 X94.427 Y145.104 E0.13041
G1 X92.861 Y144.872 E0.15241
G1 X91.260 Y144.575 E0.15674
G1 X90.154 Y144.333 E0.10903
G1 X88.576 Y143.934 E0.15671
G1 X87.012 Y143.477 E0.15688
G1 X85.317 Y142.907 E0.17219
G1 X83.482 Y142.202 E0.18920
G1 X81.988 Y141.555 E0.15673
G1 X80.964 Y141.072 E0.10899
G1 X79.990 Y140.582 E0.10501
G1 X78.697 Y139.457 E0.16503
G1 X78.006 Y137.504 E0.19941
G1 X75.872 Y100.905 E3.52956
G1 X75.879 Y98.878 E0.19517
G1 X78.006 Y62.496 E3.50864
G1 X78.475 Y60.925 E0.15780
G1 E-2.40000 F3600.00000
G1 X96.495 Y84.505 F15000.000
G1 E2.40000 F3600.00000
G1 X82.122 Y84.505 E1.38376 F810.000
G1 X82.122 Y62.958 E2.07444
G1 X83.232 Y62.412 E0.11909
G1 X84.126 Y62.005 E0.09461
G1 X85.338 Y61.495 E0.12654
G1 X86.404 Y61.084 E0.11001
G1 X88.265 Y60.451 E0.18921
G1 X89.206 Y60.170 E0.09462
G1 X90.631 Y59.792 E0.14192
G1 X91.913 Y59.501 E0.12655
G1 X93.034 Y59.282 E0.11001
G1 X94.004 Y59.120 E0.09461
G1 X95.135 Y58.963 E0.11000
G1 X96.442 Y58.821 E0.12654
G1 X97.422 Y58.745 E0.09464
G1 X98.623 Y58.685 E0.11576
G1 X99.877 Y58.660 E0.12077
G1 X100.860 Y58.669 E0.09462
G1 X102.333 Y58.729 E0.14193
G1 X103.313 Y58.800 E0.09462
G1 X104.779 Y58.951 E0.14193
G1 X106.724 Y59.239 E0.18921
G1 X107.690 Y59.419 E0.09463
G1 X109.130 Y59.734 E0.14191
G1 X110.295 Y60.032 E0.11577
G1 X111.501 Y60.379 E0.12077
G1 X113.365 Y61.000 E0.18923
G1 X114.594 Y61.468 E0.12654
G1 X115.649 Y61.906 E0.10999
G1 X116.990 Y62.518 E0.14192
G1 X117.878 Y62.957 E0.09540
G1 X117.878 Y84.505 E2.07453
G1 X103.505 Y84.505 E1.38376
G1 X103.505 Y87.495 E0.28786
G1 X110.005 Y87.495 E0.62578
G1 X110.725 Y87.501 E0.06928
G1 X111.172 Y87.541 E0.04323
G1 X111.614 Y87.621 E0.04324
G1 X112.046 Y87.740 E0.04323
G1 X112.467 Y87.898 E0.04323
G1 X112.872 Y88.093 E0.04324
G1 X113.257 Y88.323 E0.04322
G1 X113.620 Y88.587 E0.04324
G1 X113.958 Y88.883 E0.04323
G1 X114.269 Y89.207 E0.04324
G1 X114.549 Y89.558 E0.04323
G1 X114.784 Y89.915 E0.04110
G1 X115.009 Y90.329 E0.04535
G1 X115.185 Y90.742 E0.04324
G1 X115.324 Y91.169 E0.04323
G1 X115.424 Y91.606 E0.04324
G1 X115.484 Y92.051 E0.04323
G1 X115.505 Y92.500 E0.04323
G1 X115.484 Y92.949 E0.04323
G1 X115.424 Y93.394 E0.04323
G1 X115.324 Y93.831 E0.04324
G1 X115.185 Y94.258 E0.04323
G1 X115.009 Y94.671 E0.04323
G1 X114.796 Y95.067 E0.04323
G1 X114.549 Y95.442 E0.04323
G1 X114.269 Y95.793 E0.04323
G1 X113.958 Y96.117 E0.04324
G1 X113.620 Y96.413 E0.04323
G1 X113.257 Y96.677 E0.04323
G1 X112.871 Y96.907 E0.04323
G1 X112.467 Y97.102 E0.04324
G1 X112.046 Y97.260 E0.04323
G1 X111.614 Y97.379 E0.04323
G1 X111.172 Y97.459 E0.04323
G1 X110.725 Y97.499 E0.04323
G1 X103.505 Y97.505 E0.69506
G1 X103.505 Y99.495 E0.19159
G1 X120.005 Y99.495 E1.58853
G1 X120.005 Y100.505 E0.09724
G1 X103.505 Y100.505 E1.58853
G1 X103.505 Y102.495 E0.19159
G1 X110.725 Y102.501 E0.69506
G1 X111.172 Y102.541 E0.04323
G1 X111.592 Y102.617 E0.04110
G1 X112.046 Y102.740 E0.04536
G1 X112.467 Y102.898 E0.04323
G1 X112.871 Y103.093 E0.04324
G1 X113.257 Y103.323 E0.04323
G1 X113.620 Y103.587 E0.04323
G1 X113.958 Y103.883 E0.04323
G1 X114.269 Y104.207 E0.04324
G1 X114.549 Y104.558 E0.04323
G1 X114.796 Y104.933 E0.04323
G1 X115.009 Y105.329 E0.04323
G1 X115.185 Y105.742 E0.04324
G1 X115.324 Y106.169 E0.04323
G1 X115.424 Y106.606 E0.04323
G1 X115.484 Y107.051 E0.04323
G1 X115.505 Y107.500 E0.04323
G1 X115.484 Y107.949 E0.04323
G1 X115.424 Y108.394 E0.04323
G1 X115.324 Y108.831 E0.04324
G1 X115.185 Y109.258 E0.04323
G1 X115.009 Y109.671 E0.04323
G1 X114.796 Y110.067 E0.04323
G1 X114.549 Y110.442 E0.04324
G1 X114.269 Y110.793 E0.04324
G1 X113.958 Y111.117 E0.04323
G1 X113.620 Y111.413 E0.04323
G1 X113.257 Y111.677 E0.04324
G1 X112.872 Y111.907 E0.04322
G1 X112.467 Y112.102 E0.04324
G1 X112.046 Y112.260 E0.04323
G1 X111.614 Y112.379 E0.04323
G1 X111.172 Y112.459 E0.04324
G1 X110.725 Y112.500 E0.04323
G1 X110.005 Y112.505 E0.06928
G1 X103.505 Y112.505 E0.62578
G1 X103.505 Y115.495 E0.28786
G1 X117.878 Y115.495 E1.38376
G1 X117.878 Y137.043 E2.07453
G1 X116.990 Y137.482 E0.09540
G1 X115.649 Y138.094 E0.14192
G1 X114.594 Y138.532 E0.10999
G1 X113.365 Y139.000 E0.12654
G1 X111.501 Y139.621 E0.18923
G1 X110.237 Y139.984 E0.12653
G1 X109.130 Y140.266 E0.11001
G1 X107.690 Y140.581 E0.14191
G1 X106.724 Y140.761 E0.09463
G1 X104.779 Y141.049 E0.18921
G1 X103.313 Y141.200 E0.14193
G1 X102.333 Y141.271 E0.09462
G1 X100.860 Y141.331 E0.14193
G1 X99.877 Y141.340 E0.09462
G1 X98.563 Y141.313 E0.12654
G1 X97.422 Y141.255 E0.10999
G1 X96.442 Y141.179 E0.09463
G1 X95.195 Y141.045 E0.12077
G1 X94.004 Y140.880 E0.11577
G1 X93.034 Y140.718 E0.09461
G1 X91.913 Y140.499 E0.11000
G1 X90.631 Y140.208 E0.12655
G1 X89.206 Y139.830 E0.14191
G1 X88.265 Y139.549 E0.09462
G1 X86.404 Y138.916 E0.18922
G1 X85.338 Y138.505 E0.11001
G1 X84.126 Y137.995 E0.12654
G1 X83.232 Y137.588 E0.09461
G1 X82.122 Y137.042 E0.11909
G1 X82.122 Y115.495 E2.07444
G1 X96.495 Y115.495 E1.38376
G1 X96.495 Y112.505 E0.28786
G1 X89.995 Y112.505 E0.62578
G1 X89.275 Y112.500 E0.06927
G1 X88.828 Y112.459 E0.04323
G1 X88.386 Y112.379 E0.04324
G1 X87.954 Y112.260 E0.04323
G1 X87.533 Y112.102 E0.04323
G1 X87.128 Y111.907 E0.04324
G1 X86.743 Y111.677 E0.04323
G1 X86.380 Y111.413 E0.04323
G1 X86.042 Y111.117 E0.04323
G1 X85.731 Y110.793 E0.04324
G1 X85.451 Y110.442 E0.04323
G1 X85.204 Y110.067 E0.04324
G1 X84.991 Y109.671 E0.04323
G1 X84.815 Y109.258 E0.04323
G1 X84.676 Y108.831 E0.04323
G1 X84.576 Y108.394 E0.04324
G1 X84.516 Y107.949 E0.04323
G1 X84.496 Y107.500 E0.04323
G1 X84.516 Y107.051 E0.04323
G1 X84.576 Y106.606 E0.04323
G1 X84.676 Y106.169 E0.04324
G1 X84.815 Y105.742 E0.04323
G1 X84.991 Y105.329 E0.04324
G1 X85.204 Y104.933 E0.04323
G1 X85.451 Y104.558 E0.04323
G1 X85.731 Y104.207 E0.04323
G1 X86.042 Y103.883 E0.04324
G1 X86.380 Y103.587 E0.04323
G1 X86.743 Y103.323 E0.04323
G1 X87.128 Y103.093 E0.04323
G1 X87.533 Y102.898 E0.04324
G1 X87.954 Y102.740 E0.04323
G1 X88.386 Y102.621 E0.04323
G1 X88.828 Y102.541 E0.04324
G1 X89.275 Y102.501 E0.04323
G1 X96.495 Y102.495 E0.69506
G1 X96.495 Y100.505 E0.19159
G1 X79.995 Y100.505 E1.58853
G1 X79.995 Y99.495 E0.09724
G1 X96.495 Y99.495 E1.58853
G1 X96.495 Y97.505 E0.19159
G1 X89.275 Y97.499 E0.69506
G1 X88.828 Y97.459 E0.04323
G1 X88.386 Y97.379 E0.04324
G1 X87.954 Y97.260 E0.04323
G1 X87.533 Y97.102 E0.04323
G1 X87.129 Y96.907 E0.04324
G1 X86.743 Y96.677 E0.04323
G1 X86.380 Y96.413 E0.04324
G1 X86.042 Y96.117 E0.04323
G1 X85.731 Y95.793 E0.04324
G1 X85.451 Y95.442 E0.04323
G1 X85.204 Y95.067 E0.04323
G1 X84.991 Y94.671 E0.04323
G1 X84.815 Y94.258 E0.04324
G1 X84.676 Y93.831 E0.04323
G1 X84.576 Y93.394 E0.04323
G1 X84.516 Y92.949 E0.04323
G1 X84.496 Y92.500 E0.04323
G1 X84.516 Y92.051 E0.04323
G1 X84.576 Y91.606 E0.04323
G1 X84.676 Y91.169 E0.04324
G1 X84.815 Y90.742 E0.04323
G1 X84.991 Y90.329 E0.04324
G1 X85.204 Y89.933 E0.04323
G1 X85.451 Y89.558 E0.04324
G1 X85.731 Y89.207 E0.04323
G1 X86.042 Y88.883 E0.04324
G1 X86.380 Y88.587 E0.04323
G1 X86.743 Y88.323 E0.04324
G1 X87.128 Y88.093 E0.04322
G1 X87.533 Y87.898 E0.04324
G1 X87.954 Y87.740 E0.04323
G1 X88.386 Y87.621 E0.04323
G1 X88.828 Y87.541 E0.04324
G1 X89.275 Y87.501 E0.04323
G1 X96.495 Y87.495 E0.69506
G1 X96.495 Y84.580 E0.28064
G1 X96.495 Y84.005 F15000.000
G1 X97.218 Y83.782 F15000.000
G1 X82.845 Y83.782 E1.38376 F810.000
G1 X82.845 Y63.403 E1.96197
G1 X83.978 Y62.863 E0.12084
G1 X84.861 Y62.474 E0.09290
G1 X86.202 Y61.932 E0.13930
G1 X87.107 Y61.599 E0.09286
G1 X88.480 Y61.141 E0.13934
G1 X89.405 Y60.865 E0.09288
G1 X91.272 Y60.382 E0.18574
G1 X92.215 Y60.176 E0.09289
G1 X93.374 Y59.956 E0.11358
G1 X94.591 Y59.764 E0.11860
G1 X95.548 Y59.640 E0.09291
G1 X96.507 Y59.541 E0.09286
G1 X97.624 Y59.457 E0.10784
G1 X98.915 Y59.398 E0.12435
G1 X99.879 Y59.383 E0.09289
G1 X100.844 Y59.392 E0.09288
G1 X102.290 Y59.451 E0.13932
G1 X103.252 Y59.520 E0.09288
G1 X104.692 Y59.669 E0.13934
G1 X106.600 Y59.951 E0.18571
G1 X107.549 Y60.128 E0.09291
G1 X108.962 Y60.437 E0.13929
G1 X110.105 Y60.729 E0.11360
G1 X111.289 Y61.070 E0.11860
G1 X113.120 Y61.680 E0.18576
G1 X114.327 Y62.139 E0.12435
G1 X115.361 Y62.569 E0.10782
G1 X116.241 Y62.964 E0.09290
G1 X117.155 Y63.402 E0.09757
G1 X117.155 Y83.782 E1.96208
G1 X102.782 Y83.782 E1.38376
G1 X102.782 Y87.782 E0.38510
G1 X97.218 Y87.782 E0.53572
G1 X97.218 Y83.857 E0.37788
G1 E-2.40000 F3600.00000
G1 X97.218 Y97.218 F15000.000
G1 E2.40000 F3600.00000
G1 X102.782 Y97.218 E0.53572 F576.000
G1 X102.782 Y102.782 E0.53572
G1 X97.218 Y102.782 E0.53572
G1 X97.218 Y97.293 E0.52850
G1 E-2.40000 F3600.00000
G1 X97.218 Y116.218 F15000.000
G1 E2.40000 F3600.00000
G1 X97.218 Y112.218 E0.38510 F810.000
G1 X102.782 Y112.218 E0.53572
G1 X102.782 Y116.218 E0.38510
G1 X117.155 Y116.218 E1.38376
G1 X117.155 Y136.598 E1.96208
G1 X116.241 Y137.036 E0.09757
G1 X115.361 Y137.431 E0.09290
G1 X114.327 Y137.861 E0.10782
G1 X113.120 Y138.320 E0.12436
G1 X111.289 Y138.930 E0.18575
G1 X109.910 Y139.324 E0.13809
G1 X108.962 Y139.563 E0.09411
G1 X107.549 Y139.872 E0.13929
G1 X106.600 Y140.049 E0.09291
G1 X104.692 Y140.331 E0.18571
G1 X103.252 Y140.480 E0.13933
G1 X102.290 Y140.549 E0.09289
G1 X100.844 Y140.608 E0.13931
G1 X99.879 Y140.617 E0.09288
G1 X98.915 Y140.602 E0.09288
G1 X97.684 Y140.547 E0.11858
G1 X96.507 Y140.459 E0.11361
G1 X95.548 Y140.360 E0.09286
G1 X94.591 Y140.236 E0.09290
G1 X93.315 Y140.034 E0.12434
G1 X92.215 Y139.824 E0.10784
G1 X91.272 Y139.618 E0.09289
G1 X89.405 Y139.135 E0.18574
G1 X88.480 Y138.859 E0.09288
G1 X87.107 Y138.401 E0.13934
G1 X86.202 Y138.068 E0.09286
G1 X84.861 Y137.526 E0.13930
G1 X83.978 Y137.137 E0.09290
G1 X82.845 Y136.597 E0.12084
G1 X82.845 Y116.218 E1.96197
G1 X97.143 Y116.218 E1.37654
G1 E-2.40000 F3600.00000
G1 X107.588 Y131.073 F15000.000
G1 E2.40000 F3600.00000
G1 X108.095 Y130.798 E0.05559 F576.000
G1 X108.642 Y130.610 E0.05559
G1 X109.211 Y130.515 E0.05561
G1 X109.789 Y130.515 E0.05560
G1 X110.358 Y130.610 E0.05561
G1 X110.905 Y130.798 E0.05560
G1 X111.298 Y131.011 E0.04306
G1 X111.412 Y131.073 E0.01253
G1 X111.868 Y131.427 E0.05560
G1 X112.259 Y131.852 E0.05561
G1 X112.575 Y132.336 E0.05559
G1 X112.807 Y132.865 E0.05560
G1 X112.949 Y133.424 E0.05560
G1 X112.997 Y134.000 E0.05560
G1 X112.949 Y134.576 E0.05560
G1 X112.807 Y135.135 E0.05560
G1 X112.575 Y135.664 E0.05560
G1 X112.259 Y136.148 E0.05560
G1 X111.868 Y136.573 E0.05561
G1 X111.765 Y136.653 E0.01254
G1 X111.412 Y136.927 E0.04306
G1 X110.905 Y137.202 E0.05559
G1 X110.358 Y137.390 E0.05560
G1 X109.789 Y137.485 E0.05561
G1 X109.211 Y137.485 E0.05560
G1 X108.642 Y137.390 E0.05561
G1 X108.518 Y137.347 E0.01254
G1 X108.095 Y137.202 E0.04306
G1 X107.588 Y136.927 E0.05559
G1 X107.132 Y136.573 E0.05560
G1 X106.741 Y136.148 E0.05561
G1 X106.425 Y135.664 E0.05560
G1 X106.193 Y135.135 E0.05560
G1 X106.051 Y134.576 E0.05560
G1 X106.003 Y134.000 E0.05560
G1 X106.051 Y133.424 E0.05560
G1 X106.193 Y132.865 E0.05560
G1 X106.425 Y132.336 E0.05560
G1 X106.741 Y131.852 E0.05559
G1 X107.132 Y131.427 E0.05561
G1 X107.528 Y131.119 E0.04838
G1 X107.574 Y130.573 F15000.000
G1 X107.041 Y130.582 F15000.000
G1 X107.191 Y130.466 E0.01830 F576.000
G1 X107.804 Y130.134 E0.06712
G1 X108.463 Y129.907 E0.06712
G1 X109.151 Y129.792 E0.06714
G1 X109.849 Y129.792 E0.06713
G1 X110.537 Y129.907 E0.06714
G1 X111.196 Y130.134 E0.06712
G1 X111.642 Y130.375 E0.04883
G1 X111.809 Y130.466 E0.01830
G1 X112.359 Y130.894 E0.06713
G1 X112.832 Y131.407 E0.06714
G1 X113.213 Y131.991 E0.06711
G1 X113.493 Y132.629 E0.06713
G1 X113.664 Y133.305 E0.06714
G1 X113.722 Y134.000 E0.06713
G1 X113.664 Y134.695 E0.06713
G1 X113.493 Y135.371 E0.06714
G1 X113.213 Y136.009 E0.06713
G1 X112.832 Y136.593 E0.06712
G1 X112.359 Y137.106 E0.06714
G1 X111.809 Y137.534 E0.06713
G1 X111.196 Y137.866 E0.06712
G1 X110.537 Y138.093 E0.06712
G1 X109.849 Y138.208 E0.06714
G1 X109.151 Y138.208 E0.06713
G1 X108.463 Y138.093 E0.06714
G1 X108.284 Y138.031 E0.01830
G1 X107.804 Y137.866 E0.04883
G1 X107.191 Y137.534 E0.06712
G1 X106.641 Y137.106 E0.06713
G1 X106.168 Y136.593 E0.06714
G1 X105.787 Y136.009 E0.06712
G1 X105.507 Y135.371 E0.06713
G1 X105.336 Y134.695 E0.06714
G1 X105.278 Y134.000 E0.06713
G1 X105.336 Y133.305 E0.06713
G1 X105.507 Y132.629 E0.06714
G1 X105.787 Y131.991 E0.06713
G1 X106.168 Y131.407 E0.06711
G1 X106.641 Y130.894 E0.06714
G1 X106.982 Y130.628 E0.04161
G1 E-2.40000 F3600.00000
G1 X103.075 Y128.664 F15000.000
G1 E2.40000 F3600.00000
G1 X102.759 Y129.148 E0.05559 F576.000
G1 X102.368 Y129.573 E0.05561
G1 X101.912 Y129.927 E0.05560
G1 X101.405 Y130.202 E0.05559
G1 X100.858 Y130.390 E0.05560
G1 X100.289 Y130.485 E0.05561
G1 X99.711 Y130.485 E0.05560
G1 X99.142 Y130.390 E0.05561
G1 X98.595 Y130.202 E0.05560
G1 X98.088 Y129.927 E0.05559
G1 X97.632 Y129.573 E0.05560
G1 X97.241 Y129.148 E0.05561
G1 X96.925 Y128.664 E0.05559
G1 X96.693 Y128.135 E0.05560
G1 X96.551 Y127.576 E0.05560
G1 X96.503 Y127.000 E0.05560
G1 X96.551 Y126.424 E0.05560
G1 X96.693 Y125.865 E0.05560
G1 X96.925 Y125.336 E0.05560
G1 X97.241 Y124.852 E0.05559
G1 X97.632 Y124.427 E0.05561
G1 X98.088 Y124.073 E0.05560
G1 X98.595 Y123.798 E0.05559
G1 X99.142 Y123.610 E0.05560
G1 X99.711 Y123.515 E0.05561
G1 X100.289 Y123.515 E0.05560
G1 X100.858 Y123.610 E0.05561
G1 X101.405 Y123.798 E0.05560
G1 X101.912 Y124.073 E0.05559
G1 X102.368 Y124.427 E0.05560
G1 X102.759 Y124.852 E0.05561
G1 X103.075 Y125.336 E0.05559
G1 X103.307 Y125.865 E0.05560
G1 X103.449 Y126.424 E0.05560
G1 X103.497 Y127.000 E0.05560
G1 X103.449 Y127.576 E0.05560
G1 X103.307 Y128.135 E0.05560
G1 X103.105 Y128.596 E0.04838
G1 X103.325 Y129.097 F15000.000
G1 X103.789 Y128.835 F15000.000
G1 X103.713 Y129.009 E0.01829 F576.000
G1 X103.332 Y129.593 E0.06712
G1 X102.859 Y130.106 E0.06714
G1 X102.309 Y130.534 E0.06713
G1 X101.696 Y130.866 E0.06712
G1 X101.037 Y131.093 E0.06712
G1 X100.349 Y131.208 E0.06714
G1 X99.651 Y131.208 E0.06713
G1 X98.963 Y131.093 E0.06714
G1 X98.304 Y130.866 E0.06713
G1 X97.691 Y130.534 E0.06712
G1 X97.141 Y130.106 E0.06713
G1 X96.668 Y129.593 E0.06714
G1 X96.287 Y129.009 E0.06712
