; generated by Slic3r 1.1.7 on 2014-12-12 at 16:09:46

; perimeters extrusion width = 0.50mm
; infill extrusion width = 0.87mm
; solid infill extrusion width = 0.85mm
; top infill extrusion width = 0.85mm

G21 ; set units to millimeters
M107
M104 S200 ; set temperature
G28 Z0
M83
M109 S200 ; wait for temperature to be reached
G90 ; use absolute coordinates
M83 ; use relative distances for extrusion
G1 F3600.000 E-2.00000
G1 Z0.361 F15000.000
G1 X65.291 Y79.514 F15000.000
G1 Z0.360 F15000.000
G1 E2.00000 F3600.000
G1 X67.732 Y77.656 E0.30064 F1200.000
G1 X68.364 Y77.244 E0.07391
G1 X69.351 Y76.657 E0.11252
G1 X72.105 Y75.273 E0.30205
G1 X72.882 Y74.953 E0.08232
G1 X73.870 Y74.594 E0.10297
G1 X76.730 Y73.765 E0.29178
G1 X77.750 Y73.551 E0.10217
G1 X78.690 Y73.397 E0.09328
G1 X81.666 Y73.108 E0.29301
G1 X81.949 Y73.096 E0.02774
G1 X82.795 Y73.085 E0.08296
G1 X83.647 Y73.107 E0.08350
G1 X86.639 Y73.372 E0.29435
G1 X87.710 Y73.549 E0.10640
G1 X88.361 Y73.681 E0.06507
G1 X91.405 Y74.522 E0.30946
G1 X136.199 Y88.870 E4.60897
G1 X139.991 Y90.802 E0.41702
G1 X140.527 Y91.251 E0.06855
G1 X141.125 Y91.823 E0.08112
G1 X141.666 Y92.509 E0.08558
G1 X143.805 Y96.164 E0.41499
G1 X144.003 Y96.789 E0.06421
G1 X144.182 Y97.503 E0.07213
G1 X144.299 Y98.527 E0.10104
G1 X144.127 Y102.737 E0.41288
G1 X143.970 Y103.325 E0.05958
G1 X143.739 Y104.023 E0.07210
G1 X143.260 Y105.012 E0.10760
G1 X140.860 Y108.441 E0.41018
G1 X140.159 Y109.064 E0.09190
G1 X139.542 Y109.536 E0.07611
G1 X138.880 Y109.906 E0.07431
G1 X135.402 Y111.390 E0.37056
G1 X91.603 Y125.406 E4.50620
G1 X88.743 Y126.235 E0.29177
G1 X87.722 Y126.449 E0.10222
G1 X86.783 Y126.603 E0.09324
G1 X83.807 Y126.892 E0.29300
G1 X82.678 Y126.915 E0.11071
G1 X81.826 Y126.893 E0.08349
G1 X78.834 Y126.628 E0.29434
G1 X77.762 Y126.451 E0.10641
G1 X77.176 Y126.332 E0.05867
G1 X73.995 Y125.454 E0.32335
G1 X72.775 Y125.004 E0.12735
G1 X72.173 Y124.747 E0.06416
G1 X69.454 Y123.407 E0.29703
G1 X68.987 Y123.138 E0.05283
G1 X68.266 Y122.694 E0.08302
G1 X67.807 Y122.385 E0.05424
G1 X65.368 Y120.559 E0.29849
G1 X64.801 Y120.067 E0.07354
G1 X63.948 Y119.261 E0.11508
G1 X61.879 Y117.009 E0.29962
G1 X61.433 Y116.450 E0.07003
G1 X60.729 Y115.482 E0.11732
G1 X59.103 Y112.879 E0.30070
G1 X58.728 Y112.167 E0.07892
G1 X58.258 Y111.174 E0.10765
G1 X57.169 Y108.408 E0.29134
G1 X56.874 Y107.453 E0.09793
G1 X56.620 Y106.485 E0.09805
G1 X56.058 Y103.553 E0.29245
G1 X55.935 Y102.475 E0.10638
G1 X55.874 Y101.575 E0.08839
G1 X55.861 Y98.577 E0.29375
G1 X55.946 Y97.409 E0.11479
G1 X56.043 Y96.613 E0.07859
G1 X56.583 Y93.650 E0.29508
G1 X56.906 Y92.434 E0.12325
G1 X57.120 Y91.766 E0.06880
G1 X58.201 Y88.940 E0.29649
G1 X58.652 Y87.990 E0.10303
G1 X59.070 Y87.199 E0.08760
G1 X60.659 Y84.609 E0.29777
G1 X61.505 Y83.458 E0.14003
G1 X61.824 Y83.069 E0.04931
G1 X63.857 Y80.819 E0.29713
G1 X64.354 Y80.340 E0.06765
G1 X65.233 Y79.562 E0.11500
G1 F3600.000 E-2.00000
G1 Z0.361 F15000.000
G1 X97.793 Y114.206 F15000.000
G1 Z0.360 F15000.000
G1 E2.00000 F3600.000
G1 X98.233 Y115.263 E0.11217 F1350.000
G1 X98.391 Y115.741 E0.04939
G1 X98.567 Y116.377 E0.06461
G1 X97.813 Y117.077 E0.10080
G1 X97.199 Y116.855 E0.06394
G1 X96.734 Y116.660 E0.04941
G1 X95.717 Y116.134 E0.11219
G1 X95.473 Y116.309 E0.02944
G1 X94.927 Y116.730 E0.06759
G1 X95.164 Y117.851 E0.11223
G1 X95.232 Y118.350 E0.04936
G1 X95.288 Y119.007 E0.06460
G1 X94.417 Y119.556 E0.10093
G1 X93.856 Y119.226 E0.06379
G1 X93.435 Y118.949 E0.04938
G1 X93.071 Y118.680 E0.04433
G1 X92.533 Y118.243 E0.06789
G1 X91.645 Y118.687 E0.09733
G1 X91.673 Y119.830 E0.11206
G1 X91.647 Y120.333 E0.04932
G1 X91.582 Y120.990 E0.06471
G1 X90.624 Y121.368 E0.10087
G1 X90.134 Y120.942 E0.06371
G1 X89.771 Y120.593 E0.04936
G1 X89.013 Y119.733 E0.11227
G1 X88.722 Y119.808 E0.02947
G1 X88.060 Y120.003 E0.06756
G1 X87.877 Y121.135 E0.11232
G1 X87.760 Y121.624 E0.04933
G1 X87.575 Y122.259 E0.06472
G1 X86.564 Y122.453 E0.10086
G1 X86.160 Y121.944 E0.06369
G1 X85.868 Y121.534 E0.04937
G1 X85.625 Y121.152 E0.04436
G1 X85.281 Y120.552 E0.06776
G1 X84.294 Y120.641 E0.09704
G1 X83.905 Y121.719 E0.11231
G1 X83.700 Y122.179 E0.04938
G1 X83.401 Y122.770 E0.06480
G1 X82.373 Y122.774 E0.10082
G1 X82.069 Y122.200 E0.06370
G1 X81.857 Y121.743 E0.04932
G1 X81.461 Y120.669 E0.11217
G1 X81.161 Y120.634 E0.02960
G1 X80.474 Y120.577 E0.06754
G1 X79.895 Y121.565 E0.11217
G1 X79.608 Y121.979 E0.04937
G1 X79.206 Y122.505 E0.06491
G1 X78.195 Y122.320 E0.10076
G1 X78.001 Y121.699 E0.06377
G1 X77.877 Y121.211 E0.04932
G1 X77.788 Y120.768 E0.04427
G1 X77.686 Y120.082 E0.06797
G1 X76.731 Y119.811 E0.09730
G1 X75.980 Y120.675 E0.11215
G1 X75.623 Y121.030 E0.04938
G1 X75.130 Y121.475 E0.06507
G1 X74.170 Y121.106 E0.10072
G1 X74.095 Y120.459 E0.06376
G1 X74.062 Y119.957 E0.04935
G1 X74.081 Y118.812 E0.11223
G1 X73.815 Y118.671 E0.02952
G1 X73.195 Y118.371 E0.06750
G1 X72.297 Y119.081 E0.11220
G1 X71.880 Y119.365 E0.04940
G1 X71.317 Y119.709 E0.06462
G1 X70.438 Y119.177 E0.10066
G1 X70.482 Y118.523 E0.06423
G1 X70.542 Y118.023 E0.04939
G1 X70.620 Y117.578 E0.04426
G1 X70.773 Y116.900 E0.06805
G1 X69.981 Y116.305 E0.09710
G1 X68.968 Y116.839 E0.11219
G1 X68.507 Y117.040 E0.04927
G1 X67.890 Y117.274 E0.06463
G1 X67.672 Y117.088 E0.02813
G1 X67.124 Y116.589 E0.07266
G1 X67.287 Y115.956 E0.06401
G1 X67.438 Y115.476 E0.04936
G1 X67.597 Y115.052 E0.04429
G1 X67.871 Y114.415 E0.06797
G1 X67.673 Y114.187 E0.02958
G1 X67.202 Y113.682 E0.06769
G1 X66.109 Y114.021 E0.11219
G1 X65.617 Y114.135 E0.04941
G1 X64.969 Y114.252 E0.06454
G1 X64.342 Y113.436 E0.10084
G1 X64.618 Y112.845 E0.06393
G1 X64.855 Y112.402 E0.04929
G1 X65.089 Y112.014 E0.04437
G1 X65.475 Y111.438 E0.06794
G1 X64.951 Y110.595 E0.09723
G1 X63.815 Y110.728 E0.11207
G1 X63.312 Y110.749 E0.04936
G1 X62.653 Y110.744 E0.06460
G1 X62.439 Y110.342 E0.04464
G1 X62.187 Y109.826 E0.05626
G1 X62.567 Y109.298 E0.06380
G1 X62.881 Y108.904 E0.04936
G1 X63.182 Y108.566 E0.04431
G1 X63.666 Y108.072 E0.06781
G1 X63.565 Y107.789 E0.02952
G1 X63.310 Y107.147 E0.06766
G1 X62.166 Y107.068 E0.11233
G1 X61.667 Y106.997 E0.04940
G1 X61.020 Y106.871 E0.06464
G1 X60.732 Y105.883 E0.10088
G1 X61.202 Y105.433 E0.06373
G1 X61.583 Y105.104 E0.04938
G1 X61.940 Y104.828 E0.04426
G1 X62.509 Y104.430 E0.06795
G1 X62.326 Y103.455 E0.09722
G1 X61.218 Y103.168 E0.11221
G1 X60.741 Y103.006 E0.04935
G1 X60.126 Y102.763 E0.06475
G1 X60.058 Y102.144 E0.06109
G1 X60.026 Y101.739 E0.03977
G1 X60.570 Y101.384 E0.06368
G1 X61.005 Y101.131 E0.04936
G1 X61.408 Y100.924 E0.04433
G1 X62.039 Y100.637 E0.06796
G1 X62.038 Y99.645 E0.09726
G1 X61.002 Y99.160 E0.11202
G1 X60.563 Y98.913 E0.04938
G1 X60.002 Y98.561 E0.06489
G1 X60.093 Y97.536 E0.10080
G1 X60.693 Y97.287 E0.06366
G1 X61.168 Y97.119 E0.04940
G1 X61.601 Y96.989 E0.04434
G1 X62.273 Y96.823 E0.06780
G1 X62.458 Y95.849 E0.09717
G1 X61.526 Y95.181 E0.11229
G1 X61.140 Y94.857 E0.04937
G1 X60.652 Y94.407 E0.06504
G1 X60.861 Y93.645 E0.07749
G1 X60.931 Y93.418 E0.02325
G1 X61.567 Y93.283 E0.06371
G1 X62.064 Y93.204 E0.04936
G1 X62.514 Y93.156 E0.04434
G1 X63.205 Y93.118 E0.06777
G1 X63.565 Y92.193 E0.09723
G1 X62.773 Y91.365 E0.11228
G1 X62.453 Y90.977 E0.04930
G1 X62.055 Y90.443 E0.06526
G1 X62.505 Y89.523 E0.10035
G1 X63.161 Y89.507 E0.06428
G1 X63.665 Y89.522 E0.04940
G1 X64.116 Y89.557 E0.04432
G1 X64.803 Y89.646 E0.06790
G1 X64.968 Y89.394 E0.02950
G1 X65.326 Y88.803 E0.06773
G1 X64.699 Y87.844 E0.11226
G1 X64.456 Y87.403 E0.04936
G1 X64.166 Y86.811 E0.06457
G1 X64.777 Y85.984 E0.10074
G1 X65.423 Y86.089 E0.06416
G1 X65.915 Y86.195 E0.04927
G1 X67.011 Y86.526 E0.11224
G1 X67.680 Y85.794 E0.09711
G1 X67.240 Y84.737 E0.11217
G1 X67.082 Y84.259 E0.04939
G1 X66.906 Y83.623 E0.06461
G1 X67.660 Y82.923 E0.10080
G1 X68.274 Y83.145 E0.06394
G1 X68.739 Y83.340 E0.04940
G1 X69.755 Y83.866 E0.11219
G1 X70.000 Y83.691 E0.02944
G1 X70.546 Y83.270 E0.06759
G1 X70.308 Y82.149 E0.11223
G1 X70.241 Y81.650 E0.04936
G1 X70.184 Y80.993 E0.06460
G1 X71.056 Y80.444 E0.10093
G1 X71.617 Y80.774 E0.06378
G1 X72.038 Y81.051 E0.04938
G1 X72.402 Y81.320 E0.04433
G1 X72.940 Y81.757 E0.06789
G1 X73.828 Y81.313 E0.09734
G1 X73.800 Y80.170 E0.11206
G1 X73.825 Y79.667 E0.04932
G1 X73.891 Y79.010 E0.06471
G1 X74.849 Y78.632 E0.10087
G1 X75.339 Y79.058 E0.06371
G1 X75.702 Y79.407 E0.04936
G1 X76.460 Y80.267 E0.11226
G1 X76.751 Y80.192 E0.02947
G1 X77.412 Y79.997 E0.06756
G1 X77.596 Y78.865 E0.11232
G1 X77.713 Y78.376 E0.04933
G1 X77.898 Y77.741 E0.06472
G1 X78.909 Y77.547 E0.10086
G1 X79.313 Y78.056 E0.06369
G1 X79.605 Y78.466 E0.04937
G1 X79.848 Y78.848 E0.04436
G1 X80.192 Y79.448 E0.06777
G1 X81.178 Y79.359 E0.09704
G1 X81.568 Y78.281 E0.11231
G1 X81.773 Y77.821 E0.04938
G1 X82.071 Y77.230 E0.06480
G1 X83.100 Y77.226 E0.10082
G1 X83.404 Y77.800 E0.06370
G1 X83.616 Y78.257 E0.04932
G1 X84.012 Y79.331 E0.11217
G1 X84.312 Y79.366 E0.02960
G1 X84.999 Y79.423 E0.06754
G1 X85.578 Y78.435 E0.11218
G1 X85.865 Y78.021 E0.04936
G1 X86.267 Y77.495 E0.06491
G1 X87.278 Y77.680 E0.10076
G1 X87.472 Y78.301 E0.06377
G1 X87.596 Y78.789 E0.04932
G1 X87.685 Y79.232 E0.04427
G1 X87.787 Y79.918 E0.06797
G1 X88.742 Y80.189 E0.09730
G1 X89.492 Y79.325 E0.11215
G1 X89.850 Y78.970 E0.04938
G1 X90.343 Y78.525 E0.06507
G1 X91.303 Y78.894 E0.10072
G1 X91.378 Y79.541 E0.06376
G1 X91.411 Y80.043 E0.04935
G1 X91.392 Y81.188 E0.11223
G1 X91.658 Y81.329 E0.02951
G1 X92.278 Y81.629 E0.06750
G1 X93.176 Y80.919 E0.11220
G1 X93.593 Y80.635 E0.04940
G1 X94.156 Y80.291 E0.06462
G1 X95.035 Y80.823 E0.10066
G1 X94.991 Y81.477 E0.06424
G1 X94.930 Y81.977 E0.04939
G1 X94.853 Y82.422 E0.04426
G1 X94.700 Y83.100 E0.06805
G1 X95.492 Y83.695 E0.09709
G1 X96.505 Y83.161 E0.11219
G1 X96.966 Y82.960 E0.04927
G1 X97.583 Y82.726 E0.06463
G1 X98.349 Y83.411 E0.10078
G1 X98.186 Y84.044 E0.06401
G1 X98.035 Y84.524 E0.04936
G1 X97.876 Y84.948 E0.04430
G1 X97.602 Y85.585 E0.06797
G1 X97.800 Y85.813 E0.02958
G1 X98.271 Y86.318 E0.06769
G1 X99.364 Y85.979 E0.11219
G1 X99.855 Y85.865 E0.04941
G1 X100.504 Y85.748 E0.06454
G1 X101.131 Y86.564 E0.10085
G1 X100.854 Y87.155 E0.06393
G1 X100.618 Y87.598 E0.04929
G1 X100.384 Y87.986 E0.04436
G1 X99.998 Y88.562 E0.06794
G1 X100.522 Y89.405 E0.09723
G1 X101.658 Y89.272 E0.11207
G1 X102.161 Y89.251 E0.04936
G1 X102.820 Y89.256 E0.06460
G1 X103.034 Y89.658 E0.04464
G1 X103.286 Y90.174 E0.05625
G1 X102.906 Y90.702 E0.06380
G1 X102.592 Y91.096 E0.04936
G1 X102.291 Y91.434 E0.04431
G1 X101.807 Y91.928 E0.06781
G1 X102.163 Y92.853 E0.09716
G1 X103.306 Y92.932 E0.11233
G1 X103.805 Y93.003 E0.04939
G1 X104.453 Y93.129 E0.06465
G1 X104.741 Y94.117 E0.10087
G1 X104.271 Y94.567 E0.06373
G1 X103.889 Y94.896 E0.04938
G1 X103.533 Y95.172 E0.04426
G1 X102.964 Y95.570 E0.06795
G1 X103.013 Y95.868 E0.02958
G1 X103.147 Y96.545 E0.06765
G1 X104.255 Y96.832 E0.11221
G1 X104.732 Y96.994 E0.04935
G1 X105.347 Y97.237 E0.06475
G1 X105.447 Y98.261 E0.10085
G1 X104.903 Y98.616 E0.06368
G1 X104.468 Y98.869 E0.04936
G1 X104.065 Y99.076 E0.04433
G1 X103.434 Y99.363 E0.06795
G1 X103.435 Y100.355 E0.09726
G1 X104.471 Y100.840 E0.11202
G1 X104.910 Y101.087 E0.04938
G1 X105.471 Y101.439 E0.06489
G1 X105.380 Y102.464 E0.10080
G1 X104.780 Y102.713 E0.06366
G1 X104.305 Y102.881 E0.04940
G1 X103.871 Y103.011 E0.04434
G1 X103.200 Y103.177 E0.06779
G1 X103.137 Y103.471 E0.02947
G1 X103.015 Y104.151 E0.06771
G1 X103.947 Y104.819 E0.11229
G1 X104.332 Y105.143 E0.04936
G1 X104.821 Y105.593 E0.06504
G1 X104.542 Y106.582 E0.10073
G1 X103.906 Y106.717 E0.06371
G1 X103.409 Y106.796 E0.04936
G1 X102.959 Y106.844 E0.04434
G1 X102.268 Y106.882 E0.06777
G1 X101.908 Y107.807 E0.09722
G1 X102.700 Y108.635 E0.11228
G1 X103.020 Y109.023 E0.04930
G1 X103.418 Y109.557 E0.06526
G1 X102.967 Y110.477 E0.10035
G1 X102.312 Y110.493 E0.06428
G1 X101.808 Y110.478 E0.04940
G1 X101.357 Y110.443 E0.04432
G1 X100.670 Y110.354 E0.06790
G1 X100.505 Y110.606 E0.02950
G1 X100.147 Y111.197 E0.06773
G1 X100.774 Y112.156 E0.11226
G1 X101.017 Y112.597 E0.04936
G1 X101.307 Y113.189 E0.06458
G1 X100.696 Y114.016 E0.10074
G1 X100.050 Y113.911 E0.06416
G1 X99.558 Y113.805 E0.04927
G1 X98.462 Y113.474 E0.11224
G1 X97.843 Y114.150 E0.08977
G1 X97.364 Y114.463 F15000.000
G1 X96.937 Y114.060 F15000.000
G1 X97.537 Y115.502 E0.15308 F1350.000
G1 X97.805 Y116.309 E0.08330
G1 X97.046 Y115.993 E0.08048
G1 X96.672 Y115.813 E0.04076
G1 X95.662 Y115.268 E0.11241
G1 X95.034 Y115.719 E0.07568
G1 X94.113 Y116.428 E0.11394
G1 X94.436 Y117.958 E0.15323
G1 X94.551 Y118.799 E0.08314
G1 X93.864 Y118.351 E0.08039
G1 X93.530 Y118.105 E0.04064
G1 X92.638 Y117.381 E0.11257
G1 X91.935 Y117.712 E0.07608
G1 X90.899 Y118.242 E0.11404
G1 X90.937 Y119.802 E0.15292
G1 X90.896 Y120.650 E0.08319
G1 X90.302 Y120.083 E0.08044
G1 X90.020 Y119.781 E0.04062
G1 X89.274 Y118.906 E0.11260
G1 X88.526 Y119.099 E0.07576
G1 X87.411 Y119.428 E0.11390
G1 X87.159 Y120.973 E0.15335
G1 X86.963 Y121.799 E0.08321
G1 X86.484 Y121.131 E0.08052
G1 X86.260 Y120.781 E0.04075
G1 X85.690 Y119.787 E0.11223
G1 X84.919 Y119.839 E0.07566
G1 X83.762 Y119.956 E0.11398
G1 X83.229 Y121.427 E0.15336
G1 X82.885 Y122.204 E0.08331
G1 X82.537 Y121.461 E0.08043
G1 X82.382 Y121.075 E0.04070
G1 X82.004 Y119.992 E0.11249
G1 X81.234 Y119.902 E0.07591
G1 X80.076 Y119.806 E0.11383
G1 X79.284 Y121.154 E0.15312
G1 X78.802 Y121.853 E0.08324
G1 X78.597 Y121.058 E0.08040
G1 X78.515 Y120.652 E0.04059
G1 X78.344 Y119.516 E0.11261
G1 X77.603 Y119.286 E0.07608
G1 X76.480 Y118.980 E0.11401
G1 X75.456 Y120.158 E0.15304
G1 X74.854 Y120.757 E0.08318
G1 X74.798 Y119.939 E0.08035
G1 X74.793 Y119.524 E0.04071
G1 X74.831 Y118.376 E0.11256
G1 X74.147 Y118.015 E0.07585
G1 X73.102 Y117.508 E0.11374
G1 X71.876 Y118.477 E0.15317
G1 X71.174 Y118.956 E0.08327
G1 X71.269 Y118.140 E0.08052
G1 X71.340 Y117.732 E0.04054
G1 X71.591 Y116.610 E0.11277
G1 X70.981 Y116.128 E0.07620
G1 X70.047 Y115.441 E0.11360
G1 X68.664 Y116.168 E0.15309
G1 X67.887 Y116.509 E0.08318
G1 X68.131 Y115.725 E0.08050
G1 X68.276 Y115.337 E0.04057
G1 X68.729 Y114.281 E0.11264
G1 X68.220 Y113.695 E0.07601
G1 X67.426 Y112.843 E0.11405
G1 X65.934 Y113.306 E0.15307
G1 X65.106 Y113.500 E0.08336
G1 X65.490 Y112.774 E0.08050
G1 X65.704 Y112.417 E0.04072
G1 X66.343 Y111.462 E0.11258
G1 X65.949 Y110.793 E0.07609
G1 X65.325 Y109.812 E0.11395
G1 X63.776 Y109.992 E0.15285
G1 X62.927 Y110.030 E0.08322
G1 X63.437 Y109.387 E0.08046
G1 X63.713 Y109.077 E0.04061
G1 X64.514 Y108.257 E0.11232
G1 X64.253 Y107.529 E0.07579
G1 X63.823 Y106.446 E0.11414
G1 X62.262 Y106.338 E0.15334
G1 X61.420 Y106.220 E0.08334
G1 X62.042 Y105.681 E0.08062
G1 X62.368 Y105.427 E0.04056
G1 X63.309 Y104.768 E0.11254
G1 X63.184 Y104.002 E0.07602
G1 X62.958 Y102.861 E0.11399
G1 X61.446 Y102.468 E0.15313
G1 X60.640 Y102.196 E0.08328
G1 X61.349 Y101.781 E0.08050
G1 X61.718 Y101.591 E0.04066
G1 X62.764 Y101.115 E0.11263
G1 X62.782 Y100.339 E0.07602
G1 X62.768 Y99.176 E0.11403
G1 X61.356 Y98.514 E0.15280
G1 X60.613 Y98.098 E0.08340
G1 X61.387 Y97.821 E0.08055
G1 X61.785 Y97.702 E0.04070
G1 X62.897 Y97.427 E0.11224
G1 X63.058 Y96.671 E0.07575
G1 X63.263 Y95.524 E0.11419
G1 X61.992 Y94.611 E0.15330
G1 X61.340 Y94.066 E0.08325
G1 X62.150 Y93.935 E0.08042
G1 X62.563 Y93.891 E0.04065
G1 X63.706 Y93.826 E0.11224
G1 X64.005 Y93.111 E0.07587
G1 X64.416 Y92.021 E0.11416
G1 X63.335 Y90.890 E0.15327
G1 X62.793 Y90.235 E0.08330
G1 X63.615 Y90.256 E0.08057
G1 X64.029 Y90.289 E0.04067
G1 X65.167 Y90.434 E0.11244
G1 X65.591 Y89.786 E0.07586
G1 X66.194 Y88.790 E0.11415
G1 X65.339 Y87.481 E0.15321
G1 X64.928 Y86.737 E0.08328
G1 X65.730 Y86.908 E0.08038
G1 X66.133 Y87.017 E0.04088
G1 X67.225 Y87.366 E0.11237
G1 X67.759 Y86.808 E0.07570
G1 X68.536 Y85.941 E0.11409
G1 X67.936 Y84.498 E0.15309
G1 X67.668 Y83.691 E0.08330
G1 X68.427 Y84.007 E0.08047
G1 X68.801 Y84.187 E0.04076
G1 X69.811 Y84.731 E0.11240
G1 X70.439 Y84.281 E0.07568
G1 X71.359 Y83.572 E0.11393
G1 X71.037 Y82.042 E0.15323
G1 X70.922 Y81.201 E0.08314
G1 X71.609 Y81.649 E0.08038
G1 X71.943 Y81.895 E0.04064
G1 X72.835 Y82.619 E0.11257
G1 X73.538 Y82.288 E0.07608
G1 X74.574 Y81.758 E0.11405
