; generated by Slic3r 1.2.5 on 2015-03-16 at 13:23:37

; external perimeters extrusion width = 0.50mm
; perimeters extrusion width = 0.85mm
; infill extrusion width = 0.87mm
; solid infill extrusion width = 0.85mm
; top infill extrusion width = 0.85mm

M107
M104 S200 ; set temperature
G28 Z0
M83
T1
M109 S200 ; wait for temperature to be reached
G21 ; set units to millimeters
G90 ; use absolute coordinates
M83 ; use relative distances for extrusion
G1 E-2.40000 F3600.00000
G1 Z0.360 F15000.000
G1 X61.375 Y59.969 F15000.000
G1 E2.40000 F3600.00000
G1 X63.043 Y58.424 E0.21891 F1200.000
G1 X64.663 Y57.039 E0.20515
G1 X66.221 Y55.803 E0.19144
G1 X67.938 Y54.542 E0.20516
G1 X69.703 Y53.347 E0.20518
G1 X71.512 Y52.221 E0.20516
G1 X73.488 Y51.097 E0.21889
G1 X75.253 Y50.181 E0.19144
G1 X77.180 Y49.269 E0.20516
G1 X79.140 Y48.432 E0.20518
G1 X81.130 Y47.671 E0.20515
G1 X83.284 Y46.944 E0.21890
G1 X85.191 Y46.380 E0.19145
G1 X87.256 Y45.852 E0.20516
G1 X89.339 Y45.404 E0.20518
G1 X91.579 Y45.014 E0.21889
G1 X93.868 Y44.715 E0.22223
G1 X95.813 Y44.531 E0.18809
G1 X97.798 Y44.417 E0.19144
G1 X100.071 Y44.373 E0.21889
G1 X102.059 Y44.411 E0.19144
G1 X104.187 Y44.531 E0.20515
G1 X106.309 Y44.732 E0.20517
G1 X108.562 Y45.036 E0.21890
G1 X110.521 Y45.377 E0.19144
G1 X112.605 Y45.820 E0.20515
G1 X114.671 Y46.343 E0.20518
G1 X116.852 Y46.987 E0.21889
G1 X118.870 Y47.671 E0.20518
G1 X120.728 Y48.379 E0.19144
G1 X122.690 Y49.211 E0.20515
G1 X124.619 Y50.117 E0.20518
G1 X126.637 Y51.165 E0.21887
G1 X128.488 Y52.221 E0.20518
G1 X130.177 Y53.270 E0.19144
G1 X131.945 Y54.460 E0.20517
G1 X133.666 Y55.717 E0.20517
G1 X135.447 Y57.130 E0.21888
G1 X137.063 Y58.519 E0.20517
G1 X138.625 Y59.969 E0.20517
G1 X140.031 Y61.375 E0.19143
G1 X141.481 Y62.937 E0.20517
G1 X142.961 Y64.663 E0.21889
G1 X144.197 Y66.221 E0.19144
G1 X145.353 Y67.795 E0.18807
G1 X146.653 Y69.703 E0.22226
G1 X147.852 Y71.635 E0.21889
G1 X148.835 Y73.363 E0.19145
G1 X149.738 Y75.096 E0.18807
G1 X150.731 Y77.180 E0.22223
G1 X151.621 Y79.272 E0.21889
G1 X152.377 Y81.264 E0.20518
G1 X153.013 Y83.148 E0.19144
G1 X153.620 Y85.191 E0.20517
G1 X154.148 Y87.256 E0.20516
G1 X154.623 Y89.479 E0.21889
G1 X154.986 Y91.579 E0.20518
G1 X155.252 Y93.550 E0.19144
G1 X155.458 Y95.671 E0.20517
G1 X155.583 Y97.798 E0.20517
G1 X155.627 Y100.071 E0.21890
G1 X155.583 Y102.202 E0.20515
G1 X155.469 Y104.187 E0.19144
G1 X155.252 Y106.450 E0.21889
G1 X154.964 Y108.562 E0.20518
G1 X154.596 Y110.661 E0.20515
G1 X154.180 Y112.605 E0.19144
G1 X153.657 Y114.671 E0.20518
G1 X153.013 Y116.852 E0.21888
G1 X152.329 Y118.870 E0.20518
G1 X151.621 Y120.728 E0.19145
G1 X150.789 Y122.690 E0.20515
G1 X149.883 Y124.619 E0.20517
G1 X148.835 Y126.637 E0.21888
G1 X147.779 Y128.488 E0.20518
G1 X146.730 Y130.177 E0.19143
G1 X145.540 Y131.945 E0.20517
G1 X144.283 Y133.666 E0.20517
G1 X142.870 Y135.447 E0.21888
G1 X141.481 Y137.063 E0.20517
G1 X140.130 Y138.522 E0.19145
G1 X138.625 Y140.031 E0.20516
G1 X137.063 Y141.481 E0.20517
G1 X135.337 Y142.961 E0.21889
G1 X133.779 Y144.197 E0.19144
G1 X132.062 Y145.458 E0.20516
G1 X130.297 Y146.653 E0.20518
G1 X128.365 Y147.852 E0.21890
G1 X126.637 Y148.835 E0.19144
G1 X124.747 Y149.819 E0.20516
G1 X122.820 Y150.731 E0.20516
G1 X120.728 Y151.621 E0.21889
G1 X118.736 Y152.377 E0.20518
G1 X116.852 Y153.013 E0.19144
G1 X114.809 Y153.620 E0.20516
G1 X112.744 Y154.148 E0.20516
G1 X110.521 Y154.623 E0.21889
G1 X108.421 Y154.986 E0.20518
G1 X106.450 Y155.252 E0.19144
G1 X104.329 Y155.458 E0.20516
G1 X102.202 Y155.583 E0.20517
G1 X99.929 Y155.627 E0.21890
G1 X97.798 Y155.583 E0.20515
G1 X95.813 Y155.469 E0.19144
G1 X93.550 Y155.252 E0.21890
G1 X91.438 Y154.964 E0.20518
G1 X89.479 Y154.623 E0.19144
G1 X87.395 Y154.180 E0.20515
G1 X85.329 Y153.657 E0.20518
G1 X83.148 Y153.013 E0.21889
G1 X81.130 Y152.329 E0.20518
G1 X79.272 Y151.621 E0.19144
G1 X77.310 Y150.789 E0.20515
G1 X75.381 Y149.883 E0.20517
G1 X73.363 Y148.835 E0.21888
G1 X71.512 Y147.779 E0.20518
G1 X69.703 Y146.653 E0.20516
G1 X68.055 Y145.540 E0.19145
G1 X66.334 Y144.283 E0.20517
G1 X64.553 Y142.870 E0.21888
G1 X62.937 Y141.481 E0.20517
G1 X61.478 Y140.130 E0.19145
G1 X59.969 Y138.625 E0.20516
G1 X58.519 Y137.063 E0.20517
G1 X57.039 Y135.337 E0.21889
G1 X55.803 Y133.779 E0.19144
G1 X54.542 Y132.062 E0.20516
G1 X53.347 Y130.297 E0.20517
G1 X52.148 Y128.365 E0.21890
G1 X51.165 Y126.637 E0.19145
G1 X50.181 Y124.747 E0.20515
G1 X49.269 Y122.820 E0.20516
G1 X48.379 Y120.728 E0.21889
G1 X47.623 Y118.736 E0.20518
G1 X46.987 Y116.852 E0.19144
G1 X46.380 Y114.809 E0.20517
G1 X45.852 Y112.744 E0.20516
G1 X45.377 Y110.521 E0.21889
G1 X45.014 Y108.421 E0.20518
G1 X44.748 Y106.450 E0.19144
G1 X44.542 Y104.329 E0.20516
G1 X44.417 Y102.202 E0.20517
G1 X44.373 Y99.929 E0.21889
G1 X44.411 Y97.940 E0.19144
G1 X44.531 Y95.813 E0.20515
G1 X44.732 Y93.691 E0.20517
G1 X45.014 Y91.579 E0.20516
G1 X45.404 Y89.339 E0.21889
G1 X45.852 Y87.256 E0.20518
G1 X46.380 Y85.191 E0.20516
G1 X46.944 Y83.284 E0.19145
G1 X47.623 Y81.264 E0.20516
G1 X48.432 Y79.140 E0.21889
G1 X49.269 Y77.180 E0.20518
G1 X50.117 Y75.381 E0.19143
G1 X51.097 Y73.488 E0.20517
G1 X52.148 Y71.635 E0.20515
G1 X53.347 Y69.703 E0.21890
G1 X54.542 Y67.938 E0.20518
G1 X55.717 Y66.334 E0.19143
G1 X57.039 Y64.663 E0.20516
G1 X58.519 Y62.937 E0.21889
G1 X59.870 Y61.478 E0.19145
G1 X61.322 Y60.022 E0.19794
G1 E-2.40000 F3600.00000
G1 X64.285 Y62.890 F15000.000
G1 E2.40000 F3600.00000
G1 X65.733 Y61.549 E0.18999 F1350.000
G1 X67.363 Y60.159 E0.20627
G1 X68.776 Y59.039 E0.17362
G1 X70.368 Y57.873 E0.18996
G1 X72.004 Y56.769 E0.18997
G1 X73.680 Y55.728 E0.18996
G1 X75.395 Y54.752 E0.18997
G1 X77.146 Y53.843 E0.18997
G1 X78.931 Y53.002 E0.18996
G1 X80.747 Y52.229 E0.18996
G1 X82.590 Y51.527 E0.18996
G1 X84.460 Y50.895 E0.18996
G1 X86.352 Y50.336 E0.18997
G1 X88.264 Y49.850 E0.18996
G1 X90.194 Y49.437 E0.18996
G1 X92.138 Y49.099 E0.18996
G1 X94.093 Y48.835 E0.18996
G1 X96.057 Y48.646 E0.18996
G1 X98.027 Y48.533 E0.18996
G1 X100.000 Y48.495 E0.18996
G1 X101.973 Y48.533 E0.18996
G1 X103.943 Y48.646 E0.18996
G1 X105.907 Y48.835 E0.18996
G1 X107.862 Y49.099 E0.18996
G1 X109.806 Y49.437 E0.18996
G1 X111.736 Y49.850 E0.18996
G1 X113.811 Y50.384 E0.20629
G1 X115.540 Y50.895 E0.17362
G1 X117.410 Y51.527 E0.18996
G1 X119.253 Y52.229 E0.18996
G1 X121.069 Y53.002 E0.18996
G1 X122.854 Y53.843 E0.18996
G1 X124.605 Y54.752 E0.18997
G1 X126.320 Y55.728 E0.18997
G1 X127.996 Y56.769 E0.18996
G1 X129.632 Y57.873 E0.18997
G1 X131.224 Y59.039 E0.18996
G1 X132.770 Y60.265 E0.18997
G1 X134.268 Y61.549 E0.18996
G1 X135.715 Y62.890 E0.18997
G1 X137.110 Y64.285 E0.18996
G1 X138.451 Y65.732 E0.18997
G1 X139.735 Y67.230 E0.18996
G1 X140.961 Y68.776 E0.18996
G1 X142.027 Y70.231 E0.17361
G1 X143.231 Y72.004 E0.20630
G1 X144.272 Y73.680 E0.18996
G1 X145.248 Y75.395 E0.18997
G1 X146.079 Y76.996 E0.17362
G1 X146.998 Y78.931 E0.20629
G1 X147.771 Y80.747 E0.18996
G1 X148.473 Y82.590 E0.18996
G1 X149.105 Y84.460 E0.18996
G1 X149.664 Y86.352 E0.18997
G1 X150.150 Y88.264 E0.18996
G1 X150.563 Y90.194 E0.18996
G1 X150.916 Y92.225 E0.19844
G1 X151.165 Y94.093 E0.18149
G1 X151.354 Y96.057 E0.18996
G1 X151.467 Y98.027 E0.18996
G1 X151.505 Y100.000 E0.18996
G1 X151.467 Y101.973 E0.18996
G1 X151.354 Y103.943 E0.18996
G1 X151.165 Y105.907 E0.18996
G1 X150.901 Y107.862 E0.18996
G1 X150.563 Y109.806 E0.18996
G1 X150.150 Y111.736 E0.18996
G1 X149.664 Y113.648 E0.18996
G1 X149.105 Y115.540 E0.18997
G1 X148.528 Y117.249 E0.17361
G1 X147.771 Y119.253 E0.20630
G1 X146.998 Y121.069 E0.18996
G1 X146.157 Y122.854 E0.18996
G1 X145.248 Y124.605 E0.18997
G1 X144.272 Y126.320 E0.18997
G1 X143.231 Y127.996 E0.18996
G1 X142.127 Y129.632 E0.18997
G1 X140.961 Y131.224 E0.18996
G1 X139.735 Y132.770 E0.18996
G1 X138.451 Y134.268 E0.18996
G1 X137.110 Y135.715 E0.18997
G1 X135.715 Y137.110 E0.18996
G1 X134.268 Y138.451 E0.18997
G1 X132.770 Y139.735 E0.18996
G1 X131.224 Y140.961 E0.18996
G1 X129.632 Y142.127 E0.18996
G1 X127.996 Y143.231 E0.18997
G1 X126.320 Y144.272 E0.18996
G1 X124.605 Y145.248 E0.18997
G1 X122.854 Y146.157 E0.18997
G1 X121.069 Y146.998 E0.18996
G1 X119.253 Y147.771 E0.18996
G1 X117.410 Y148.473 E0.18996
G1 X115.540 Y149.105 E0.18996
G1 X113.648 Y149.664 E0.18997
G1 X111.736 Y150.150 E0.18996
G1 X109.806 Y150.563 E0.18996
G1 X107.862 Y150.901 E0.18996
G1 X105.907 Y151.165 E0.18996
G1 X103.943 Y151.354 E0.18996
G1 X101.973 Y151.467 E0.18996
G1 X100.000 Y151.505 E0.18996
G1 X98.027 Y151.467 E0.18996
G1 X96.057 Y151.354 E0.18996
G1 X94.093 Y151.165 E0.18996
G1 X92.225 Y150.916 E0.18149
G1 X90.194 Y150.563 E0.19844
G1 X88.264 Y150.150 E0.18996
G1 X86.352 Y149.664 E0.18996
G1 X84.460 Y149.105 E0.18997
G1 X82.590 Y148.473 E0.18996
G1 X80.747 Y147.771 E0.18996
G1 X78.931 Y146.998 E0.18996
G1 X76.996 Y146.079 E0.20629
G1 X75.395 Y145.248 E0.17362
G1 X73.680 Y144.272 E0.18997
G1 X72.004 Y143.231 E0.18996
G1 X70.368 Y142.127 E0.18997
G1 X68.643 Y140.856 E0.20630
G1 X67.230 Y139.735 E0.17362
G1 X65.732 Y138.451 E0.18996
G1 X64.285 Y137.110 E0.18997
G1 X62.890 Y135.715 E0.18996
G1 X61.549 Y134.268 E0.18997
G1 X60.265 Y132.770 E0.18996
G1 X59.039 Y131.224 E0.18997
G1 X57.873 Y129.632 E0.18996
G1 X56.769 Y127.996 E0.18997
G1 X55.728 Y126.320 E0.18996
G1 X54.752 Y124.605 E0.18997
G1 X53.843 Y122.854 E0.18997
G1 X53.002 Y121.069 E0.18996
G1 X52.229 Y119.253 E0.18996
G1 X51.527 Y117.410 E0.18996
G1 X50.895 Y115.540 E0.18996
G1 X50.384 Y113.811 E0.17362
G1 X49.850 Y111.736 E0.20629
G1 X49.437 Y109.806 E0.18996
G1 X49.099 Y107.862 E0.18996
G1 X48.835 Y105.907 E0.18996
G1 X48.646 Y103.943 E0.18996
G1 X48.533 Y101.973 E0.18996
G1 X48.495 Y100.000 E0.18996
G1 X48.533 Y98.027 E0.18996
G1 X48.646 Y96.057 E0.18996
G1 X48.819 Y94.262 E0.17361
G1 X49.099 Y92.138 E0.20630
G1 X49.437 Y90.194 E0.18996
G1 X49.850 Y88.264 E0.18996
G1 X50.336 Y86.352 E0.18996
G1 X50.895 Y84.460 E0.18997
G1 X51.527 Y82.590 E0.18996
G1 X52.229 Y80.747 E0.18996
G1 X53.002 Y78.931 E0.18996
G1 X53.843 Y77.146 E0.18996
G1 X54.752 Y75.395 E0.18997
G1 X55.728 Y73.680 E0.18997
G1 X56.769 Y72.004 E0.18996
G1 X57.873 Y70.368 E0.18997
G1 X59.039 Y68.776 E0.18996
G1 X60.265 Y67.230 E0.18996
G1 X61.549 Y65.733 E0.18994
G1 X62.890 Y64.285 E0.18999
G1 X64.232 Y62.943 E0.18274
G1 X64.764 Y63.031 F15000.000
G1 X64.786 Y63.410 F15000.000
G1 X66.214 Y62.088 E0.18732 F1350.000
G1 X67.690 Y60.822 E0.18727
G1 X69.215 Y59.613 E0.18730
G1 X70.784 Y58.464 E0.18729
G1 X72.397 Y57.375 E0.18730
G1 X74.049 Y56.349 E0.18729
G1 X75.740 Y55.387 E0.18730
G1 X77.467 Y54.491 E0.18730
G1 X79.227 Y53.661 E0.18729
G1 X81.017 Y52.900 E0.18730
G1 X82.835 Y52.207 E0.18730
G1 X84.678 Y51.585 E0.18729
G1 X86.544 Y51.033 E0.18731
G1 X88.429 Y50.554 E0.18729
G1 X90.332 Y50.147 E0.18730
G1 X92.248 Y49.813 E0.18730
G1 X94.331 Y49.538 E0.20230
G1 X96.113 Y49.367 E0.17228
G1 X98.055 Y49.255 E0.18730
G1 X100.000 Y49.218 E0.18730
G1 X101.945 Y49.255 E0.18730
G1 X103.887 Y49.367 E0.18730
G1 X105.824 Y49.553 E0.18730
G1 X107.752 Y49.813 E0.18729
G1 X109.668 Y50.147 E0.18730
G1 X111.571 Y50.554 E0.18730
G1 X113.456 Y51.033 E0.18730
G1 X115.322 Y51.585 E0.18729
G1 X117.017 Y52.150 E0.17203
G1 X118.983 Y52.900 E0.20257
G1 X120.773 Y53.661 E0.18730
G1 X122.533 Y54.491 E0.18729
G1 X124.260 Y55.387 E0.18730
G1 X125.951 Y56.349 E0.18730
G1 X127.603 Y57.375 E0.18729
G1 X129.216 Y58.464 E0.18730
G1 X130.785 Y59.613 E0.18729
G1 X132.310 Y60.822 E0.18730
G1 X133.787 Y62.088 E0.18729
G1 X135.214 Y63.410 E0.18730
G1 X136.590 Y64.786 E0.18729
G1 X137.912 Y66.213 E0.18730
G1 X139.178 Y67.690 E0.18729
G1 X140.387 Y69.215 E0.18730
G1 X141.444 Y70.658 E0.17228
G1 X142.625 Y72.397 E0.20230
G1 X143.651 Y74.049 E0.18729
G1 X144.613 Y75.740 E0.18730
G1 X145.437 Y77.329 E0.17228
G1 X146.339 Y79.227 E0.20230
G1 X147.100 Y81.017 E0.18730
G1 X147.793 Y82.835 E0.18730
G1 X148.415 Y84.678 E0.18729
G1 X148.967 Y86.544 E0.18731
G1 X149.446 Y88.429 E0.18729
G1 X149.853 Y90.332 E0.18730
G1 X150.187 Y92.248 E0.18730
G1 X150.447 Y94.176 E0.18729
G1 X150.633 Y96.113 E0.18730
G1 X150.745 Y98.055 E0.18730
G1 X150.782 Y100.000 E0.18730
G1 X150.745 Y101.945 E0.18730
G1 X150.633 Y103.887 E0.18730
G1 X150.447 Y105.824 E0.18730
G1 X150.187 Y107.752 E0.18729
G1 X149.853 Y109.668 E0.18730
G1 X149.446 Y111.571 E0.18730
G1 X148.967 Y113.456 E0.18729
G1 X148.415 Y115.322 E0.18731
G1 X147.843 Y117.017 E0.17228
G1 X147.100 Y118.983 E0.20230
G1 X146.339 Y120.773 E0.18730
G1 X145.509 Y122.533 E0.18729
G1 X144.613 Y124.260 E0.18730
G1 X143.651 Y125.951 E0.18730
G1 X142.625 Y127.603 E0.18729
G1 X141.536 Y129.216 E0.18730
G1 X140.387 Y130.785 E0.18729
G1 X139.178 Y132.310 E0.18730
G1 X137.912 Y133.787 E0.18729
G1 X136.590 Y135.214 E0.18730
G1 X135.214 Y136.590 E0.18729
G1 X133.787 Y137.912 E0.18730
G1 X132.310 Y139.178 E0.18729
G1 X130.785 Y140.387 E0.18730
G1 X129.216 Y141.536 E0.18729
G1 X127.603 Y142.625 E0.18730
G1 X125.951 Y143.651 E0.18729
G1 X124.260 Y144.613 E0.18730
G1 X122.533 Y145.509 E0.18730
G1 X120.773 Y146.339 E0.18729
G1 X118.983 Y147.100 E0.18730
G1 X117.165 Y147.793 E0.18730
G1 X115.322 Y148.415 E0.18729
G1 X113.456 Y148.967 E0.18731
G1 X111.571 Y149.446 E0.18729
G1 X109.668 Y149.853 E0.18730
G1 X107.752 Y150.187 E0.18730
G1 X105.824 Y150.447 E0.18730
G1 X103.887 Y150.633 E0.18730
G1 X101.945 Y150.745 E0.18730
G1 X100.000 Y150.782 E0.18730
G1 X98.055 Y150.745 E0.18730
G1 X96.113 Y150.633 E0.18730
G1 X94.176 Y150.447 E0.18730
G1 X92.248 Y150.187 E0.18729
G1 X90.332 Y149.853 E0.18730
G1 X88.429 Y149.446 E0.18730
G1 X86.544 Y148.967 E0.18729
G1 X84.678 Y148.415 E0.18731
G1 X82.835 Y147.793 E0.18729
G1 X81.017 Y147.100 E0.18730
G1 X79.227 Y146.339 E0.18730
G1 X77.329 Y145.437 E0.20230
G1 X75.740 Y144.613 E0.17228
G1 X74.049 Y143.651 E0.18730
G1 X72.397 Y142.625 E0.18729
G1 X70.784 Y141.536 E0.18730
G1 X69.092 Y140.290 E0.20230
G1 X67.690 Y139.178 E0.17228
G1 X66.213 Y137.912 E0.18729
G1 X64.786 Y136.590 E0.18730
G1 X63.410 Y135.214 E0.18729
G1 X62.088 Y133.787 E0.18730
G1 X60.822 Y132.310 E0.18729
G1 X59.613 Y130.785 E0.18730
G1 X58.556 Y129.342 E0.17228
G1 X57.375 Y127.603 E0.20230
G1 X56.349 Y125.951 E0.18729
G1 X55.387 Y124.260 E0.18730
G1 X54.491 Y122.533 E0.18730
G1 X53.661 Y120.773 E0.18729
G1 X52.900 Y118.983 E0.18730
G1 X52.150 Y117.017 E0.20257
G1 X51.585 Y115.322 E0.17203
G1 X51.077 Y113.606 E0.17229
G1 X50.554 Y111.571 E0.20230
G1 X50.147 Y109.668 E0.18730
G1 X49.813 Y107.752 E0.18730
G1 X49.553 Y105.824 E0.18729
G1 X49.367 Y103.887 E0.18730
G1 X49.255 Y101.945 E0.18730
G1 X49.218 Y100.000 E0.18730
G1 X49.255 Y98.055 E0.18730
G1 X49.367 Y96.113 E0.18730
G1 X49.538 Y94.331 E0.17228
G1 X49.813 Y92.248 E0.20230
G1 X50.147 Y90.332 E0.18730
G1 X50.554 Y88.429 E0.18730
G1 X51.033 Y86.544 E0.18729
G1 X51.585 Y84.678 E0.18731
G1 X52.207 Y82.835 E0.18729
G1 X52.900 Y81.017 E0.18730
G1 X53.661 Y79.227 E0.18730
G1 X54.491 Y77.467 E0.18729
G1 X55.387 Y75.740 E0.18730
G1 X56.349 Y74.049 E0.18730
G1 X57.375 Y72.397 E0.18729
G1 X58.464 Y70.784 E0.18730
G1 X59.613 Y69.215 E0.18729
G1 X60.822 Y67.690 E0.18730
G1 X62.088 Y66.214 E0.18727
G1 X63.410 Y64.786 E0.18732
G1 X64.733 Y63.464 E0.18007
G1 E-2.40000 F3600.00000
G1 X69.244 Y69.244 F15000.000
G1 E2.40000 F3600.00000
G1 X71.481 Y67.108 E0.29776 F1350.000
G1 X71.481 Y67.175 E0.00638
G1 X72.213 Y66.538 E0.09344
G1 X73.788 Y65.290 E0.19344
G1 X75.419 Y64.117 E0.19344
G1 X77.103 Y63.020 E0.19344
G1 X78.835 Y62.002 E0.19345
G1 X80.613 Y61.065 E0.19345
G1 X82.431 Y60.211 E0.19344
G1 X84.288 Y59.442 E0.19344
G1 X86.178 Y58.760 E0.19345
G1 X88.097 Y58.165 E0.19344
G1 X90.042 Y57.660 E0.19344
G1 X92.008 Y57.245 E0.19344
G1 X93.991 Y56.922 E0.19344
G1 X95.987 Y56.690 E0.19344
G1 X97.991 Y56.551 E0.19344
G1 X100.000 Y56.505 E0.19344
G1 X102.009 Y56.551 E0.19344
G1 X104.013 Y56.690 E0.19344
G1 X106.009 Y56.922 E0.19344
G1 X107.992 Y57.245 E0.19344
G1 X109.958 Y57.660 E0.19344
G1 X111.903 Y58.165 E0.19344
G1 X113.822 Y58.760 E0.19344
G1 X115.712 Y59.442 E0.19345
G1 X117.569 Y60.211 E0.19344
G1 X119.387 Y61.065 E0.19344
G1 X121.165 Y62.002 E0.19345
G1 X122.897 Y63.020 E0.19345
G1 X124.581 Y64.117 E0.19344
G1 X126.212 Y65.290 E0.19344
